(G-CODE GENERATED BY FLATCAM v8.994 - www.flatcam.org - Version Date: 2020/11/7)

(Name: monitor_solar_v2-B_Cu.gbr_iso_combined_cnc)
(Type: G-code from Geometry)
(Units: MM)

(Created on Wednesday, 02 October 2024 at 01:19)

(This preprocessor is the default preprocessor used by FlatCAM.)
(It is made to work with MACH3 compatible motion controllers.)

(TOOL DIAMETER: 0.1 mm)
(Feedrate_XY: 120.0 mm/min)
(Feedrate_Z: 60.0 mm/min)
(Feedrate rapids 1500.0 mm/min)

(Z_Cut: 0.0 mm)
(Z_Move: 1.4 mm)
(Z Start: None mm)
(Z End: 15.0 mm)
(X,Y End: None mm)
(Steps per circle: 64)
(Preprocessor Geometry: default)

(X range:  -65.6345 ...   -0.3647  mm)
(Y range:  -64.6353 ...  -20.3647  mm)

(Spindle Speed: 0.0 RPM)
G21
G90
G94

G01 F120.00

M5
G00 Z15.0000
G00 X0.0000 Y0.0000
T1
M6    
(MSG, Change to Tool Dia = 0.1000)
M0
G00 Z15.0000

M03
G01 F120.00
G00 X-10.2744 Y-26.0650
G01 F60.00
G01 Z0.0000
G01 F120.00
G01 X-10.3000 Y-26.0650
G01 X-10.3099 Y-26.0654
G01 X-10.3198 Y-26.0665
G01 X-10.3328 Y-26.0690
G01 X-10.3455 Y-26.0729
G01 X-10.3577 Y-26.0780
G01 X-10.3694 Y-26.0842
G01 X-10.3831 Y-26.0936
G01 X-10.3931 Y-26.1022
G01 X-10.4022 Y-26.1118
G01 X-10.4104 Y-26.1223
G01 X-10.4175 Y-26.1335
G01 X-10.4234 Y-26.1453
G01 X-10.4292 Y-26.1608
G01 X-10.4324 Y-26.1737
G01 X-10.4343 Y-26.1868
G01 X-10.4350 Y-26.2000
G01 X-10.4350 Y-27.8000
G01 X-10.4346 Y-27.8099
G01 X-10.4335 Y-27.8198
G01 X-10.4301 Y-27.8360
G01 X-10.4271 Y-27.8455
G01 X-10.4234 Y-27.8547
G01 X-10.4191 Y-27.8636
G01 X-10.4141 Y-27.8722
G01 X-10.4084 Y-27.8804
G01 X-10.4022 Y-27.8882
G01 X-10.3907 Y-27.9000
G01 X-10.3831 Y-27.9064
G01 X-10.3750 Y-27.9122
G01 X-10.3665 Y-27.9175
G01 X-10.3577 Y-27.9220
G01 X-10.3486 Y-27.9260
G01 X-10.3392 Y-27.9292
G01 X-10.3296 Y-27.9317
G01 X-10.3198 Y-27.9335
G01 X-10.3099 Y-27.9346
G01 X-10.3000 Y-27.9350
G01 X-9.7703 Y-27.9350
G01 X-9.7703 Y-32.9650
G01 X-10.6533 Y-32.9650
G01 X-10.7056 Y-32.9676
G01 X-10.7188 Y-32.9689
G01 X-10.7739 Y-32.9772
G01 X-10.8311 Y-32.9914
G01 X-10.8406 Y-32.9944
G01 X-10.8930 Y-33.0133
G01 X-10.9434 Y-33.0370
G01 X-10.9551 Y-33.0432
G01 X-11.0028 Y-33.0720
G01 X-11.0476 Y-33.1051
G01 X-11.0579 Y-33.1135
G01 X-11.0942 Y-33.1464
G01 X-11.1036 Y-33.1558
G01 X-11.1409 Y-33.1972
G01 X-11.1780 Y-33.2472
G01 X-11.2100 Y-33.3007
G01 X-11.2340 Y-33.3509
G01 X-11.2390 Y-33.3632
G01 X-11.2577 Y-33.4157
G01 X-11.2728 Y-33.4761
G01 X-11.2819 Y-33.5378
G01 X-11.2850 Y-33.5967
G01 X-11.2850 Y-36.4033
G01 X-11.2819 Y-36.4622
G01 X-11.2739 Y-36.5174
G01 X-11.2713 Y-36.5303
G01 X-11.2594 Y-36.5779
G01 X-11.2556 Y-36.5906
G01 X-11.2367 Y-36.6430
G01 X-11.2100 Y-36.6993
G01 X-11.1780 Y-36.7528
G01 X-11.1449 Y-36.7976
G01 X-11.1365 Y-36.8079
G01 X-11.0990 Y-36.8490
G01 X-11.0528 Y-36.8909
G01 X-11.0028 Y-36.9280
G01 X-10.9493 Y-36.9600
G01 X-10.8930 Y-36.9867
G01 X-10.8343 Y-37.0077
G01 X-10.7739 Y-37.0228
G01 X-10.7122 Y-37.0319
G01 X-10.6500 Y-37.0350
G01 X-9.6467 Y-37.0350
G01 X-9.5878 Y-37.0319
G01 X-9.5261 Y-37.0228
G01 X-9.4657 Y-37.0077
G01 X-9.4070 Y-36.9867
G01 X-9.3507 Y-36.9600
G01 X-9.2972 Y-36.9280
G01 X-9.2472 Y-36.8909
G01 X-9.2010 Y-36.8490
G01 X-9.1591 Y-36.8028
G01 X-9.1220 Y-36.7528
G01 X-9.0900 Y-36.6993
G01 X-9.0660 Y-36.6491
G01 X-9.0610 Y-36.6368
G01 X-9.0423 Y-36.5843
G01 X-9.0287 Y-36.5303
G01 X-9.0261 Y-36.5174
G01 X-9.0189 Y-36.4688
G01 X-9.0178 Y-36.4589
G01 X-9.0150 Y-36.4000
G01 X-9.0150 Y-35.8974
G01 X-3.8500 Y-35.8974
G01 X-3.7620 Y-35.8931
G01 X-3.7066 Y-35.8850
G01 X-3.2217 Y-35.8850
G01 X-3.1750 Y-35.8825
G01 X-3.1320 Y-35.8763
G01 X-3.1190 Y-35.8737
G01 X-3.0801 Y-35.8640
G01 X-3.0707 Y-35.8610
G01 X-3.0298 Y-35.8462
G01 X-2.9846 Y-35.8248
G01 X-2.9417 Y-35.7990
G01 X-2.9067 Y-35.7733
G01 X-2.8964 Y-35.7649
G01 X-2.8667 Y-35.7379
G01 X-2.8598 Y-35.7308
G01 X-2.8351 Y-35.7036
G01 X-2.8267 Y-35.6933
G01 X-2.8028 Y-35.6611
G01 X-2.7974 Y-35.6527
G01 X-2.7752 Y-35.6154
G01 X-2.7565 Y-35.5762
G01 X-2.7526 Y-35.5671
G01 X-2.7370 Y-35.5230
G01 X-2.7263 Y-35.4810
G01 X-2.7237 Y-35.4680
G01 X-2.7175 Y-35.4250
G01 X-2.7150 Y-35.3750
G01 X-2.7150 Y-34.6250
G01 X-2.7175 Y-34.5750
G01 X-2.7237 Y-34.5320
G01 X-2.7263 Y-34.5190
G01 X-2.7370 Y-34.4770
G01 X-2.7538 Y-34.4298
G01 X-2.7752 Y-34.3846
G01 X-2.7974 Y-34.3473
G01 X-2.8048 Y-34.3362
G01 X-2.8308 Y-34.3015
G01 X-2.8644 Y-34.2644
G01 X-2.8964 Y-34.2351
G01 X-2.9067 Y-34.2267
G01 X-2.9417 Y-34.2010
G01 X-2.9788 Y-34.1785
G01 X-2.9905 Y-34.1722
G01 X-3.0298 Y-34.1538
G01 X-3.0770 Y-34.1370
G01 X-3.1190 Y-34.1263
G01 X-3.1320 Y-34.1237
G01 X-3.1750 Y-34.1175
G01 X-3.2184 Y-34.1152
G01 X-3.7066 Y-34.1150
G01 X-3.7620 Y-34.1069
G01 X-3.8500 Y-34.1026
G01 X-8.2731 Y-34.1026
G01 X-8.2649 Y-34.0799
G01 X-8.2619 Y-34.0704
G01 X-8.2459 Y-34.0067
G01 X-8.2439 Y-33.9970
G01 X-8.2334 Y-33.9255
G01 X-8.2297 Y-33.8500
G01 X-8.2298 Y-27.4934
G01 X-8.2329 Y-27.4311
G01 X-8.2342 Y-27.4179
G01 X-8.2445 Y-27.3497
G01 X-8.2611 Y-27.2828
G01 X-8.2649 Y-27.2701
G01 X-8.2883 Y-27.2052
G01 X-8.3191 Y-27.1398
G01 X-8.3239 Y-27.1311
G01 X-8.3595 Y-27.0720
G01 X-8.4045 Y-27.0113
G01 X-8.4530 Y-26.9577
G01 X-8.5650 Y-26.8456
G01 X-8.5650 Y-26.2000
G01 X-8.5654 Y-26.1901
G01 X-8.5665 Y-26.1802
G01 X-8.5683 Y-26.1704
G01 X-8.5708 Y-26.1608
G01 X-8.5753 Y-26.1483
G01 X-8.5794 Y-26.1393
G01 X-8.5859 Y-26.1278
G01 X-8.5936 Y-26.1169
G01 X-8.6022 Y-26.1069
G01 X-8.6093 Y-26.1000
G01 X-8.6196 Y-26.0916
G01 X-8.6306 Y-26.0842
G01 X-8.6393 Y-26.0794
G01 X-8.6514 Y-26.0740
G01 X-8.6640 Y-26.0699
G01 X-8.6737 Y-26.0676
G01 X-8.6835 Y-26.0660
G01 X-8.6934 Y-26.0652
G01 X-8.7297 Y-26.0650
G01 X-8.7297 Y-25.7467
G01 X-8.7334 Y-25.6745
G01 X-8.7434 Y-25.6062
G01 X-8.7452 Y-25.5965
G01 X-8.7611 Y-25.5328
G01 X-8.7649 Y-25.5201
G01 X-8.7883 Y-25.4552
G01 X-8.8177 Y-25.3928
G01 X-8.8239 Y-25.3811
G01 X-8.8595 Y-25.3220
G01 X-8.9005 Y-25.2665
G01 X-8.9067 Y-25.2588
G01 X-8.9553 Y-25.2053
G01 X-11.3277 Y-22.8330
G01 X-11.3763 Y-22.7889
G01 X-11.3865 Y-22.7805
G01 X-11.4420 Y-22.7395
G01 X-11.5011 Y-22.7039
G01 X-11.5128 Y-22.6977
G01 X-11.5752 Y-22.6683
G01 X-11.6401 Y-22.6449
G01 X-11.6496 Y-22.6419
G01 X-11.7197 Y-22.6245
G01 X-11.7879 Y-22.6142
G01 X-11.8011 Y-22.6129
G01 X-11.8700 Y-22.6097
G01 X-17.2650 Y-22.6097
G01 X-17.2650 Y-21.7800
G01 X-17.2654 Y-21.7701
G01 X-17.2676 Y-21.7537
G01 X-17.2718 Y-21.7377
G01 X-17.2780 Y-21.7223
G01 X-17.2859 Y-21.7078
G01 X-17.2956 Y-21.6944
G01 X-17.3069 Y-21.6822
G01 X-17.3196 Y-21.6716
G01 X-17.3335 Y-21.6625
G01 X-17.3483 Y-21.6553
G01 X-17.3577 Y-21.6518
G01 X-17.3672 Y-21.6490
G01 X-17.3835 Y-21.6460
G01 X-17.4000 Y-21.6450
G01 X-19.6456 Y-21.6450
G01 X-20.7003 Y-20.5903
G01 X-20.7563 Y-20.5395
G01 X-20.8170 Y-20.4945
G01 X-20.8761 Y-20.4589
G01 X-20.8878 Y-20.4527
G01 X-20.9442 Y-20.4260
G01 X-20.9564 Y-20.4209
G01 X-21.0214 Y-20.3979
G01 X-21.0947 Y-20.3795
G01 X-21.1695 Y-20.3684
G01 X-21.2417 Y-20.3647
G01 X-37.2150 Y-20.3647
G01 X-37.2839 Y-20.3679
G01 X-37.2938 Y-20.3688
G01 X-37.3653 Y-20.3795
G01 X-37.4322 Y-20.3961
G01 X-37.4449 Y-20.3999
G01 X-37.5036 Y-20.4209
G01 X-37.5158 Y-20.4260
G01 X-37.5781 Y-20.4556
G01 X-37.6430 Y-20.4945
G01 X-37.7037 Y-20.5395
G01 X-37.7549 Y-20.5857
G01 X-40.0800 Y-22.9106
G01 X-42.4051 Y-20.5857
G01 X-42.4563 Y-20.5395
G01 X-42.5170 Y-20.4945
G01 X-42.5819 Y-20.4556
G01 X-42.6442 Y-20.4260
G01 X-42.6564 Y-20.4209
G01 X-42.7151 Y-20.3999
G01 X-42.7278 Y-20.3961
G01 X-42.7947 Y-20.3795
G01 X-42.8629 Y-20.3692
G01 X-42.8728 Y-20.3681
G01 X-42.9450 Y-20.3647
G01 X-50.7550 Y-20.3647
G01 X-50.8239 Y-20.3679
G01 X-50.8338 Y-20.3688
G01 X-50.9053 Y-20.3795
G01 X-50.9722 Y-20.3961
G01 X-50.9849 Y-20.3999
G01 X-51.0498 Y-20.4233
G01 X-51.1181 Y-20.4556
G01 X-51.1774 Y-20.4910
G01 X-51.1884 Y-20.4983
G01 X-51.2437 Y-20.5395
G01 X-51.2997 Y-20.5903
G01 X-52.3544 Y-21.6450
G01 X-54.6066 Y-21.6452
G01 X-54.6198 Y-21.6465
G01 X-54.6296 Y-21.6483
G01 X-54.6423 Y-21.6518
G01 X-54.6547 Y-21.6566
G01 X-54.6636 Y-21.6609
G01 X-54.6750 Y-21.6678
G01 X-54.6831 Y-21.6736
G01 X-54.6931 Y-21.6822
G01 X-54.7022 Y-21.6918
G01 X-54.7084 Y-21.6996
G01 X-54.7158 Y-21.7106
G01 X-54.7206 Y-21.7193
G01 X-54.7260 Y-21.7314
G01 X-54.7301 Y-21.7440
G01 X-54.7330 Y-21.7569
G01 X-54.7343 Y-21.7668
G01 X-54.7350 Y-21.7800
G01 X-54.7350 Y-24.9833
G01 X-54.7343 Y-24.9932
G01 X-54.7324 Y-25.0063
G01 X-54.7292 Y-25.0192
G01 X-54.7247 Y-25.0317
G01 X-54.7191 Y-25.0436
G01 X-54.7141 Y-25.0522
G01 X-54.7084 Y-25.0604
G01 X-54.7000 Y-25.0707
G01 X-54.6907 Y-25.0800
G01 X-54.6804 Y-25.0884
G01 X-54.6694 Y-25.0958
G01 X-54.6607 Y-25.1006
G01 X-54.6486 Y-25.1060
G01 X-54.6360 Y-25.1101
G01 X-54.6263 Y-25.1124
G01 X-54.6132 Y-25.1143
G01 X-54.6000 Y-25.1150
G01 X-51.4000 Y-25.1150
G01 X-51.3901 Y-25.1146
G01 X-51.3769 Y-25.1130
G01 X-51.3672 Y-25.1110
G01 X-51.3545 Y-25.1071
G01 X-51.3453 Y-25.1034
G01 X-51.3364 Y-25.0991
G01 X-51.3250 Y-25.0922
G01 X-51.3169 Y-25.0864
G01 X-51.3069 Y-25.0778
G01 X-51.2956 Y-25.0656
G01 X-51.2859 Y-25.0522
G01 X-51.2794 Y-25.0407
G01 X-51.2729 Y-25.0255
G01 X-51.2690 Y-25.0128
G01 X-51.2660 Y-24.9965
G01 X-51.2650 Y-24.9833
G01 X-51.2650 Y-22.7344
G01 X-50.4359 Y-21.9053
G01 X-43.2641 Y-21.9053
G01 X-41.0650 Y-24.1044
G01 X-41.0648 Y-24.8566
G01 X-41.0635 Y-24.8698
G01 X-41.0601 Y-24.8860
G01 X-41.0547 Y-24.9017
G01 X-41.0491 Y-24.9136
G01 X-41.0404 Y-24.9277
G01 X-41.0322 Y-24.9382
G01 X-41.0231 Y-24.9478
G01 X-41.0131 Y-24.9564
G01 X-41.0022 Y-24.9641
G01 X-40.9936 Y-24.9691
G01 X-40.9847 Y-24.9734
G01 X-40.9755 Y-24.9771
G01 X-40.9660 Y-24.9801
G01 X-40.9563 Y-24.9824
G01 X-40.9465 Y-24.9840
G01 X-40.9333 Y-24.9850
G01 X-39.2300 Y-24.9850
G01 X-39.2168 Y-24.9843
G01 X-39.2069 Y-24.9830
G01 X-39.1940 Y-24.9801
G01 X-39.1845 Y-24.9771
G01 X-39.1753 Y-24.9734
G01 X-39.1635 Y-24.9675
G01 X-39.1523 Y-24.9604
G01 X-39.1418 Y-24.9522
G01 X-39.1345 Y-24.9455
G01 X-39.1256 Y-24.9356
G01 X-39.1196 Y-24.9277
G01 X-39.1125 Y-24.9165
G01 X-39.1066 Y-24.9047
G01 X-39.1018 Y-24.8923
G01 X-39.0990 Y-24.8828
G01 X-39.0965 Y-24.8698
G01 X-39.0954 Y-24.8599
G01 X-39.0950 Y-24.8500
G01 X-39.0950 Y-24.1044
G01 X-36.8959 Y-21.9053
G01 X-21.5641 Y-21.9053
G01 X-20.7350 Y-22.7344
G01 X-20.7348 Y-24.9866
G01 X-20.7340 Y-24.9965
G01 X-20.7324 Y-25.0063
G01 X-20.7301 Y-25.0160
G01 X-20.7271 Y-25.0255
G01 X-20.7234 Y-25.0347
G01 X-20.7191 Y-25.0436
G01 X-20.7141 Y-25.0522
G01 X-20.7084 Y-25.0604
G01 X-20.7022 Y-25.0682
G01 X-20.6955 Y-25.0755
G01 X-20.6882 Y-25.0822
G01 X-20.6804 Y-25.0884
G01 X-20.6722 Y-25.0941
G01 X-20.6636 Y-25.0991
G01 X-20.6547 Y-25.1034
G01 X-20.6455 Y-25.1071
G01 X-20.6328 Y-25.1110
G01 X-20.6231 Y-25.1130
G01 X-20.6099 Y-25.1146
G01 X-20.6000 Y-25.1150
G01 X-17.4000 Y-25.1150
G01 X-17.3901 Y-25.1146
G01 X-17.3802 Y-25.1135
G01 X-17.3640 Y-25.1101
G01 X-17.3514 Y-25.1060
G01 X-17.3423 Y-25.1020
G01 X-17.3335 Y-25.0975
G01 X-17.3250 Y-25.0922
G01 X-17.3169 Y-25.0864
G01 X-17.3093 Y-25.0800
G01 X-17.3022 Y-25.0731
G01 X-17.2956 Y-25.0656
G01 X-17.2896 Y-25.0577
G01 X-17.2842 Y-25.0494
G01 X-17.2794 Y-25.0407
G01 X-17.2753 Y-25.0317
G01 X-17.2718 Y-25.0223
G01 X-17.2690 Y-25.0128
G01 X-17.2670 Y-25.0031
G01 X-17.2657 Y-24.9932
G01 X-17.2650 Y-24.9800
G01 X-17.2650 Y-24.1503
G01 X-12.1891 Y-24.1503
G01 X-10.2744 Y-26.0650
G00 Z1.4000
G00 X-11.6504 Y-27.7739
G01 F60.00
G01 Z0.0000
G01 F120.00
G01 X-11.6759 Y-27.7858
G01 X-11.7533 Y-27.8134
G01 X-11.8330 Y-27.8334
G01 X-11.8698 Y-27.8390
G01 X-12.2562 Y-28.2254
G01 X-12.2179 Y-28.2357
G01 X-12.0000 Y-28.2548
G01 X-11.7821 Y-28.2357
G01 X-11.5708 Y-28.1791
G01 X-11.3726 Y-28.0867
G01 X-11.3520 Y-28.0722
G01 X-11.6504 Y-27.7739
G00 Z1.4000
G00 X-12.0736 Y-28.1630
G01 F60.00
G01 Z0.0000
G01 F120.00
G01 X-12.0000 Y-28.1695
G01 X-11.7969 Y-28.1517
G01 X-11.6000 Y-28.0989
G01 X-11.4947 Y-28.0498
G01 X-11.6704 Y-27.8741
G01 X-11.7223 Y-27.8927
G01 X-11.7318 Y-27.8957
G01 X-11.8111 Y-27.9156
G01 X-11.8208 Y-27.9176
G01 X-11.8296 Y-27.9190
G01 X-12.0736 Y-28.1630
G00 Z1.4000
G00 X-9.6853 Y-33.0500
G01 F60.00
G01 Z0.0000
G01 F120.00
G01 X-10.6512 Y-33.0500
G01 X-10.7063 Y-33.0529
G01 X-10.7573 Y-33.0606
G01 X-10.8073 Y-33.0730
G01 X-10.8605 Y-33.0919
G01 X-10.9114 Y-33.1162
G01 X-10.9556 Y-33.1427
G01 X-10.9970 Y-33.1733
G01 X-11.0389 Y-33.2111
G01 X-11.0752 Y-33.2511
G01 X-11.1086 Y-33.2965
G01 X-11.1351 Y-33.3407
G01 X-11.1571 Y-33.3873
G01 X-11.1763 Y-33.4403
G01 X-11.1894 Y-33.4927
G01 X-11.1971 Y-33.5437
G01 X-11.2000 Y-33.6000
G01 X-11.2000 Y-36.4000
G01 X-11.1974 Y-36.4539
G01 X-11.1889 Y-36.5097
G01 X-11.1763 Y-36.5597
G01 X-11.1581 Y-36.6105
G01 X-11.1338 Y-36.6614
G01 X-11.1073 Y-36.7056
G01 X-11.0767 Y-36.7470
G01 X-11.0371 Y-36.7906
G01 X-10.9989 Y-36.8252
G01 X-10.9576 Y-36.8559
G01 X-10.9093 Y-36.8851
G01 X-10.8582 Y-36.9090
G01 X-10.8097 Y-36.9263
G01 X-10.7573 Y-36.9394
G01 X-10.7039 Y-36.9474
G01 X-10.6512 Y-36.9500
G01 X-9.6488 Y-36.9500
G01 X-9.5961 Y-36.9474
G01 X-9.5451 Y-36.9399
G01 X-9.4903 Y-36.9263
G01 X-9.4373 Y-36.9071
G01 X-9.3907 Y-36.8851
G01 X-9.3455 Y-36.8580
G01 X-9.3011 Y-36.8252
G01 X-9.2611 Y-36.7889
G01 X-9.2248 Y-36.7489
G01 X-9.1927 Y-36.7056
G01 X-9.1649 Y-36.6593
G01 X-9.1419 Y-36.6105
G01 X-9.1237 Y-36.5597
G01 X-9.1108 Y-36.5085
G01 X-9.1026 Y-36.4539
G01 X-9.1000 Y-36.4012
G01 X-9.1000 Y-35.8124
G01 X-3.8500 Y-35.8124
G01 X-3.7704 Y-35.8085
G01 X-3.7129 Y-35.8000
G01 X-3.2225 Y-35.7999
G01 X-3.1833 Y-35.7980
G01 X-3.1445 Y-35.7923
G01 X-3.1016 Y-35.7817
G01 X-3.0601 Y-35.7667
G01 X-3.0247 Y-35.7498
G01 X-2.9889 Y-35.7284
G01 X-2.9535 Y-35.7019
G01 X-2.9245 Y-35.6755
G01 X-2.8965 Y-35.6446
G01 X-2.8716 Y-35.6111
G01 X-2.8514 Y-35.5775
G01 X-2.8315 Y-35.5354
G01 X-2.8183 Y-35.4984
G01 X-2.8082 Y-35.4579
G01 X-2.8020 Y-35.4167
G01 X-2.8000 Y-35.3762
G01 X-2.8000 Y-34.6250
G01 X-2.8020 Y-34.5833
G01 X-2.8084 Y-34.5409
G01 X-2.8183 Y-34.5016
G01 X-2.8315 Y-34.4646
G01 X-2.8502 Y-34.4247
G01 X-2.8716 Y-34.3889
G01 X-2.8950 Y-34.3573
G01 X-2.9245 Y-34.3245
G01 X-2.9573 Y-34.2950
G01 X-2.9889 Y-34.2716
G01 X-3.0247 Y-34.2502
G01 X-3.0646 Y-34.2315
G01 X-3.1016 Y-34.2183
G01 X-3.1397 Y-34.2087
G01 X-3.1833 Y-34.2020
G01 X-3.2238 Y-34.2000
G01 X-3.7129 Y-34.2000
G01 X-3.7704 Y-34.1915
G01 X-3.8500 Y-34.1876
G01 X-8.4043 Y-34.1876
G01 X-8.3950 Y-34.1720
G01 X-8.3673 Y-34.1134
G01 X-8.3439 Y-34.0478
G01 X-8.3279 Y-33.9837
G01 X-8.3183 Y-33.9196
G01 X-8.3147 Y-33.8512
G01 X-8.3147 Y-27.4988
G01 X-8.3183 Y-27.4304
G01 X-8.3279 Y-27.3663
G01 X-8.3435 Y-27.3034
G01 X-8.3668 Y-27.2377
G01 X-8.3956 Y-27.1769
G01 X-8.4302 Y-27.1193
G01 X-8.4710 Y-27.0643
G01 X-8.5146 Y-27.0163
G01 X-8.6500 Y-26.8808
G01 X-8.6500 Y-26.2000
G01 X-8.6505 Y-26.1927
G01 X-8.6518 Y-26.1867
G01 X-8.6543 Y-26.1797
G01 X-8.6571 Y-26.1743
G01 X-8.6613 Y-26.1683
G01 X-8.6655 Y-26.1638
G01 X-8.6702 Y-26.1598
G01 X-8.6764 Y-26.1559
G01 X-8.6832 Y-26.1529
G01 X-8.6890 Y-26.1512
G01 X-8.6939 Y-26.1504
G01 X-8.7000 Y-26.1500
G01 X-8.8147 Y-26.1500
G01 X-8.8147 Y-25.7488
G01 X-8.8180 Y-25.6828
G01 X-8.8279 Y-25.6163
G01 X-8.8450 Y-25.5487
G01 X-8.8668 Y-25.4877
G01 X-8.8945 Y-25.4291
G01 X-8.9302 Y-25.3693
G01 X-8.9710 Y-25.3143
G01 X-9.0154 Y-25.2654
G01 X-11.3863 Y-22.8946
G01 X-11.4372 Y-22.8487
G01 X-11.4893 Y-22.8102
G01 X-11.5448 Y-22.7768
G01 X-11.6077 Y-22.7468
G01 X-11.6734 Y-22.7235
G01 X-11.7363 Y-22.7079
G01 X-11.8004 Y-22.6983
G01 X-11.8700 Y-22.6947
G01 X-17.3500 Y-22.6947
G01 X-17.3500 Y-21.7788
G01 X-17.3505 Y-21.7727
G01 X-17.3518 Y-21.7667
G01 X-17.3543 Y-21.7597
G01 X-17.3571 Y-21.7543
G01 X-17.3606 Y-21.7492
G01 X-17.3646 Y-21.7446
G01 X-17.3692 Y-21.7406
G01 X-17.3754 Y-21.7365
G01 X-17.3809 Y-21.7338
G01 X-17.3879 Y-21.7315
G01 X-17.3939 Y-21.7304
G01 X-17.4000 Y-21.7300
G01 X-19.6808 Y-21.7300
G01 X-20.7604 Y-20.6504
G01 X-20.8102 Y-20.6052
G01 X-20.8643 Y-20.5652
G01 X-20.9198 Y-20.5318
G01 X-20.9850 Y-20.5010
G01 X-21.0461 Y-20.4792
G01 X-21.1113 Y-20.4629
G01 X-21.1778 Y-20.4530
G01 X-21.2438 Y-20.4497
G01 X-37.2150 Y-20.4497
G01 X-37.2846 Y-20.4533
G01 X-37.3487 Y-20.4629
G01 X-37.4139 Y-20.4792
G01 X-37.4773 Y-20.5018
G01 X-37.5359 Y-20.5295
G01 X-37.5977 Y-20.5666
G01 X-37.6498 Y-20.6052
G01 X-37.6978 Y-20.6487
G01 X-40.0800 Y-23.0308
G01 X-42.4622 Y-20.6487
G01 X-42.5102 Y-20.6052
G01 X-42.5643 Y-20.5652
G01 X-42.6219 Y-20.5306
G01 X-42.6805 Y-20.5028
G01 X-42.7484 Y-20.4785
G01 X-42.8113 Y-20.4629
G01 X-42.8778 Y-20.4530
G01 X-42.9450 Y-20.4497
G01 X-50.7550 Y-20.4497
G01 X-50.8234 Y-20.4531
G01 X-50.8887 Y-20.4629
G01 X-50.9516 Y-20.4785
G01 X-51.0173 Y-20.5018
G01 X-51.0781 Y-20.5306
G01 X-51.1337 Y-20.5639
G01 X-51.1907 Y-20.6060
G01 X-51.2396 Y-20.6504
G01 X-52.3192 Y-21.7300
G01 X-54.6012 Y-21.7300
G01 X-54.6085 Y-21.7307
G01 X-54.6168 Y-21.7329
G01 X-54.6246 Y-21.7365
G01 X-54.6317 Y-21.7413
G01 X-54.6379 Y-21.7473
G01 X-54.6422 Y-21.7533
G01 X-54.6462 Y-21.7609
G01 X-54.6485 Y-21.7679
G01 X-54.6496 Y-21.7739
G01 X-54.6500 Y-21.7800
G01 X-54.6500 Y-24.9812
G01 X-54.6490 Y-24.9898
G01 X-54.6462 Y-24.9991
G01 X-54.6422 Y-25.0067
G01 X-54.6362 Y-25.0145
G01 X-54.6288 Y-25.0209
G01 X-54.6203 Y-25.0257
G01 X-54.6121 Y-25.0285
G01 X-54.6025 Y-25.0299
G01 X-51.4000 Y-25.0300
G01 X-51.3927 Y-25.0295
G01 X-51.3843 Y-25.0275
G01 X-51.3764 Y-25.0241
G01 X-51.3692 Y-25.0194
G01 X-51.3646 Y-25.0154
G01 X-51.3613 Y-25.0117
G01 X-51.3584 Y-25.0078
G01 X-51.3553 Y-25.0025
G01 X-51.3529 Y-24.9968
G01 X-51.3512 Y-24.9910
G01 X-51.3504 Y-24.9861
G01 X-51.3500 Y-24.9800
G01 X-51.3500 Y-22.6992
G01 X-50.4711 Y-21.8203
G01 X-43.2289 Y-21.8203
G01 X-40.9800 Y-24.0692
G01 X-40.9799 Y-24.8525
G01 X-40.9785 Y-24.8621
G01 X-40.9757 Y-24.8703
G01 X-40.9716 Y-24.8778
G01 X-40.9654 Y-24.8854
G01 X-40.9588 Y-24.8909
G01 X-40.9503 Y-24.8957
G01 X-40.9410 Y-24.8988
G01 X-40.9325 Y-24.8999
G01 X-39.2300 Y-24.9000
G01 X-39.2215 Y-24.8993
G01 X-39.2132 Y-24.8971
G01 X-39.2054 Y-24.8935
G01 X-39.1992 Y-24.8894
G01 X-39.1946 Y-24.8854
G01 X-39.1913 Y-24.8817
G01 X-39.1884 Y-24.8778
G01 X-39.1853 Y-24.8725
G01 X-39.1834 Y-24.8680
G01 X-39.1815 Y-24.8621
G01 X-39.1805 Y-24.8573
G01 X-39.1800 Y-24.8512
G01 X-39.1800 Y-24.0692
G01 X-36.9311 Y-21.8203
G01 X-21.5289 Y-21.8203
G01 X-20.6500 Y-22.6992
G01 X-20.6500 Y-24.9812
G01 X-20.6488 Y-24.9910
G01 X-20.6462 Y-24.9991
G01 X-20.6416 Y-25.0078
G01 X-20.6362 Y-25.0145
G01 X-20.6298 Y-25.0202
G01 X-20.6225 Y-25.0247
G01 X-20.6133 Y-25.0282
G01 X-20.6049 Y-25.0298
G01 X-17.4000 Y-25.0300
G01 X-17.3927 Y-25.0295
G01 X-17.3855 Y-25.0278
G01 X-17.3786 Y-25.0252
G01 X-17.3712 Y-25.0209
G01 X-17.3655 Y-25.0162
G01 X-17.3606 Y-25.0108
G01 X-17.3559 Y-25.0036
G01 X-17.3529 Y-24.9968
G01 X-17.3510 Y-24.9898
G01 X-17.3501 Y-24.9825
G01 X-17.3500 Y-24.0653
G01 X-12.1539 Y-24.0653
G01 X-10.1853 Y-26.0339
G01 X-10.1853 Y-26.1500
G01 X-10.3012 Y-26.1500
G01 X-10.3073 Y-26.1505
G01 X-10.3133 Y-26.1518
G01 X-10.3203 Y-26.1543
G01 X-10.3267 Y-26.1578
G01 X-10.3327 Y-26.1621
G01 X-10.3387 Y-26.1683
G01 X-10.3429 Y-26.1743
G01 X-10.3462 Y-26.1809
G01 X-10.3485 Y-26.1879
G01 X-10.3498 Y-26.1951
G01 X-10.3500 Y-27.8000
G01 X-10.3496 Y-27.8061
G01 X-10.3482 Y-27.8133
G01 X-10.3452 Y-27.8214
G01 X-10.3416 Y-27.8278
G01 X-10.3370 Y-27.8336
G01 X-10.3317 Y-27.8387
G01 X-10.3246 Y-27.8435
G01 X-10.3180 Y-27.8466
G01 X-10.3098 Y-27.8490
G01 X-10.3025 Y-27.8499
G01 X-9.6853 Y-27.8500
G01 X-9.6853 Y-33.0500
G00 Z1.4000
G00 X-3.0765 Y-33.5629
G01 F60.00
G01 Z0.0000
G01 F120.00
G01 X-1.9053 Y-34.7341
G01 X-1.9053 Y-38.8159
G01 X-4.0470 Y-40.9577
G01 X-4.0911 Y-41.0063
G01 X-4.0995 Y-41.0165
G01 X-4.1405 Y-41.0720
G01 X-4.1761 Y-41.1311
G01 X-4.1823 Y-41.1428
G01 X-4.2117 Y-41.2052
G01 X-4.2351 Y-41.2701
G01 X-4.2381 Y-41.2796
G01 X-4.2541 Y-41.3433
G01 X-4.2566 Y-41.3562
G01 X-4.2666 Y-41.4245
G01 X-4.2702 Y-41.4934
G01 X-4.2703 Y-42.0650
G01 X-4.3000 Y-42.0650
G01 X-4.3099 Y-42.0654
G01 X-4.3231 Y-42.0670
G01 X-4.3328 Y-42.0690
G01 X-4.3455 Y-42.0729
G01 X-4.3577 Y-42.0780
G01 X-4.3694 Y-42.0842
G01 X-4.3804 Y-42.0916
G01 X-4.3907 Y-42.1000
G01 X-4.4000 Y-42.1093
G01 X-4.4084 Y-42.1196
G01 X-4.4158 Y-42.1306
G01 X-4.4220 Y-42.1423
G01 X-4.4282 Y-42.1577
G01 X-4.4317 Y-42.1704
G01 X-4.4340 Y-42.1835
G01 X-4.4350 Y-42.2000
G01 X-4.4350 Y-42.8456
G01 X-4.5470 Y-42.9577
G01 X-4.5933 Y-43.0088
G01 X-4.5995 Y-43.0165
G01 X-4.6405 Y-43.0720
G01 X-4.6778 Y-43.1340
G01 X-4.6823 Y-43.1428
G01 X-4.7117 Y-43.2052
G01 X-4.7371 Y-43.2764
G01 X-4.7555 Y-43.3497
G01 X-4.7666 Y-43.4245
G01 X-4.7703 Y-43.5000
G01 X-4.7703 Y-47.9350
G01 X-4.8500 Y-47.9350
G01 X-4.8665 Y-47.9360
G01 X-4.8796 Y-47.9383
G01 X-4.8923 Y-47.9418
G01 X-4.9047 Y-47.9466
G01 X-4.9165 Y-47.9525
G01 X-4.9277 Y-47.9596
G01 X-4.9407 Y-47.9700
G01 X-4.9522 Y-47.9818
G01 X-4.9622 Y-47.9950
G01 X-4.9706 Y-48.0093
G01 X-4.9771 Y-48.0245
G01 X-4.9817 Y-48.0404
G01 X-4.9840 Y-48.0535
G01 X-4.9850 Y-48.0700
G01 X-4.9848 Y-49.7766
G01 X-4.9835 Y-49.7898
G01 X-4.9810 Y-49.8028
G01 X-4.9771 Y-49.8155
G01 X-4.9734 Y-49.8247
G01 X-4.9675 Y-49.8365
G01 X-4.9622 Y-49.8450
G01 X-4.9544 Y-49.8556
G01 X-4.9478 Y-49.8631
G01 X-4.9382 Y-49.8722
G01 X-4.9304 Y-49.8784
G01 X-4.9194 Y-49.8858
G01 X-4.9077 Y-49.8920
G01 X-4.8986 Y-49.8960
G01 X-4.8860 Y-49.9001
G01 X-4.8731 Y-49.9030
G01 X-4.8599 Y-49.9046
G01 X-4.8500 Y-49.9050
G01 X-3.3194 Y-49.9050
G01 X-1.9053 Y-51.3191
G01 X-1.9053 Y-54.8159
G01 X-3.3191 Y-56.2297
G01 X-6.0066 Y-56.2298
G01 X-6.0755 Y-56.2334
G01 X-6.1438 Y-56.2434
G01 X-6.1567 Y-56.2459
G01 X-6.2236 Y-56.2629
G01 X-6.2948 Y-56.2883
G01 X-6.3572 Y-56.3177
G01 X-6.3689 Y-56.3239
G01 X-6.4224 Y-56.3560
G01 X-6.4334 Y-56.3633
G01 X-6.4887 Y-56.4045
G01 X-6.5447 Y-56.4553
G01 X-13.1841 Y-63.0947
G01 X-24.8159 Y-63.0947
G01 X-30.2297 Y-57.6809
G01 X-30.2297 Y-44.8850
G01 X-30.2334 Y-44.8095
G01 X-30.2434 Y-44.7412
G01 X-30.2459 Y-44.7283
G01 X-30.2629 Y-44.6614
G01 X-30.2859 Y-44.5964
G01 X-30.2910 Y-44.5842
G01 X-30.3206 Y-44.5219
G01 X-30.3560 Y-44.4626
G01 X-30.3633 Y-44.4516
G01 X-30.4045 Y-44.3963
G01 X-30.4530 Y-44.3427
G01 X-33.7660 Y-41.0296
G01 X-33.7674 Y-41.0208
G01 X-33.7694 Y-41.0111
G01 X-33.7885 Y-40.9350
G01 X-33.7923 Y-40.9223
G01 X-33.8212 Y-40.8422
G01 X-33.8604 Y-40.7592
G01 X-33.9040 Y-40.6861
G01 X-33.9114 Y-40.6751
G01 X-33.9622 Y-40.6068
G01 X-34.0215 Y-40.5412
G01 X-34.0287 Y-40.5343
G01 X-34.0868 Y-40.4816
G01 X-34.0971 Y-40.4732
G01 X-34.1655 Y-40.4226
G01 X-34.2442 Y-40.3754
G01 X-34.3211 Y-40.3389
G01 X-34.3334 Y-40.3338
G01 X-34.4136 Y-40.3053
G01 X-34.4993 Y-40.2837
G01 X-34.5091 Y-40.2818
G01 X-34.5934 Y-40.2695
G01 X-34.6817 Y-40.2650
G01 X-35.4850 Y-40.2650
G01 X-35.5733 Y-40.2692
G01 X-35.5832 Y-40.2703
G01 X-35.6674 Y-40.2830
G01 X-35.7564 Y-40.3053
G01 X-35.8428 Y-40.3362
G01 X-35.9198 Y-40.3724
G01 X-35.9287 Y-40.3770
G01 X-36.0045 Y-40.4226
G01 X-36.0729 Y-40.4732
G01 X-36.0832 Y-40.4816
G01 X-36.1461 Y-40.5389
G01 X-36.2078 Y-40.6068
G01 X-36.2586 Y-40.6751
G01 X-36.2660 Y-40.6861
G01 X-36.3063 Y-40.7535
G01 X-36.3126 Y-40.7652
G01 X-36.3488 Y-40.8422
G01 X-36.3777 Y-40.9223
G01 X-36.3815 Y-40.9350
G01 X-36.4006 Y-41.0111
G01 X-36.4032 Y-41.0241
G01 X-36.4155 Y-41.1084
G01 X-36.4200 Y-41.2000
G01 X-36.4155 Y-41.2916
G01 X-36.4032 Y-41.3759
G01 X-36.4006 Y-41.3889
G01 X-36.3797 Y-41.4714
G01 X-36.3512 Y-41.5516
G01 X-36.3461 Y-41.5639
G01 X-36.3126 Y-41.6348
G01 X-36.3063 Y-41.6465
G01 X-36.2624 Y-41.7195
G01 X-36.2118 Y-41.7879
G01 X-36.2034 Y-41.7982
G01 X-36.1461 Y-41.8611
G01 X-36.0782 Y-41.9228
G01 X-36.0045 Y-41.9774
G01 X-35.9315 Y-42.0213
G01 X-35.9198 Y-42.0276
G01 X-35.8428 Y-42.0638
G01 X-35.7564 Y-42.0947
G01 X-35.6674 Y-42.1170
G01 X-35.5766 Y-42.1305
G01 X-35.4850 Y-42.1350
G01 X-34.8394 Y-42.1350
G01 X-31.7703 Y-45.2041
G01 X-31.7703 Y-58.0000
G01 X-31.7666 Y-58.0755
G01 X-31.7566 Y-58.1438
G01 X-31.7541 Y-58.1567
G01 X-31.7389 Y-58.2172
G01 X-31.7361 Y-58.2268
G01 X-31.7141 Y-58.2886
G01 X-31.7090 Y-58.3008
G01 X-31.6794 Y-58.3631
G01 X-31.6440 Y-58.4224
G01 X-31.6367 Y-58.4334
G01 X-31.5955 Y-58.4887
G01 X-31.5470 Y-58.5423
G01 X-26.9947 Y-63.0947
G01 X-47.9684 Y-63.0947
G01 X-49.2297 Y-61.8334
G01 X-49.2297 Y-61.7400
G01 X-48.7000 Y-61.7400
G01 X-48.6868 Y-61.7393
G01 X-48.6769 Y-61.7380
G01 X-48.6672 Y-61.7360
G01 X-48.6577 Y-61.7332
G01 X-48.6453 Y-61.7284
G01 X-48.6364 Y-61.7241
G01 X-48.6278 Y-61.7191
G01 X-48.6196 Y-61.7134
G01 X-48.6118 Y-61.7072
G01 X-48.6045 Y-61.7005
G01 X-48.5978 Y-61.6932
G01 X-48.5916 Y-61.6854
G01 X-48.5859 Y-61.6772
G01 X-48.5809 Y-61.6686
G01 X-48.5766 Y-61.6597
G01 X-48.5729 Y-61.6505
G01 X-48.5699 Y-61.6410
G01 X-48.5676 Y-61.6313
G01 X-48.5657 Y-61.6182
G01 X-48.5650 Y-61.6050
G01 X-48.5650 Y-59.0017
G01 X-48.5665 Y-58.9852
G01 X-48.5690 Y-58.9722
G01 X-48.5729 Y-58.9595
G01 X-48.5794 Y-58.9443
G01 X-48.5878 Y-58.9300
G01 X-48.5956 Y-58.9194
G01 X-48.6045 Y-58.9095
G01 X-48.6169 Y-58.8986
G01 X-48.6278 Y-58.8909
G01 X-48.6364 Y-58.8859
G01 X-48.6453 Y-58.8816
G01 X-48.6545 Y-58.8779
G01 X-48.6640 Y-58.8749
G01 X-48.6769 Y-58.8720
G01 X-48.6901 Y-58.8704
G01 X-48.7000 Y-58.8700
G01 X-51.1834 Y-58.8700
G01 X-58.0581 Y-51.9953
G01 X-58.1141 Y-51.9445
G01 X-58.1694 Y-51.9033
G01 X-58.1805 Y-51.8960
G01 X-58.2339 Y-51.8639
G01 X-58.2426 Y-51.8591
G01 X-58.3080 Y-51.8283
G01 X-58.3792 Y-51.8029
G01 X-58.4525 Y-51.7845
G01 X-58.5207 Y-51.7742
G01 X-58.5306 Y-51.7731
G01 X-58.6028 Y-51.7697
G01 X-59.5422 Y-51.7697
G01 X-59.5714 Y-51.7522
G01 X-59.5801 Y-51.7474
G01 X-59.6537 Y-51.7126
G01 X-59.6629 Y-51.7089
G01 X-59.7365 Y-51.6826
G01 X-59.7460 Y-51.6799
G01 X-59.8250 Y-51.6602
G01 X-59.9055 Y-51.6481
G01 X-59.9154 Y-51.6470
G01 X-60.0000 Y-51.6430
G01 X-60.0813 Y-51.6468
G01 X-60.0945 Y-51.6481
G01 X-60.1685 Y-51.6591
G01 X-60.1815 Y-51.6617
G01 X-60.2604 Y-51.6816
G01 X-60.3371 Y-51.7089
G01 X-60.3493 Y-51.7140
G01 X-60.4228 Y-51.7489
G01 X-60.4983 Y-51.7942
G01 X-60.5691 Y-51.8466
G01 X-60.6295 Y-51.9012
G01 X-60.6388 Y-51.9105
G01 X-60.6934 Y-51.9709
G01 X-60.7420 Y-52.0362
G01 X-60.7494 Y-52.0473
G01 X-60.7878 Y-52.1114
G01 X-60.7941 Y-52.1231
G01 X-60.8287 Y-52.1967
G01 X-60.8584 Y-52.2796
G01 X-60.8798 Y-52.3650
G01 X-60.8927 Y-52.4521
G01 X-60.8970 Y-52.5400
G01 X-60.8927 Y-52.6279
G01 X-60.8798 Y-52.7150
G01 X-60.8601 Y-52.7940
G01 X-60.8574 Y-52.8035
G01 X-60.8311 Y-52.8771
G01 X-60.8260 Y-52.8893
G01 X-60.7911 Y-52.9628
G01 X-60.7494 Y-53.0327
G01 X-60.7420 Y-53.0438
G01 X-60.6934 Y-53.1091
G01 X-60.6343 Y-53.1743
G01 X-60.5741 Y-53.2291
G01 X-60.5638 Y-53.2375
G01 X-60.4983 Y-53.2858
G01 X-60.4286 Y-53.3278
G01 X-60.4169 Y-53.3341
G01 X-60.3433 Y-53.3687
G01 X-60.2667 Y-53.3963
G01 X-60.2540 Y-53.4001
G01 X-60.1750 Y-53.4198
G01 X-60.0879 Y-53.4327
G01 X-60.0000 Y-53.4370
G01 X-59.9154 Y-53.4330
G01 X-59.9055 Y-53.4319
G01 X-59.8250 Y-53.4198
G01 X-59.7460 Y-53.4001
G01 X-59.7365 Y-53.3974
G01 X-59.6629 Y-53.3711
G01 X-59.6537 Y-53.3674
G01 X-59.5801 Y-53.3326
G01 X-59.5714 Y-53.3278
G01 X-59.5422 Y-53.3103
G01 X-58.9219 Y-53.3103
G01 X-51.4350 Y-60.7972
G01 X-51.4350 Y-61.6083
G01 X-51.4340 Y-61.6215
G01 X-51.4324 Y-61.6313
G01 X-51.4301 Y-61.6410
G01 X-51.4271 Y-61.6505
G01 X-51.4234 Y-61.6597
G01 X-51.4175 Y-61.6715
G01 X-51.4122 Y-61.6800
G01 X-51.4064 Y-61.6881
G01 X-51.3978 Y-61.6981
G01 X-51.3882 Y-61.7072
G01 X-51.3777 Y-61.7154
G01 X-51.3636 Y-61.7241
G01 X-51.3517 Y-61.7297
G01 X-51.3392 Y-61.7342
G01 X-51.3263 Y-61.7374
G01 X-51.3099 Y-61.7396
G01 X-51.3000 Y-61.7400
G01 X-50.7703 Y-61.7400
G01 X-50.7703 Y-62.1558
G01 X-50.7666 Y-62.2280
G01 X-50.7555 Y-62.3028
G01 X-50.7371 Y-62.3761
G01 X-50.7141 Y-62.4411
G01 X-50.7090 Y-62.4533
G01 X-50.6794 Y-62.5156
G01 X-50.6440 Y-62.5749
G01 X-50.6367 Y-62.5859
G01 X-50.5955 Y-62.6412
G01 X-50.5447 Y-62.6972
G01 X-48.8274 Y-64.4143
G01 X-48.7762 Y-64.4605
G01 X-48.7209 Y-64.5017
G01 X-48.7099 Y-64.5090
G01 X-48.6506 Y-64.5444
G01 X-48.5883 Y-64.5740
G01 X-48.5761 Y-64.5791
G01 X-48.5111 Y-64.6021
G01 X-48.4442 Y-64.6191
G01 X-48.4313 Y-64.6216
G01 X-48.3630 Y-64.6316
G01 X-48.2875 Y-64.6353
G01 X-12.8650 Y-64.6353
G01 X-12.7895 Y-64.6316
G01 X-12.7212 Y-64.6216
G01 X-12.7083 Y-64.6191
G01 X-12.6478 Y-64.6039
G01 X-12.6382 Y-64.6011
G01 X-12.5764 Y-64.5791
G01 X-12.5642 Y-64.5740
G01 X-12.5019 Y-64.5444
G01 X-12.4426 Y-64.5090
G01 X-12.4316 Y-64.5017
G01 X-12.3763 Y-64.4605
G01 X-12.3203 Y-64.4097
G01 X-5.6809 Y-57.7703
G01 X-2.9967 Y-57.7703
G01 X-2.9245 Y-57.7666
G01 X-2.8497 Y-57.7555
G01 X-2.7764 Y-57.7371
G01 X-2.7114 Y-57.7141
G01 X-2.7022 Y-57.7104
G01 X-2.6369 Y-57.6794
G01 X-2.5720 Y-57.6405
G01 X-2.5113 Y-57.5955
G01 X-2.4577 Y-57.5470
G01 X-0.5903 Y-55.6797
G01 X-0.5395 Y-55.6237
G01 X-0.4983 Y-55.5684
G01 X-0.4910 Y-55.5574
G01 X-0.4556 Y-55.4981
G01 X-0.4260 Y-55.4358
G01 X-0.4209 Y-55.4236
G01 X-0.3979 Y-55.3586
G01 X-0.3795 Y-55.2853
G01 X-0.3692 Y-55.2171
G01 X-0.3679 Y-55.2039
G01 X-0.3647 Y-55.1350
G01 X-0.3647 Y-51.0000
G01 X-0.3684 Y-50.9245
G01 X-0.3784 Y-50.8562
G01 X-0.3809 Y-50.8433
G01 X-0.3979 Y-50.7764
G01 X-0.4209 Y-50.7114
G01 X-0.4260 Y-50.6992
G01 X-0.4556 Y-50.6369
G01 X-0.4945 Y-50.5720
G01 X-0.5355 Y-50.5165
G01 X-0.5439 Y-50.5063
G01 X-0.5903 Y-50.4553
G01 X-2.6727 Y-48.3730
G01 X-2.7213 Y-48.3289
G01 X-2.7315 Y-48.3205
G01 X-2.7870 Y-48.2795
G01 X-2.8490 Y-48.2422
G01 X-2.8578 Y-48.2377
G01 X-2.9142 Y-48.2110
G01 X-2.9233 Y-48.2071
G01 X-2.9882 Y-48.1839
G01 X-3.0150 Y-48.1768
G01 X-3.0150 Y-48.0667
G01 X-3.0160 Y-48.0535
G01 X-3.0176 Y-48.0437
G01 X-3.0199 Y-48.0340
G01 X-3.0240 Y-48.0214
G01 X-3.0280 Y-48.0123
G01 X-3.0325 Y-48.0035
G01 X-3.0378 Y-47.9950
G01 X-3.0436 Y-47.9869
G01 X-3.0500 Y-47.9793
G01 X-3.0569 Y-47.9722
G01 X-3.0644 Y-47.9656
G01 X-3.0723 Y-47.9596
G01 X-3.0864 Y-47.9509
G01 X-3.0953 Y-47.9466
G01 X-3.1045 Y-47.9429
G01 X-3.1204 Y-47.9383
G01 X-3.1335 Y-47.9360
G01 X-3.1467 Y-47.9350
G01 X-3.2297 Y-47.9350
G01 X-3.2297 Y-43.9350
G01 X-2.7000 Y-43.9350
G01 X-2.6901 Y-43.9346
G01 X-2.6802 Y-43.9335
G01 X-2.6704 Y-43.9317
G01 X-2.6608 Y-43.9292
G01 X-2.6514 Y-43.9260
G01 X-2.6423 Y-43.9220
G01 X-2.6335 Y-43.9175
G01 X-2.6250 Y-43.9122
G01 X-2.6169 Y-43.9064
G01 X-2.6093 Y-43.9000
G01 X-2.6022 Y-43.8931
G01 X-2.5936 Y-43.8831
G01 X-2.5878 Y-43.8750
G01 X-2.5825 Y-43.8665
G01 X-2.5780 Y-43.8577
G01 X-2.5740 Y-43.8486
G01 X-2.5708 Y-43.8392
G01 X-2.5683 Y-43.8296
G01 X-2.5660 Y-43.8165
G01 X-2.5650 Y-43.8000
G01 X-2.5650 Y-42.2000
G01 X-2.5654 Y-42.1901
G01 X-2.5670 Y-42.1769
G01 X-2.5708 Y-42.1608
G01 X-2.5753 Y-42.1483
G01 X-2.5809 Y-42.1364
G01 X-2.5896 Y-42.1223
G01 X-2.5978 Y-42.1118
G01 X-2.6069 Y-42.1022
G01 X-2.6169 Y-42.0936
G01 X-2.6278 Y-42.0859
G01 X-2.6393 Y-42.0794
G01 X-2.6545 Y-42.0729
G01 X-2.6672 Y-42.0690
G01 X-2.6802 Y-42.0665
G01 X-2.6901 Y-42.0654
G01 X-2.7000 Y-42.0650
G01 X-2.7297 Y-42.0650
G01 X-2.7297 Y-41.8191
G01 X-0.5880 Y-39.6773
G01 X-0.5439 Y-39.6287
G01 X-0.5355 Y-39.6185
G01 X-0.4945 Y-39.5630
G01 X-0.4589 Y-39.5039
G01 X-0.4527 Y-39.4922
G01 X-0.4233 Y-39.4298
G01 X-0.3979 Y-39.3586
G01 X-0.3795 Y-39.2853
G01 X-0.3692 Y-39.2171
G01 X-0.3679 Y-39.2039
G01 X-0.3647 Y-39.1350
G01 X-0.3647 Y-34.4150
G01 X-0.3679 Y-34.3461
G01 X-0.3688 Y-34.3362
G01 X-0.3795 Y-34.2647
G01 X-0.3961 Y-34.1978
G01 X-0.3999 Y-34.1851
G01 X-0.4209 Y-34.1264
G01 X-0.4260 Y-34.1142
G01 X-0.4556 Y-34.0519
G01 X-0.4945 Y-33.9870
G01 X-0.5395 Y-33.9263
G01 X-0.5857 Y-33.8751
G01 X-2.3077 Y-32.1530
G01 X-2.3613 Y-32.1045
G01 X-2.4166 Y-32.0633
G01 X-2.4276 Y-32.0560
G01 X-2.4869 Y-32.0206
G01 X-2.5492 Y-31.9910
G01 X-2.5614 Y-31.9859
G01 X-2.6264 Y-31.9629
G01 X-2.6965 Y-31.9452
G01 X-2.7062 Y-31.9434
G01 X-2.7679 Y-31.9342
G01 X-2.7778 Y-31.9331
G01 X-2.8467 Y-31.9297
G01 X-2.9028 Y-31.9297
G01 X-2.9417 Y-31.9010
G01 X-2.9846 Y-31.8752
G01 X-3.0298 Y-31.8538
G01 X-3.0707 Y-31.8390
G01 X-3.0801 Y-31.8360
G01 X-3.1190 Y-31.8263
G01 X-3.1320 Y-31.8237
G01 X-3.1750 Y-31.8175
G01 X-3.2250 Y-31.8150
G01 X-4.4750 Y-31.8150
G01 X-4.5184 Y-31.8170
G01 X-4.5283 Y-31.8178
G01 X-4.5745 Y-31.8248
G01 X-4.6230 Y-31.8370
G01 X-4.6702 Y-31.8538
G01 X-4.7154 Y-31.8752
G01 X-4.7583 Y-31.9010
G01 X-4.7985 Y-31.9308
G01 X-4.8356 Y-31.9644
G01 X-4.8671 Y-31.9989
G01 X-4.8733 Y-32.0067
G01 X-4.8952 Y-32.0362
G01 X-4.9026 Y-32.0473
G01 X-4.9248 Y-32.0846
G01 X-4.9462 Y-32.1298
G01 X-4.9630 Y-32.1770
G01 X-4.9737 Y-32.2190
G01 X-4.9763 Y-32.2320
G01 X-4.9825 Y-32.2750
G01 X-4.9850 Y-32.3250
G01 X-4.9848 Y-33.0816
G01 X-4.9830 Y-33.1184
G01 X-4.9822 Y-33.1283
G01 X-4.9763 Y-33.1680
G01 X-4.9737 Y-33.1810
G01 X-4.9630 Y-33.2230
G01 X-4.9486 Y-33.2640
G01 X-4.9449 Y-33.2732
G01 X-4.9278 Y-33.3095
G01 X-4.9215 Y-33.3212
G01 X-4.8990 Y-33.3583
G01 X-4.8692 Y-33.3985
G01 X-4.8356 Y-33.4356
G01 X-4.8011 Y-33.4671
G01 X-4.7933 Y-33.4733
G01 X-4.7638 Y-33.4952
G01 X-4.7527 Y-33.5026
G01 X-4.7154 Y-33.5248
G01 X-4.6702 Y-33.5462
G01 X-4.6230 Y-33.5630
G01 X-4.5810 Y-33.5737
G01 X-4.5680 Y-33.5763
G01 X-4.5283 Y-33.5822
G01 X-4.5184 Y-33.5830
G01 X-4.4750 Y-33.5850
G01 X-3.2217 Y-33.5850
G01 X-3.1750 Y-33.5825
G01 X-3.1320 Y-33.5763
G01 X-3.1190 Y-33.5737
G01 X-3.0765 Y-33.5629
G00 Z1.4000
G00 X-3.0550 Y-33.4642
G01 F60.00
G01 Z0.0000
G01 F120.00
G01 X-1.8203 Y-34.6989
G01 X-1.8203 Y-38.8511
G01 X-3.9854 Y-41.0163
G01 X-4.0313 Y-41.0672
G01 X-4.0698 Y-41.1193
G01 X-4.1032 Y-41.1748
G01 X-4.1332 Y-41.2377
G01 X-4.1561 Y-41.3022
G01 X-4.1721 Y-41.3663
G01 X-4.1817 Y-41.4304
G01 X-4.1853 Y-41.4988
G01 X-4.1853 Y-42.1500
G01 X-4.3012 Y-42.1500
G01 X-4.3073 Y-42.1505
G01 X-4.3133 Y-42.1518
G01 X-4.3203 Y-42.1543
G01 X-4.3267 Y-42.1578
G01 X-4.3327 Y-42.1621
G01 X-4.3379 Y-42.1673
G01 X-4.3422 Y-42.1733
G01 X-4.3457 Y-42.1797
G01 X-4.3482 Y-42.1867
G01 X-4.3496 Y-42.1939
G01 X-4.3500 Y-42.2000
G01 X-4.3500 Y-42.8808
G01 X-4.4863 Y-43.0172
G01 X-4.5298 Y-43.0652
G01 X-4.5711 Y-43.1213
G01 X-4.6044 Y-43.1769
G01 X-4.6322 Y-43.2355
G01 X-4.6550 Y-43.2987
G01 X-4.6721 Y-43.3663
G01 X-4.6820 Y-43.4328
G01 X-4.6853 Y-43.5000
G01 X-4.6853 Y-48.0200
G01 X-4.8500 Y-48.0200
G01 X-4.8598 Y-48.0210
G01 X-4.8668 Y-48.0229
G01 X-4.8736 Y-48.0259
G01 X-4.8808 Y-48.0306
G01 X-4.8862 Y-48.0355
G01 X-4.8909 Y-48.0412
G01 X-4.8952 Y-48.0486
G01 X-4.8982 Y-48.0567
G01 X-4.8996 Y-48.0639
G01 X-4.9000 Y-48.0700
G01 X-4.8999 Y-49.7725
G01 X-4.8988 Y-49.7810
G01 X-4.8957 Y-49.7903
G01 X-4.8909 Y-49.7988
G01 X-4.8845 Y-49.8062
G01 X-4.8767 Y-49.8122
G01 X-4.8691 Y-49.8162
G01 X-4.8610 Y-49.8188
G01 X-4.8512 Y-49.8200
G01 X-3.2842 Y-49.8200
G01 X-1.8203 Y-51.2839
G01 X-1.8203 Y-54.8511
G01 X-3.2839 Y-56.3147
G01 X-6.0025 Y-56.3147
G01 X-6.0672 Y-56.3180
G01 X-6.1313 Y-56.3274
G01 X-6.1989 Y-56.3442
G01 X-6.2623 Y-56.3668
G01 X-6.3209 Y-56.3945
G01 X-6.3827 Y-56.4316
G01 X-6.4348 Y-56.4702
G01 X-6.4846 Y-56.5154
G01 X-13.1489 Y-63.1797
G01 X-24.8511 Y-63.1797
G01 X-30.3147 Y-57.7161
G01 X-30.3147 Y-44.8850
G01 X-30.3180 Y-44.8178
G01 X-30.3284 Y-44.7489
G01 X-30.3442 Y-44.6861
G01 X-30.3660 Y-44.6250
G01 X-30.3956 Y-44.5619
G01 X-30.4316 Y-44.5023
G01 X-30.4702 Y-44.4502
G01 X-30.5146 Y-44.4013
G01 X-33.8460 Y-41.0698
G01 X-33.8516 Y-41.0330
G01 X-33.8720 Y-40.9521
G01 X-33.8997 Y-40.8747
G01 X-33.9348 Y-40.8004
G01 X-33.9797 Y-40.7258
G01 X-34.0279 Y-40.6608
G01 X-34.0831 Y-40.5998
G01 X-34.1477 Y-40.5414
G01 X-34.2128 Y-40.4933
G01 X-34.2843 Y-40.4504
G01 X-34.3620 Y-40.4138
G01 X-34.4383 Y-40.3866
G01 X-34.5180 Y-40.3666
G01 X-34.6017 Y-40.3541
G01 X-34.6850 Y-40.3500
G01 X-35.4850 Y-40.3500
G01 X-35.5683 Y-40.3541
G01 X-35.6532 Y-40.3669
G01 X-35.7317 Y-40.3866
G01 X-35.8080 Y-40.4138
G01 X-35.8857 Y-40.4504
G01 X-35.9582 Y-40.4939
G01 X-36.0242 Y-40.5429
G01 X-36.0860 Y-40.5990
G01 X-36.1421 Y-40.6608
G01 X-36.1917 Y-40.7278
G01 X-36.2346 Y-40.7993
G01 X-36.2703 Y-40.8747
G01 X-36.2984 Y-40.9533
G01 X-36.3181 Y-41.0318
G01 X-36.3309 Y-41.1167
G01 X-36.3350 Y-41.2000
G01 X-36.3309 Y-41.2833
G01 X-36.3191 Y-41.3634
G01 X-36.2976 Y-41.4491
G01 X-36.2703 Y-41.5253
G01 X-36.2334 Y-41.6028
G01 X-36.1917 Y-41.6722
G01 X-36.1421 Y-41.7392
G01 X-36.0860 Y-41.8010
G01 X-36.0242 Y-41.8571
G01 X-35.9572 Y-41.9067
G01 X-35.8857 Y-41.9496
G01 X-35.8103 Y-41.9853
G01 X-35.7317 Y-42.0134
G01 X-35.6484 Y-42.0341
G01 X-35.5683 Y-42.0459
G01 X-35.4875 Y-42.0499
G01 X-34.8042 Y-42.0500
G01 X-31.6853 Y-45.1689
G01 X-31.6853 Y-58.0000
G01 X-31.6820 Y-58.0672
G01 X-31.6726 Y-58.1313
G01 X-31.6554 Y-58.2001
G01 X-31.6322 Y-58.2645
G01 X-31.6044 Y-58.3231
G01 X-31.5711 Y-58.3787
G01 X-31.5298 Y-58.4348
G01 X-31.4846 Y-58.4846
G01 X-26.7895 Y-63.1797
G01 X-48.0036 Y-63.1797
G01 X-49.3147 Y-61.8686
G01 X-49.3147 Y-61.6550
G01 X-48.6975 Y-61.6549
G01 X-48.6902 Y-61.6540
G01 X-48.6820 Y-61.6516
G01 X-48.6743 Y-61.6479
G01 X-48.6673 Y-61.6429
G01 X-48.6613 Y-61.6367
G01 X-48.6571 Y-61.6307
G01 X-48.6534 Y-61.6230
G01 X-48.6512 Y-61.6160
G01 X-48.6502 Y-61.6099
G01 X-48.6500 Y-61.6050
G01 X-48.6500 Y-59.0050
G01 X-48.6504 Y-58.9989
G01 X-48.6512 Y-58.9940
G01 X-48.6529 Y-58.9882
G01 X-48.6548 Y-58.9836
G01 X-48.6578 Y-58.9783
G01 X-48.6606 Y-58.9742
G01 X-48.6646 Y-58.9696
G01 X-48.6683 Y-58.9663
G01 X-48.6754 Y-58.9615
G01 X-48.6832 Y-58.9579
G01 X-48.6915 Y-58.9557
G01 X-48.7000 Y-58.9550
G01 X-51.2186 Y-58.9550
G01 X-58.1182 Y-52.0554
G01 X-58.1681 Y-52.0102
G01 X-58.2201 Y-51.9716
G01 X-58.2809 Y-51.9350
G01 X-58.3406 Y-51.9068
G01 X-58.4039 Y-51.8842
G01 X-58.4691 Y-51.8679
G01 X-58.5369 Y-51.8579
G01 X-58.6028 Y-51.8547
G01 X-59.5657 Y-51.8547
G01 X-59.6172 Y-51.8239
G01 X-59.6870 Y-51.7908
G01 X-59.7620 Y-51.7637
G01 X-59.8416 Y-51.7436
G01 X-59.9204 Y-51.7319
G01 X-60.0000 Y-51.7280
G01 X-60.0796 Y-51.7319
G01 X-60.1584 Y-51.7436
G01 X-60.2369 Y-51.7633
G01 X-60.3107 Y-51.7898
G01 X-60.3828 Y-51.8239
G01 X-60.4511 Y-51.8648
G01 X-60.5151 Y-51.9123
G01 X-60.5742 Y-51.9658
G01 X-60.6277 Y-52.0249
G01 X-60.6752 Y-52.0889
G01 X-60.7161 Y-52.1572
G01 X-60.7502 Y-52.2293
G01 X-60.7770 Y-52.3043
G01 X-60.7964 Y-52.3816
G01 X-60.8081 Y-52.4604
G01 X-60.8120 Y-52.5400
G01 X-60.8081 Y-52.6196
G01 X-60.7964 Y-52.6984
G01 X-60.7767 Y-52.7769
G01 X-60.7492 Y-52.8530
G01 X-60.7161 Y-52.9228
G01 X-60.6765 Y-52.9890
G01 X-60.6277 Y-53.0551
G01 X-60.5724 Y-53.1159
G01 X-60.5151 Y-53.1677
G01 X-60.4531 Y-53.2137
G01 X-60.3828 Y-53.2561
G01 X-60.3084 Y-53.2911
G01 X-60.2357 Y-53.3170
G01 X-60.1596 Y-53.3361
G01 X-60.0796 Y-53.3481
G01 X-60.0000 Y-53.3520
G01 X-59.9204 Y-53.3481
G01 X-59.8416 Y-53.3364
G01 X-59.7643 Y-53.3170
G01 X-59.6893 Y-53.2902
G01 X-59.6172 Y-53.2561
G01 X-59.5657 Y-53.2253
G01 X-58.8867 Y-53.2253
G01 X-51.3500 Y-60.7620
G01 X-51.3500 Y-61.6050
G01 X-51.3495 Y-61.6123
G01 X-51.3475 Y-61.6207
G01 X-51.3441 Y-61.6286
G01 X-51.3394 Y-61.6358
G01 X-51.3362 Y-61.6395
G01 X-51.3317 Y-61.6437
G01 X-51.3267 Y-61.6472
G01 X-51.3225 Y-61.6497
G01 X-51.3168 Y-61.6521
G01 X-51.3121 Y-61.6535
G01 X-51.3073 Y-61.6545
G01 X-51.3012 Y-61.6550
G01 X-50.6853 Y-61.6550
G01 X-50.6853 Y-62.1537
G01 X-50.6820 Y-62.2197
G01 X-50.6724 Y-62.2850
G01 X-50.6558 Y-62.3514
G01 X-50.6322 Y-62.4170
G01 X-50.6044 Y-62.4756
G01 X-50.5711 Y-62.5312
G01 X-50.5305 Y-62.5863
G01 X-50.4846 Y-62.6371
G01 X-48.7703 Y-64.3513
G01 X-48.7223 Y-64.3948
G01 X-48.6702 Y-64.4334
G01 X-48.6106 Y-64.4694
G01 X-48.5475 Y-64.4990
G01 X-48.4864 Y-64.5208
G01 X-48.4236 Y-64.5366
G01 X-48.3547 Y-64.5470
G01 X-48.2875 Y-64.5503
G01 X-12.8650 Y-64.5503
G01 X-12.7978 Y-64.5470
G01 X-12.7337 Y-64.5376
G01 X-12.6649 Y-64.5204
G01 X-12.6005 Y-64.4972
G01 X-12.5419 Y-64.4694
G01 X-12.4863 Y-64.4361
G01 X-12.4302 Y-64.3948
G01 X-12.3804 Y-64.3496
G01 X-5.7161 Y-57.6853
G01 X-2.9988 Y-57.6853
G01 X-2.9328 Y-57.6820
G01 X-2.8663 Y-57.6721
G01 X-2.8011 Y-57.6558
G01 X-2.7366 Y-57.6327
G01 X-2.6769 Y-57.6044
G01 X-2.6193 Y-57.5698
G01 X-2.5652 Y-57.5298
G01 X-2.5163 Y-57.4854
G01 X-0.6504 Y-55.6196
G01 X-0.6052 Y-55.5698
G01 X-0.5639 Y-55.5137
G01 X-0.5306 Y-55.4581
G01 X-0.5028 Y-55.3995
G01 X-0.4792 Y-55.3339
G01 X-0.4629 Y-55.2687
G01 X-0.4533 Y-55.2046
G01 X-0.4497 Y-55.1350
G01 X-0.4497 Y-51.0000
G01 X-0.4530 Y-50.9328
G01 X-0.4634 Y-50.8639
G01 X-0.4792 Y-50.8011
G01 X-0.5010 Y-50.7400
G01 X-0.5306 Y-50.6769
G01 X-0.5666 Y-50.6173
G01 X-0.6052 Y-50.5652
G01 X-0.6496 Y-50.5163
G01 X-2.7304 Y-48.4354
G01 X-2.7802 Y-48.3902
G01 X-2.8323 Y-48.3516
G01 X-2.8930 Y-48.3150
G01 X-2.9527 Y-48.2868
G01 X-3.0149 Y-48.2646
G01 X-3.0801 Y-48.2481
G01 X-3.1000 Y-48.2450
G01 X-3.1001 Y-48.0663
G01 X-3.1015 Y-48.0579
G01 X-3.1048 Y-48.0486
G01 X-3.1091 Y-48.0412
G01 X-3.1146 Y-48.0346
G01 X-3.1212 Y-48.0291
G01 X-3.1286 Y-48.0248
G01 X-3.1367 Y-48.0218
G01 X-3.1463 Y-48.0201
G01 X-3.3147 Y-48.0200
G01 X-3.3147 Y-43.8500
G01 X-2.6975 Y-43.8499
G01 X-2.6890 Y-43.8488
G01 X-2.6820 Y-43.8466
G01 X-2.6743 Y-43.8429
G01 X-2.6683 Y-43.8387
G01 X-2.6621 Y-43.8327
G01 X-2.6578 Y-43.8267
G01 X-2.6543 Y-43.8203
G01 X-2.6515 Y-43.8121
G01 X-2.6504 Y-43.8061
G01 X-2.6500 Y-43.8000
G01 X-2.6501 Y-42.1963
G01 X-2.6512 Y-42.1890
G01 X-2.6534 Y-42.1820
G01 X-2.6571 Y-42.1743
G01 X-2.6613 Y-42.1683
G01 X-2.6664 Y-42.1630
G01 X-2.6722 Y-42.1584
G01 X-2.6797 Y-42.1543
G01 X-2.6867 Y-42.1518
G01 X-2.6927 Y-42.1505
G01 X-2.6988 Y-42.1500
G01 X-2.8147 Y-42.1500
G01 X-2.8147 Y-41.7839
G01 X-0.6496 Y-39.6187
G01 X-0.6037 Y-39.5678
G01 X-0.5652 Y-39.5157
G01 X-0.5318 Y-39.4602
G01 X-0.5018 Y-39.3973
G01 X-0.4792 Y-39.3339
G01 X-0.4629 Y-39.2687
G01 X-0.4533 Y-39.2046
G01 X-0.4497 Y-39.1350
G01 X-0.4497 Y-34.4150
G01 X-0.4531 Y-34.3466
G01 X-0.4629 Y-34.2813
G01 X-0.4785 Y-34.2184
G01 X-0.5028 Y-34.1505
G01 X-0.5306 Y-34.0919
G01 X-0.5652 Y-34.0343
G01 X-0.6052 Y-33.9802
G01 X-0.6487 Y-33.9322
G01 X-2.3654 Y-32.2154
G01 X-2.4172 Y-32.1687
G01 X-2.4693 Y-32.1302
G01 X-2.5269 Y-32.0956
G01 X-2.5900 Y-32.0660
G01 X-2.6511 Y-32.0442
G01 X-2.7163 Y-32.0279
G01 X-2.7853 Y-32.0178
G01 X-2.8488 Y-32.0147
G01 X-2.9352 Y-32.0147
G01 X-2.9563 Y-31.9957
G01 X-2.9899 Y-31.9710
G01 X-3.0247 Y-31.9502
G01 X-3.0635 Y-31.9319
G01 X-3.1016 Y-31.9183
G01 X-3.1421 Y-31.9082
G01 X-3.1833 Y-31.9020
G01 X-3.2238 Y-31.9000
G01 X-4.4750 Y-31.9000
G01 X-4.5167 Y-31.9020
G01 X-4.5579 Y-31.9082
G01 X-4.5984 Y-31.9183
G01 X-4.6376 Y-31.9324
G01 X-4.6753 Y-31.9502
G01 X-4.7111 Y-31.9716
G01 X-4.7446 Y-31.9965
G01 X-4.7755 Y-32.0245
G01 X-4.8035 Y-32.0554
G01 X-4.8297 Y-32.0910
G01 X-4.8498 Y-32.1247
G01 X-4.8676 Y-32.1624
G01 X-4.8817 Y-32.2016
G01 X-4.8913 Y-32.2397
G01 X-4.8980 Y-32.2833
G01 X-4.9000 Y-32.3250
G01 X-4.8999 Y-33.0775
G01 X-4.8980 Y-33.1167
G01 X-4.8913 Y-33.1603
G01 X-4.8817 Y-33.1984
G01 X-4.8685 Y-33.2354
G01 X-4.8509 Y-33.2732
G01 X-4.8284 Y-33.3111
G01 X-4.8035 Y-33.3446
G01 X-4.7755 Y-33.3755
G01 X-4.7446 Y-33.4035
G01 X-4.7111 Y-33.4284
G01 X-4.6775 Y-33.4486
G01 X-4.6354 Y-33.4685
G01 X-4.5984 Y-33.4817
G01 X-4.5579 Y-33.4918
G01 X-4.5167 Y-33.4980
G01 X-4.4762 Y-33.5000
G01 X-3.2238 Y-33.5000
G01 X-3.1833 Y-33.4980
G01 X-3.1409 Y-33.4916
G01 X-3.1005 Y-33.4813
G01 X-3.0635 Y-33.4681
G01 X-3.0550 Y-33.4642
G00 Z1.4000
G00 X-5.2420 Y-37.9853
G01 F60.00
G01 Z0.0000
G01 F120.00
G01 X-5.1742 Y-38.1219
G01 X-5.0618 Y-38.2618
G01 X-4.9219 Y-38.3742
G01 X-4.7612 Y-38.4540
G01 X-4.5860 Y-38.4975
G01 X-4.5494 Y-38.5000
G01 X-4.1500 Y-38.5000
G01 X-4.1500 Y-38.1000
G01 X-4.4762 Y-38.1000
G01 X-4.5167 Y-38.0980
G01 X-4.5579 Y-38.0918
G01 X-4.6007 Y-38.0809
G01 X-4.6376 Y-38.0676
G01 X-4.6743 Y-38.0504
G01 X-4.7121 Y-38.0277
G01 X-4.7446 Y-38.0035
G01 X-4.7648 Y-37.9853
G01 X-5.2420 Y-37.9853
G00 Z1.4000
G00 X-5.1050 Y-38.0703
G01 F60.00
G01 Z0.0000
G01 F120.00
G01 X-5.1022 Y-38.0759
G01 X-5.0013 Y-38.2013
G01 X-4.8759 Y-38.3022
G01 X-4.7317 Y-38.3737
G01 X-4.5728 Y-38.4132
G01 X-4.5465 Y-38.4150
G01 X-4.2350 Y-38.4150
G01 X-4.2350 Y-38.1850
G01 X-4.4783 Y-38.1850
G01 X-4.5250 Y-38.1825
G01 X-4.5745 Y-38.1752
G01 X-4.6230 Y-38.1630
G01 X-4.6640 Y-38.1486
G01 X-4.6762 Y-38.1435
G01 X-4.7154 Y-38.1248
G01 X-4.7527 Y-38.1026
G01 X-4.7638 Y-38.0952
G01 X-4.7972 Y-38.0703
G01 X-5.1050 Y-38.0703
G00 Z1.4000
G00 X-6.5053 Y-41.9502
G01 F60.00
G01 Z0.0000
G01 F120.00
G01 X-6.3296 Y-42.1259
G01 X-6.2777 Y-42.1073
G01 X-6.2682 Y-42.1043
G01 X-6.1889 Y-42.0844
G01 X-6.1792 Y-42.0824
G01 X-6.0916 Y-42.0695
G01 X-6.0000 Y-42.0650
G01 X-5.9084 Y-42.0695
G01 X-5.8208 Y-42.0824
G01 X-5.8111 Y-42.0844
G01 X-5.7318 Y-42.1043
G01 X-5.7223 Y-42.1073
G01 X-5.6704 Y-42.1259
G01 X-5.4947 Y-41.9502
G01 X-5.6000 Y-41.9011
G01 X-5.7969 Y-41.8483
G01 X-6.0000 Y-41.8305
G01 X-6.2031 Y-41.8483
G01 X-6.4000 Y-41.9011
G01 X-6.5053 Y-41.9502
G00 Z1.4000
G00 X-5.6504 Y-42.2261
G01 F60.00
G01 Z0.0000
G01 F120.00
G01 X-5.3520 Y-41.9278
G01 X-5.3726 Y-41.9133
G01 X-5.5708 Y-41.8209
G01 X-5.7821 Y-41.7643
G01 X-6.0000 Y-41.7452
G01 X-6.2179 Y-41.7643
G01 X-6.4292 Y-41.8209
G01 X-6.6274 Y-41.9133
G01 X-6.6480 Y-41.9278
G01 X-6.3496 Y-42.2261
G01 X-6.3241 Y-42.2142
G01 X-6.2479 Y-42.1870
G01 X-6.1670 Y-42.1666
G01 X-6.0833 Y-42.1541
G01 X-6.0000 Y-42.1500
G01 X-5.9167 Y-42.1541
G01 X-5.8330 Y-42.1666
G01 X-5.7521 Y-42.1870
G01 X-5.6759 Y-42.2142
G01 X-5.6504 Y-42.2261
G00 Z1.4000
G00 X-10.7944 Y-50.3000
G01 F60.00
G01 Z0.0000
G01 F120.00
G01 X-11.2137 Y-50.3000
G01 X-11.1791 Y-50.4292
G01 X-11.0867 Y-50.6274
G01 X-10.9612 Y-50.8066
G01 X-10.8066 Y-50.9612
G01 X-10.6274 Y-51.0867
G01 X-10.4292 Y-51.1791
G01 X-10.3000 Y-51.2137
G01 X-10.3000 Y-50.7944
G01 X-10.3264 Y-50.7848
G01 X-10.3996 Y-50.7502
G01 X-10.4712 Y-50.7074
G01 X-10.5392 Y-50.6571
G01 X-10.6010 Y-50.6010
G01 X-10.6571 Y-50.5392
G01 X-10.7074 Y-50.4712
G01 X-10.7502 Y-50.3996
G01 X-10.7848 Y-50.3264
G01 X-10.7944 Y-50.3000
G00 Z1.4000
G00 X-10.8511 Y-50.3850
G01 F60.00
G01 Z0.0000
G01 F120.00
G01 X-11.1029 Y-50.3850
G01 X-11.0989 Y-50.4000
G01 X-11.0128 Y-50.5847
G01 X-10.8958 Y-50.7517
G01 X-10.7517 Y-50.8958
G01 X-10.5847 Y-51.0128
G01 X-10.4000 Y-51.0989
G01 X-10.3850 Y-51.1029
G01 X-10.3850 Y-50.8511
G01 X-10.4348 Y-50.8276
G01 X-10.4437 Y-50.8230
G01 X-10.5139 Y-50.7810
G01 X-10.5222 Y-50.7755
G01 X-10.5932 Y-50.7228
G01 X-10.6611 Y-50.6611
G01 X-10.7228 Y-50.5932
G01 X-10.7755 Y-50.5222
G01 X-10.7810 Y-50.5139
G01 X-10.8230 Y-50.4437
G01 X-10.8276 Y-50.4348
G01 X-10.8511 Y-50.3850
G00 Z1.4000
G00 X-4.6131 Y-52.2303
G01 F60.00
G01 Z0.0000
G01 F120.00
G01 X-4.5472 Y-52.2790
G01 X-4.4643 Y-52.3287
G01 X-4.3769 Y-52.3700
G01 X-4.2859 Y-52.4026
G01 X-4.1922 Y-52.4261
G01 X-4.0965 Y-52.4403
G01 X-4.0000 Y-52.4450
G01 X-3.9101 Y-52.4407
G01 X-3.8969 Y-52.4394
G01 X-3.8078 Y-52.4261
G01 X-3.7205 Y-52.4044
G01 X-3.7078 Y-52.4005
G01 X-3.6292 Y-52.3724
G01 X-3.6170 Y-52.3673
G01 X-3.5357 Y-52.3287
G01 X-3.4528 Y-52.2790
G01 X-3.3751 Y-52.2214
G01 X-3.3035 Y-52.1565
G01 X-3.2386 Y-52.0849
G01 X-3.1810 Y-52.0072
G01 X-3.1313 Y-51.9243
G01 X-3.0900 Y-51.8369
G01 X-3.0574 Y-51.7459
G01 X-3.0339 Y-51.6522
G01 X-3.0197 Y-51.5565
G01 X-3.0152 Y-51.4666
G01 X-3.0152 Y-51.4534
G01 X-3.0193 Y-51.3701
G01 X-3.0206 Y-51.3569
G01 X-3.0339 Y-51.2678
G01 X-3.0556 Y-51.1805
G01 X-3.0595 Y-51.1678
G01 X-3.0900 Y-51.0831
G01 X-3.1313 Y-50.9957
G01 X-3.1810 Y-50.9128
G01 X-3.2345 Y-50.8403
G01 X-3.2407 Y-50.8326
G01 X-3.3035 Y-50.7635
G01 X-3.3751 Y-50.6986
G01 X-3.4528 Y-50.6410
G01 X-3.5357 Y-50.5913
G01 X-3.6231 Y-50.5500
G01 X-3.7141 Y-50.5174
G01 X-3.8078 Y-50.4939
G01 X-3.8969 Y-50.4806
G01 X-3.9068 Y-50.4795
G01 X-4.0000 Y-50.4750
G01 X-4.0965 Y-50.4797
G01 X-4.1922 Y-50.4939
G01 X-4.2859 Y-50.5174
G01 X-4.3769 Y-50.5500
G01 X-4.4643 Y-50.5913
G01 X-4.5472 Y-50.6410
G01 X-4.6131 Y-50.6897
G01 X-5.2209 Y-50.6897
G01 X-9.1497 Y-46.7609
G01 X-9.1497 Y-46.4793
G01 X-9.1445 Y-46.4722
G01 X-9.1390 Y-46.4639
G01 X-9.0987 Y-46.3965
G01 X-9.0924 Y-46.3848
G01 X-9.0562 Y-46.3078
G01 X-9.0273 Y-46.2277
G01 X-9.0235 Y-46.2150
G01 X-9.0030 Y-46.1324
G01 X-8.9895 Y-46.0416
G01 X-8.9850 Y-45.9500
G01 X-8.9892 Y-45.8617
G01 X-8.9903 Y-45.8518
G01 X-9.0030 Y-45.7676
G01 X-9.0235 Y-45.6850
G01 X-9.0273 Y-45.6723
G01 X-9.0538 Y-45.5984
G01 X-9.0589 Y-45.5861
G01 X-9.0954 Y-45.5092
G01 X-9.1426 Y-45.4305
G01 X-9.1972 Y-45.3568
G01 X-9.2565 Y-45.2912
G01 X-9.2637 Y-45.2843
G01 X-9.3268 Y-45.2272
G01 X-9.4005 Y-45.1726
G01 X-9.4792 Y-45.1254
G01 X-9.5622 Y-45.0862
G01 X-9.6486 Y-45.0553
G01 X-9.7376 Y-45.0330
G01 X-9.8284 Y-45.0195
G01 X-9.9134 Y-45.0152
G01 X-9.9266 Y-45.0152
G01 X-10.0116 Y-45.0195
G01 X-10.0959 Y-45.0318
G01 X-10.1089 Y-45.0344
G01 X-10.1850 Y-45.0535
G01 X-10.1977 Y-45.0573
G01 X-10.2778 Y-45.0862
G01 X-10.3608 Y-45.1254
G01 X-10.4395 Y-45.1726
G01 X-10.5079 Y-45.2232
G01 X-10.5157 Y-45.2294
G01 X-10.5811 Y-45.2889
G01 X-10.6384 Y-45.3518
G01 X-10.6468 Y-45.3621
G01 X-10.6974 Y-45.4305
G01 X-10.7413 Y-45.5035
G01 X-10.7476 Y-45.5152
G01 X-10.7811 Y-45.5861
G01 X-10.7862 Y-45.5984
G01 X-10.8147 Y-45.6786
G01 X-10.8370 Y-45.7676
G01 X-10.8505 Y-45.8584
G01 X-10.8550 Y-45.9500
G01 X-10.8505 Y-46.0416
G01 X-10.8382 Y-46.1259
G01 X-10.8356 Y-46.1389
G01 X-10.8147 Y-46.2214
G01 X-10.7838 Y-46.3078
G01 X-10.7476 Y-46.3848
G01 X-10.7413 Y-46.3965
G01 X-10.7010 Y-46.4639
G01 X-10.6955 Y-46.4722
G01 X-10.6903 Y-46.4793
G01 X-10.6903 Y-47.0833
G01 X-10.6866 Y-47.1555
G01 X-10.6755 Y-47.2303
G01 X-10.6589 Y-47.2972
G01 X-10.6551 Y-47.3099
G01 X-10.6317 Y-47.3748
G01 X-10.6023 Y-47.4372
G01 X-10.5961 Y-47.4489
G01 X-10.5605 Y-47.5080
G01 X-10.5195 Y-47.5635
G01 X-10.5133 Y-47.5712
G01 X-10.4647 Y-47.6247
G01 X-6.0847 Y-52.0047
G01 X-6.0337 Y-52.0511
G01 X-6.0261 Y-52.0575
G01 X-5.9680 Y-52.1005
G01 X-5.9089 Y-52.1361
G01 X-5.8972 Y-52.1423
G01 X-5.8348 Y-52.1717
G01 X-5.7699 Y-52.1951
G01 X-5.7572 Y-52.1989
G01 X-5.6903 Y-52.2155
G01 X-5.6188 Y-52.2262
G01 X-5.6089 Y-52.2271
G01 X-5.5400 Y-52.2303
G01 X-4.6131 Y-52.2303
G00 Z1.4000
G00 X-4.0025 Y-52.3599
G01 F60.00
G01 Z0.0000
G01 F120.00
G01 X-3.9093 Y-52.3554
G01 X-3.8244 Y-52.3427
G01 X-3.7387 Y-52.3212
G01 X-3.6556 Y-52.2915
G01 X-3.5779 Y-52.2548
G01 X-3.5000 Y-52.2083
G01 X-3.4272 Y-52.1541
G01 X-3.3636 Y-52.0964
G01 X-3.3043 Y-52.0310
G01 X-3.2504 Y-51.9579
G01 X-3.2063 Y-51.8843
G01 X-3.1685 Y-51.8044
G01 X-3.1381 Y-51.7189
G01 X-3.1173 Y-51.6356
G01 X-3.1043 Y-51.5482
G01 X-3.1000 Y-51.4600
G01 X-3.1042 Y-51.3742
G01 X-3.1173 Y-51.2844
G01 X-3.1395 Y-51.1964
G01 X-3.1685 Y-51.1156
G01 X-3.2063 Y-51.0357
G01 X-3.2531 Y-50.9580
G01 X-3.3043 Y-50.8890
G01 X-3.3627 Y-50.8245
G01 X-3.4290 Y-50.7643
G01 X-3.5000 Y-50.7117
G01 X-3.5757 Y-50.6663
G01 X-3.6556 Y-50.6285
G01 X-3.7387 Y-50.5988
G01 X-3.8244 Y-50.5773
G01 X-3.9118 Y-50.5643
G01 X-3.9988 Y-50.5600
G01 X-4.0882 Y-50.5643
G01 X-4.1756 Y-50.5773
G01 X-4.2613 Y-50.5988
G01 X-4.3421 Y-50.6276
G01 X-4.4243 Y-50.6663
G01 X-4.4979 Y-50.7104
G01 X-4.5690 Y-50.7628
G01 X-4.5825 Y-50.7747
G01 X-5.2561 Y-50.7747
G01 X-9.2347 Y-46.7961
G01 X-9.2347 Y-46.4512
G01 X-9.2126 Y-46.4212
G01 X-9.1698 Y-46.3496
G01 X-9.1347 Y-46.2753
G01 X-9.1063 Y-46.1956
G01 X-9.0863 Y-46.1158
G01 X-9.0741 Y-46.0333
G01 X-9.0700 Y-45.9500
G01 X-9.0739 Y-45.8691
G01 X-9.0863 Y-45.7842
G01 X-9.1059 Y-45.7056
G01 X-9.1357 Y-45.6225
G01 X-9.1704 Y-45.5493
G01 X-9.2133 Y-45.4778
G01 X-9.2629 Y-45.4108
G01 X-9.3181 Y-45.3498
G01 X-9.3808 Y-45.2929
G01 X-9.4478 Y-45.2433
G01 X-9.5193 Y-45.2004
G01 X-9.5947 Y-45.1647
G01 X-9.6733 Y-45.1366
G01 X-9.7542 Y-45.1163
G01 X-9.8367 Y-45.1041
G01 X-9.9200 Y-45.1000
G01 X-10.0033 Y-45.1041
G01 X-10.0858 Y-45.1163
G01 X-10.1667 Y-45.1366
G01 X-10.2453 Y-45.1647
G01 X-10.3207 Y-45.2004
G01 X-10.3922 Y-45.2433
G01 X-10.4592 Y-45.2929
G01 X-10.5202 Y-45.3481
G01 X-10.5771 Y-45.4108
G01 X-10.6267 Y-45.4778
G01 X-10.6696 Y-45.5493
G01 X-10.7062 Y-45.6270
G01 X-10.7341 Y-45.7056
G01 X-10.7537 Y-45.7842
G01 X-10.7656 Y-45.8642
G01 X-10.7700 Y-45.9500
G01 X-10.7661 Y-46.0309
G01 X-10.7531 Y-46.1182
G01 X-10.7334 Y-46.1967
G01 X-10.7058 Y-46.2741
G01 X-10.6690 Y-46.3518
G01 X-10.6274 Y-46.4212
G01 X-10.6053 Y-46.4512
G01 X-10.6053 Y-47.0812
G01 X-10.6020 Y-47.1472
G01 X-10.5919 Y-47.2149
G01 X-10.5758 Y-47.2789
G01 X-10.5540 Y-47.3400
G01 X-10.5244 Y-47.4031
G01 X-10.4884 Y-47.4627
G01 X-10.4498 Y-47.5148
G01 X-10.4054 Y-47.5637
G01 X-6.0246 Y-51.9446
G01 X-5.9728 Y-51.9913
G01 X-5.9207 Y-52.0298
G01 X-5.8652 Y-52.0632
G01 X-5.8023 Y-52.0932
G01 X-5.7389 Y-52.1158
G01 X-5.6761 Y-52.1316
G01 X-5.6072 Y-52.1420
G01 X-5.5400 Y-52.1453
G01 X-4.5825 Y-52.1453
G01 X-4.5690 Y-52.1572
G01 X-4.4979 Y-52.2096
G01 X-4.4243 Y-52.2537
G01 X-4.3421 Y-52.2924
G01 X-4.2613 Y-52.3212
G01 X-4.1756 Y-52.3427
G01 X-4.0882 Y-52.3557
G01 X-4.0025 Y-52.3599
G00 Z1.4000
G00 X-2.7737 Y-54.4463
G01 F60.00
G01 Z0.0000
G01 F120.00
G01 X-2.7345 Y-54.3000
G01 X-3.1526 Y-54.3000
G01 X-3.1690 Y-54.3455
G01 X-3.2057 Y-54.4232
G01 X-3.2510 Y-54.4990
G01 X-3.3043 Y-54.5710
G01 X-3.3636 Y-54.6364
G01 X-3.4290 Y-54.6957
G01 X-3.5010 Y-54.7490
G01 X-3.5768 Y-54.7943
G01 X-3.6545 Y-54.8310
G01 X-3.7000 Y-54.8474
G01 X-3.7000 Y-55.2655
G01 X-3.5537 Y-55.2263
G01 X-3.3475 Y-55.1301
G01 X-3.1612 Y-54.9997
G01 X-3.0003 Y-54.8388
G01 X-2.8699 Y-54.6525
G01 X-2.7737 Y-54.4463
G00 Z1.4000
G00 X-3.6150 Y-54.9064
G01 F60.00
G01 Z0.0000
G01 F120.00
G01 X-3.6150 Y-55.1547
G01 X-3.5829 Y-55.1461
G01 X-3.3902 Y-55.0562
G01 X-3.2160 Y-54.9343
G01 X-3.0657 Y-54.7840
G01 X-2.9438 Y-54.6098
G01 X-2.8539 Y-54.4171
G01 X-2.8453 Y-54.3850
G01 X-3.0936 Y-54.3850
G01 X-3.1313 Y-54.4643
G01 X-3.1810 Y-54.5472
G01 X-3.2386 Y-54.6249
G01 X-3.3035 Y-54.6965
G01 X-3.3751 Y-54.7614
G01 X-3.4528 Y-54.8190
G01 X-3.5357 Y-54.8687
G01 X-3.6150 Y-54.9064
G00 Z1.4000
G00 X-4.9439 Y-54.7703
G01 F60.00
G01 Z0.0000
G01 F120.00
G01 X-4.9343 Y-54.7840
G01 X-4.7840 Y-54.9343
G01 X-4.6098 Y-55.0562
G01 X-4.4171 Y-55.1461
G01 X-4.3850 Y-55.1547
G01 X-4.3850 Y-54.9064
G01 X-4.4584 Y-54.8717
G01 X-4.4701 Y-54.8654
G01 X-4.5472 Y-54.8190
G01 X-4.6131 Y-54.7703
G01 X-4.9439 Y-54.7703
G00 Z1.4000
G00 X-5.1071 Y-54.6853
G01 F60.00
G01 Z0.0000
G01 F120.00
G01 X-4.9997 Y-54.8388
G01 X-4.8388 Y-54.9997
G01 X-4.6525 Y-55.1301
G01 X-4.4463 Y-55.2263
G01 X-4.3000 Y-55.2655
G01 X-4.3000 Y-54.8474
G01 X-4.3455 Y-54.8310
G01 X-4.4253 Y-54.7931
G01 X-4.5000 Y-54.7483
G01 X-4.5700 Y-54.6965
G01 X-4.5825 Y-54.6853
G01 X-5.1071 Y-54.6853
G00 Z1.4000
G00 X-12.0650 Y-59.9200
G01 F60.00
G01 Z0.0000
G01 F120.00
G01 X-11.8350 Y-59.9200
G01 X-11.8350 Y-58.9644
G01 X-11.8390 Y-58.9284
G01 X-12.0650 Y-59.1544
G01 X-12.0650 Y-59.9200
G00 Z1.4000
G00 X-12.1500 Y-60.0050
G01 F60.00
G01 Z0.0000
G01 F120.00
G01 X-11.7500 Y-60.0050
G01 X-11.7500 Y-58.9598
G01 X-11.7554 Y-58.9092
G01 X-11.8010 Y-58.7871
G01 X-11.8082 Y-58.7774
G01 X-12.1500 Y-59.1192
G01 X-12.1500 Y-60.0050
G00 Z1.4000
G00 X-13.9025 Y-58.9333
G01 F60.00
G01 Z0.0000
G01 F120.00
G01 X-13.8000 Y-58.8308
G01 X-13.8000 Y-58.5550
G01 X-14.2808 Y-58.5550
G01 X-13.9025 Y-58.9333
G00 Z1.4000
G00 X-13.9025 Y-58.8131
G01 F60.00
G01 Z0.0000
G01 F120.00
G01 X-13.8850 Y-58.7956
G01 X-13.8850 Y-58.6400
G01 X-14.0756 Y-58.6400
G01 X-13.9025 Y-58.8131
G00 Z1.4000
G00 X-15.2500 Y-59.5242
G01 F60.00
G01 Z0.0000
G01 F120.00
G01 X-15.2500 Y-60.0050
G01 X-14.8500 Y-60.0050
G01 X-14.8500 Y-59.9242
G01 X-15.2500 Y-59.5242
G00 Z1.4000
G00 X-15.1650 Y-59.7294
G01 F60.00
G01 Z0.0000
G01 F120.00
G01 X-15.1650 Y-59.9200
G01 X-14.9744 Y-59.9200
G01 X-15.1650 Y-59.7294
G00 Z1.4000
G00 X-14.9350 Y-61.6050
G01 F60.00
G01 Z0.0000
G01 F120.00
G01 X-14.9350 Y-60.6900
G01 X-15.1650 Y-60.6900
G01 X-15.1650 Y-61.6456
G01 X-15.1612 Y-61.6811
G01 X-15.1236 Y-61.7817
G01 X-15.0607 Y-61.8657
G01 X-14.9767 Y-61.9286
G01 X-14.8761 Y-61.9662
G01 X-14.8406 Y-61.9700
G01 X-13.8850 Y-61.9700
G01 X-13.8850 Y-61.7400
G01 X-14.8000 Y-61.7400
G01 X-14.8165 Y-61.7390
G01 X-14.8296 Y-61.7367
G01 X-14.8392 Y-61.7342
G01 X-14.8517 Y-61.7297
G01 X-14.8636 Y-61.7241
G01 X-14.8750 Y-61.7172
G01 X-14.8856 Y-61.7094
G01 X-14.8931 Y-61.7028
G01 X-14.9022 Y-61.6932
G01 X-14.9084 Y-61.6854
G01 X-14.9158 Y-61.6744
G01 X-14.9220 Y-61.6627
G01 X-14.9260 Y-61.6536
G01 X-14.9292 Y-61.6442
G01 X-14.9324 Y-61.6313
G01 X-14.9343 Y-61.6182
G01 X-14.9350 Y-61.6050
G00 Z1.4000
G00 X-14.8500 Y-61.6050
G01 F60.00
G01 Z0.0000
G01 F120.00
G01 X-14.8500 Y-60.6050
G01 X-15.2500 Y-60.6050
G01 X-15.2500 Y-61.6502
G01 X-15.2446 Y-61.7008
G01 X-15.1990 Y-61.8229
G01 X-15.1215 Y-61.9265
G01 X-15.0179 Y-62.0040
G01 X-14.8958 Y-62.0496
G01 X-14.8451 Y-62.0550
G01 X-13.8000 Y-62.0550
G01 X-13.8000 Y-61.6550
G01 X-14.8025 Y-61.6549
G01 X-14.8121 Y-61.6535
G01 X-14.8214 Y-61.6502
G01 X-14.8298 Y-61.6452
G01 X-14.8362 Y-61.6395
G01 X-14.8422 Y-61.6317
G01 X-14.8466 Y-61.6230
G01 X-14.8493 Y-61.6135
G01 X-14.8500 Y-61.6050
G00 Z1.4000
G00 X-23.9626 Y-60.8401
G01 F60.00
G01 Z0.0000
G01 F120.00
G01 X-23.9157 Y-60.8748
G01 X-23.8581 Y-60.9094
G01 X-23.7973 Y-60.9382
G01 X-23.7363 Y-60.9600
G01 X-23.6663 Y-60.9776
G01 X-23.6022 Y-60.9870
G01 X-23.5362 Y-60.9903
G01 X-19.6613 Y-60.9903
G01 X-19.6218 Y-61.0560
G01 X-19.5443 Y-61.1605
G01 X-19.4537 Y-61.2605
G01 X-19.3564 Y-61.3486
G01 X-19.2520 Y-61.4261
G01 X-19.1353 Y-61.4962
G01 X-19.0166 Y-61.5522
G01 X-18.8942 Y-61.5961
G01 X-18.7634 Y-61.6291
G01 X-18.6299 Y-61.6487
G01 X-18.5000 Y-61.6550
G01 X-18.3677 Y-61.6485
G01 X-18.2366 Y-61.6291
G01 X-18.1081 Y-61.5969
G01 X-17.9834 Y-61.5522
G01 X-17.8636 Y-61.4956
G01 X-17.7500 Y-61.4275
G01 X-17.6436 Y-61.3486
G01 X-17.5454 Y-61.2596
G01 X-17.4564 Y-61.1614
G01 X-17.3775 Y-61.0550
G01 X-17.3094 Y-60.9414
G01 X-17.2528 Y-60.8216
G01 X-17.2081 Y-60.6969
G01 X-17.1759 Y-60.5684
G01 X-17.1565 Y-60.4373
G01 X-17.1500 Y-60.3050
G01 X-17.1565 Y-60.1727
G01 X-17.1759 Y-60.0416
G01 X-17.2075 Y-59.9155
G01 X-17.2538 Y-59.7861
G01 X-17.3094 Y-59.6686
G01 X-17.3775 Y-59.5550
G01 X-17.4564 Y-59.4486
G01 X-17.5437 Y-59.3522
G01 X-17.6455 Y-59.2599
G01 X-17.7500 Y-59.1825
G01 X-17.8636 Y-59.1144
G01 X-17.9834 Y-59.0578
G01 X-18.1058 Y-59.0139
G01 X-18.2390 Y-58.9805
G01 X-18.3677 Y-58.9615
G01 X-18.4975 Y-58.9551
G01 X-18.6323 Y-58.9615
G01 X-18.7634 Y-58.9809
G01 X-18.8895 Y-59.0125
G01 X-19.0178 Y-59.0582
G01 X-19.1364 Y-59.1144
G01 X-19.2479 Y-59.1812
G01 X-19.3574 Y-59.2622
G01 X-19.4546 Y-59.3504
G01 X-19.5428 Y-59.4476
G01 X-19.6218 Y-59.5540
G01 X-19.6613 Y-59.6197
G01 X-23.0807 Y-59.6197
G01 X-23.0910 Y-59.5982
G01 X-23.1339 Y-59.5268
G01 X-23.1829 Y-59.4608
G01 X-23.2381 Y-59.3998
G01 X-23.3027 Y-59.3414
G01 X-23.3678 Y-59.2933
G01 X-23.4382 Y-59.2510
G01 X-23.5170 Y-59.2138
G01 X-23.5933 Y-59.1866
G01 X-23.6742 Y-59.1663
G01 X-23.7567 Y-59.1541
G01 X-23.8375 Y-59.1501
G01 X-23.9233 Y-59.1541
G01 X-24.0058 Y-59.1663
G01 X-24.0867 Y-59.1866
G01 X-24.1653 Y-59.2147
G01 X-24.2385 Y-59.2493
G01 X-24.3122 Y-59.2933
G01 X-24.3773 Y-59.3414
G01 X-24.4427 Y-59.4007
G01 X-24.4971 Y-59.4608
G01 X-24.5467 Y-59.5278
G01 X-24.5896 Y-59.5993
G01 X-24.6253 Y-59.6747
G01 X-24.6534 Y-59.7533
G01 X-24.6737 Y-59.8342
G01 X-24.6859 Y-59.9167
G01 X-24.6900 Y-59.9988
G01 X-24.6859 Y-60.0833
G01 X-24.6741 Y-60.1634
G01 X-24.6526 Y-60.2491
G01 X-24.6253 Y-60.3253
G01 X-24.5896 Y-60.4007
G01 X-24.5467 Y-60.4722
G01 X-24.4963 Y-60.5402
G01 X-24.4410 Y-60.6010
G01 X-24.3792 Y-60.6571
G01 X-24.3122 Y-60.7067
G01 X-24.2418 Y-60.7490
G01 X-24.1653 Y-60.7853
G01 X-24.0879 Y-60.8130
G01 X-24.0070 Y-60.8334
G01 X-23.9626 Y-60.8401
G00 Z1.4000
G00 X-23.9961 Y-60.9211
G01 F60.00
G01 Z0.0000
G01 F120.00
G01 X-23.9684 Y-60.9417
G01 X-23.9602 Y-60.9473
G01 X-23.9039 Y-60.9811
G01 X-23.8952 Y-60.9859
G01 X-23.8298 Y-61.0167
G01 X-23.7618 Y-61.0411
G01 X-23.7522 Y-61.0439
G01 X-23.6917 Y-61.0591
G01 X-23.6788 Y-61.0616
G01 X-23.6105 Y-61.0716
G01 X-23.5383 Y-61.0753
G01 X-19.7095 Y-61.0753
G01 X-19.6967 Y-61.0966
G01 X-19.6913 Y-61.1050
G01 X-19.6093 Y-61.2154
G01 X-19.5193 Y-61.3149
G01 X-19.5099 Y-61.3243
G01 X-19.4104 Y-61.4143
G01 X-19.3027 Y-61.4943
G01 X-19.2916 Y-61.5017
G01 X-19.1822 Y-61.5673
G01 X-19.1705 Y-61.5735
G01 X-19.0492 Y-61.6308
G01 X-18.9229 Y-61.6761
G01 X-18.9102 Y-61.6800
G01 X-18.7800 Y-61.7124
G01 X-18.6472 Y-61.7323
G01 X-18.6340 Y-61.7336
G01 X-18.5000 Y-61.7400
G01 X-18.3593 Y-61.7331
G01 X-18.2200 Y-61.7124
G01 X-18.0834 Y-61.6782
G01 X-17.9508 Y-61.6308
G01 X-17.8235 Y-61.5706
G01 X-17.7028 Y-61.4982
G01 X-17.5896 Y-61.4143
G01 X-17.4853 Y-61.3197
G01 X-17.3907 Y-61.2154
G01 X-17.3068 Y-61.1022
G01 X-17.2344 Y-60.9815
G01 X-17.1742 Y-60.8542
G01 X-17.1268 Y-60.7216
G01 X-17.0926 Y-60.5850
G01 X-17.0719 Y-60.4457
G01 X-17.0650 Y-60.3050
G01 X-17.0719 Y-60.1643
G01 X-17.0926 Y-60.0250
G01 X-17.1250 Y-59.8948
G01 X-17.1289 Y-59.8821
G01 X-17.1718 Y-59.7620
G01 X-17.1769 Y-59.7498
G01 X-17.2344 Y-59.6285
G01 X-17.3068 Y-59.5078
G01 X-17.3907 Y-59.3946
G01 X-17.4807 Y-59.2951
G01 X-17.4901 Y-59.2857
G01 X-17.5846 Y-59.2001
G01 X-17.5949 Y-59.1917
G01 X-17.7028 Y-59.1118
G01 X-17.8235 Y-59.0394
G01 X-17.9508 Y-58.9792
G01 X-18.0771 Y-58.9339
G01 X-18.0898 Y-58.9300
G01 X-18.2136 Y-58.8990
G01 X-18.2266 Y-58.8964
G01 X-18.3593 Y-58.8769
G01 X-18.4934 Y-58.8702
G01 X-18.5066 Y-58.8702
G01 X-18.6407 Y-58.8769
G01 X-18.7800 Y-58.8976
G01 X-18.9102 Y-58.9300
G01 X-18.9229 Y-58.9339
G01 X-19.0430 Y-58.9768
G01 X-19.0522 Y-58.9805
G01 X-19.1765 Y-59.0394
G01 X-19.2916 Y-59.1083
G01 X-19.3027 Y-59.1157
G01 X-19.4051 Y-59.1917
G01 X-19.4129 Y-59.1979
G01 X-19.5147 Y-59.2903
G01 X-19.6071 Y-59.3921
G01 X-19.6133 Y-59.3999
G01 X-19.6913 Y-59.5050
G01 X-19.6967 Y-59.5134
G01 X-19.7095 Y-59.5347
G01 X-23.0299 Y-59.5347
G01 X-23.0626 Y-59.4805
G01 X-23.1152 Y-59.4094
G01 X-23.1216 Y-59.4018
G01 X-23.1743 Y-59.3437
G01 X-23.1812 Y-59.3365
G01 X-23.2468 Y-59.2772
G01 X-23.3151 Y-59.2264
G01 X-23.3261 Y-59.2190
G01 X-23.3935 Y-59.1787
G01 X-23.4022 Y-59.1739
G01 X-23.4822 Y-59.1362
G01 X-23.5623 Y-59.1073
G01 X-23.5750 Y-59.1035
G01 X-23.6576 Y-59.0830
G01 X-23.7484 Y-59.0695
G01 X-23.8334 Y-59.0652
G01 X-23.8466 Y-59.0652
G01 X-23.9316 Y-59.0695
G01 X-24.0224 Y-59.0830
G01 X-24.1114 Y-59.1053
G01 X-24.1978 Y-59.1362
G01 X-24.2748 Y-59.1724
G01 X-24.2865 Y-59.1787
G01 X-24.3595 Y-59.2226
G01 X-24.4279 Y-59.2732
G01 X-24.4382 Y-59.2816
G01 X-24.4963 Y-59.3343
G01 X-24.5057 Y-59.3437
G01 X-24.5628 Y-59.4068
G01 X-24.6174 Y-59.4805
G01 X-24.6646 Y-59.5592
G01 X-24.7038 Y-59.6422
G01 X-24.7347 Y-59.7286
G01 X-24.7570 Y-59.8176
G01 X-24.7705 Y-59.9084
G01 X-24.7750 Y-59.9967
G01 X-24.7748 Y-60.0066
G01 X-24.7705 Y-60.0916
G01 X-24.7582 Y-60.1759
G01 X-24.7556 Y-60.1889
G01 X-24.7365 Y-60.2650
G01 X-24.7327 Y-60.2777
G01 X-24.7038 Y-60.3578
G01 X-24.6646 Y-60.4408
G01 X-24.6174 Y-60.5195
G01 X-24.5668 Y-60.5879
G01 X-24.5606 Y-60.5957
G01 X-24.5011 Y-60.6611
G01 X-24.4332 Y-60.7228
G01 X-24.3595 Y-60.7774
G01 X-24.2837 Y-60.8230
G01 X-24.2748 Y-60.8276
G01 X-24.1978 Y-60.8638
G01 X-24.1146 Y-60.8937
G01 X-24.1050 Y-60.8965
G01 X-24.0257 Y-60.9163
G01 X-23.9961 Y-60.9211
G00 Z1.4000
G00 X-24.2401 Y-61.0994
G01 F60.00
G01 Z0.0000
G01 F120.00
G01 X-24.1338 Y-61.1279
G01 X-24.1237 Y-61.1310
G01 X-24.1171 Y-61.1336
G01 X-24.0730 Y-61.1533
G01 X-24.0642 Y-61.1583
G01 X-23.9191 Y-61.2322
G01 X-23.7693 Y-61.2809
G01 X-23.6137 Y-61.3055
G01 X-19.9571 Y-61.3055
G01 X-19.9477 Y-61.3058
G01 X-19.9383 Y-61.3068
G01 X-19.8954 Y-61.3138
G01 X-19.8855 Y-61.3159
G01 X-19.8726 Y-61.3197
G01 X-19.8602 Y-61.3248
G01 X-19.8512 Y-61.3294
G01 X-19.8426 Y-61.3346
G01 X-19.7800 Y-61.3786
G01 X-19.7700 Y-61.3867
G01 X-19.7587 Y-61.3981
G01 X-19.7243 Y-61.4410
G01 X-19.5413 Y-61.6108
G01 X-19.3351 Y-61.7514
G01 X-19.1102 Y-61.8597
G01 X-18.8716 Y-61.9333
G01 X-18.6248 Y-61.9705
G01 X-18.3752 Y-61.9705
G01 X-18.1284 Y-61.9333
G01 X-17.8898 Y-61.8597
G01 X-17.6649 Y-61.7514
G01 X-17.4587 Y-61.6108
G01 X-17.2757 Y-61.4410
G01 X-17.1200 Y-61.2458
G01 X-16.9952 Y-61.0297
G01 X-16.9040 Y-60.7973
G01 X-16.8485 Y-60.5539
G01 X-16.8298 Y-60.3050
G01 X-16.8485 Y-60.0561
G01 X-16.9040 Y-59.8127
G01 X-16.9952 Y-59.5803
G01 X-17.1200 Y-59.3642
G01 X-17.2757 Y-59.1690
G01 X-17.4587 Y-58.9992
G01 X-17.6649 Y-58.8586
G01 X-17.8898 Y-58.7503
G01 X-18.1284 Y-58.6767
G01 X-18.3752 Y-58.6395
G01 X-18.6248 Y-58.6395
G01 X-18.8716 Y-58.6767
G01 X-19.1102 Y-58.7503
G01 X-19.3351 Y-58.8586
G01 X-19.5413 Y-58.9992
G01 X-19.7243 Y-59.1690
G01 X-19.7546 Y-59.2070
G01 X-19.7629 Y-59.2164
G01 X-19.7697 Y-59.2230
G01 X-19.8021 Y-59.2522
G01 X-19.8073 Y-59.2565
G01 X-19.8155 Y-59.2624
G01 X-19.8242 Y-59.2676
G01 X-19.8332 Y-59.2722
G01 X-19.8425 Y-59.2761
G01 X-19.8520 Y-59.2793
G01 X-19.9253 Y-59.3007
G01 X-19.9411 Y-59.3035
G01 X-19.9539 Y-59.3045
G01 X-22.7800 Y-59.3045
G01 X-22.7908 Y-59.3041
G01 X-22.8207 Y-59.3009
G01 X-22.8306 Y-59.2995
G01 X-22.8435 Y-59.2964
G01 X-22.8529 Y-59.2934
G01 X-22.8621 Y-59.2896
G01 X-22.8710 Y-59.2852
G01 X-22.9323 Y-59.2517
G01 X-22.9459 Y-59.2431
G01 X-22.9536 Y-59.2373
G01 X-22.9631 Y-59.2286
G01 X-23.0880 Y-59.1038
G01 X-23.2550 Y-58.9868
G01 X-23.4399 Y-58.9006
G01 X-23.6368 Y-58.8478
G01 X-23.8400 Y-58.8300
G01 X-24.0432 Y-58.8478
G01 X-24.2401 Y-58.9006
G01 X-24.4250 Y-58.9868
G01 X-24.5920 Y-59.1038
G01 X-24.7362 Y-59.2480
G01 X-24.8532 Y-59.4150
G01 X-24.9394 Y-59.5999
G01 X-24.9922 Y-59.7968
G01 X-25.0100 Y-60.0000
G01 X-24.9922 Y-60.2032
G01 X-24.9394 Y-60.4001
G01 X-24.8532 Y-60.5850
G01 X-24.7362 Y-60.7520
G01 X-24.5920 Y-60.8962
G01 X-24.4250 Y-61.0132
G01 X-24.2401 Y-61.0994
G00 Z1.4000
G00 X-24.2693 Y-61.1796
G01 F60.00
G01 Z0.0000
G01 F120.00
G01 X-24.1558 Y-61.2100
G01 X-24.1496 Y-61.2121
G01 X-24.1222 Y-61.2251
G01 X-24.1170 Y-61.2267
G01 X-24.1125 Y-61.2286
G01 X-24.1057 Y-61.2325
G01 X-23.9517 Y-61.3110
G01 X-23.7892 Y-61.3638
G01 X-23.6204 Y-61.3905
G01 X-19.9571 Y-61.3905
G01 X-19.9501 Y-61.3910
G01 X-19.9080 Y-61.3979
G01 X-19.9020 Y-61.3995
G01 X-19.8962 Y-61.4018
G01 X-19.8886 Y-61.4061
G01 X-19.8295 Y-61.4477
G01 X-19.8259 Y-61.4508
G01 X-19.8218 Y-61.4551
G01 X-19.7868 Y-61.4990
G01 X-19.5945 Y-61.6774
G01 X-19.3777 Y-61.8252
G01 X-19.1413 Y-61.9391
G01 X-18.8906 Y-62.0164
G01 X-18.6312 Y-62.0555
G01 X-18.3688 Y-62.0555
G01 X-18.1094 Y-62.0164
G01 X-17.8587 Y-61.9391
G01 X-17.6223 Y-61.8252
G01 X-17.4055 Y-61.6774
G01 X-17.2132 Y-61.4990
G01 X-17.0496 Y-61.2939
G01 X-16.9184 Y-61.0666
G01 X-16.8226 Y-60.8224
G01 X-16.7642 Y-60.5666
G01 X-16.7446 Y-60.3050
G01 X-16.7642 Y-60.0434
G01 X-16.8226 Y-59.7876
G01 X-16.9184 Y-59.5434
G01 X-17.0496 Y-59.3161
G01 X-17.2132 Y-59.1110
G01 X-17.4055 Y-58.9326
G01 X-17.6223 Y-58.7848
G01 X-17.8587 Y-58.6709
G01 X-18.1094 Y-58.5936
G01 X-18.3688 Y-58.5545
G01 X-18.6312 Y-58.5545
G01 X-18.8906 Y-58.5936
G01 X-19.1413 Y-58.6709
G01 X-19.3777 Y-58.7848
G01 X-19.5945 Y-58.9326
G01 X-19.7868 Y-59.1110
G01 X-19.8233 Y-59.1566
G01 X-19.8604 Y-59.1901
G01 X-19.8679 Y-59.1946
G01 X-19.8748 Y-59.1974
G01 X-19.9442 Y-59.2178
G01 X-19.9500 Y-59.2190
G01 X-19.9559 Y-59.2195
G01 X-22.7800 Y-59.2195
G01 X-22.8117 Y-59.2164
G01 X-22.8201 Y-59.2147
G01 X-22.8292 Y-59.2111
G01 X-22.8916 Y-59.1771
G01 X-22.8976 Y-59.1732
G01 X-22.9030 Y-59.1685
G01 X-23.0331 Y-59.0384
G01 X-23.2124 Y-58.9129
G01 X-23.4107 Y-58.8204
G01 X-23.6220 Y-58.7638
G01 X-23.8400 Y-58.7447
G01 X-24.0580 Y-58.7638
G01 X-24.2693 Y-58.8204
G01 X-24.4676 Y-58.9129
G01 X-24.6469 Y-59.0384
G01 X-24.8016 Y-59.1931
G01 X-24.9271 Y-59.3724
G01 X-25.0196 Y-59.5707
G01 X-25.0762 Y-59.7820
G01 X-25.0953 Y-60.0000
G01 X-25.0762 Y-60.2180
G01 X-25.0196 Y-60.4293
G01 X-24.9271 Y-60.6276
G01 X-24.8016 Y-60.8069
G01 X-24.6469 Y-60.9616
G01 X-24.4676 Y-61.0871
G01 X-24.2693 Y-61.1796
G00 Z1.4000
G00 X-24.5053 Y-56.0498
G01 F60.00
G01 Z0.0000
G01 F120.00
G01 X-24.4000 Y-56.0989
G01 X-24.2031 Y-56.1517
G01 X-24.0000 Y-56.1695
G01 X-23.7969 Y-56.1517
G01 X-23.6000 Y-56.0989
G01 X-23.4947 Y-56.0498
G01 X-23.6704 Y-55.8741
G01 X-23.7223 Y-55.8927
G01 X-23.7318 Y-55.8957
G01 X-23.8111 Y-55.9156
G01 X-23.8208 Y-55.9176
G01 X-23.9084 Y-55.9305
G01 X-24.0000 Y-55.9350
G01 X-24.0916 Y-55.9305
G01 X-24.1792 Y-55.9176
G01 X-24.1889 Y-55.9156
G01 X-24.2682 Y-55.8957
G01 X-24.2777 Y-55.8927
G01 X-24.3296 Y-55.8741
G01 X-24.5053 Y-56.0498
G00 Z1.4000
G00 X-24.3496 Y-55.7739
G01 F60.00
G01 Z0.0000
G01 F120.00
G01 X-24.6480 Y-56.0722
G01 X-24.6274 Y-56.0867
G01 X-24.4292 Y-56.1791
G01 X-24.2179 Y-56.2357
G01 X-24.0000 Y-56.2548
G01 X-23.7821 Y-56.2357
G01 X-23.5708 Y-56.1791
G01 X-23.3726 Y-56.0867
G01 X-23.3520 Y-56.0722
G01 X-23.6504 Y-55.7739
G01 X-23.6759 Y-55.7858
G01 X-23.7521 Y-55.8130
G01 X-23.8330 Y-55.8334
G01 X-23.9167 Y-55.8459
G01 X-24.0000 Y-55.8500
G01 X-24.0833 Y-55.8459
G01 X-24.1670 Y-55.8334
G01 X-24.2479 Y-55.8130
G01 X-24.3241 Y-55.7858
G01 X-24.3496 Y-55.7739
G00 Z1.4000
G00 X-25.1630 Y-54.9264
G01 F60.00
G01 Z0.0000
G01 F120.00
G01 X-25.1695 Y-55.0000
G01 X-25.1517 Y-55.2031
G01 X-25.0989 Y-55.4000
G01 X-25.0498 Y-55.5053
G01 X-24.8741 Y-55.3296
G01 X-24.8927 Y-55.2777
G01 X-24.8957 Y-55.2682
G01 X-24.9156 Y-55.1889
G01 X-24.9176 Y-55.1792
G01 X-24.9190 Y-55.1704
G01 X-25.1630 Y-54.9264
G00 Z1.4000
G00 X-25.2254 Y-54.7438
G01 F60.00
G01 Z0.0000
G01 F120.00
G01 X-25.2357 Y-54.7821
G01 X-25.2548 Y-55.0000
G01 X-25.2357 Y-55.2179
G01 X-25.1791 Y-55.4292
G01 X-25.0867 Y-55.6274
G01 X-25.0722 Y-55.6480
G01 X-24.7739 Y-55.3496
G01 X-24.7858 Y-55.3241
G01 X-24.8134 Y-55.2467
G01 X-24.8334 Y-55.1670
G01 X-24.8390 Y-55.1302
G01 X-25.2254 Y-54.7438
G00 Z1.4000
G00 X-24.0736 Y-53.8370
G01 F60.00
G01 Z0.0000
G01 F120.00
G01 X-23.8296 Y-54.0810
G01 X-23.8208 Y-54.0824
G01 X-23.8111 Y-54.0844
G01 X-23.7318 Y-54.1043
G01 X-23.7223 Y-54.1073
G01 X-23.6704 Y-54.1259
G01 X-23.4947 Y-53.9502
G01 X-23.6000 Y-53.9011
G01 X-23.7969 Y-53.8483
G01 X-24.0000 Y-53.8305
G01 X-24.0736 Y-53.8370
G00 Z1.4000
G00 X-23.6504 Y-54.2261
G01 F60.00
G01 Z0.0000
G01 F120.00
G01 X-23.3520 Y-53.9278
G01 X-23.3726 Y-53.9133
G01 X-23.5708 Y-53.8209
G01 X-23.7821 Y-53.7643
G01 X-24.0000 Y-53.7452
G01 X-24.2179 Y-53.7643
G01 X-24.2397 Y-53.7701
G01 X-24.2397 Y-53.7911
G01 X-23.8698 Y-54.1610
G01 X-23.8330 Y-54.1666
G01 X-23.7533 Y-54.1866
G01 X-23.6759 Y-54.2142
G01 X-23.6504 Y-54.2261
G00 Z1.4000
G00 X-24.1547 Y-49.6781
G01 F60.00
G01 Z0.0000
G01 F120.00
G01 X-24.1547 Y-49.9246
G01 X-24.0778 Y-49.8996
G01 X-23.9144 Y-49.8164
G01 X-23.7661 Y-49.7086
G01 X-23.6364 Y-49.5790
G01 X-23.5286 Y-49.4306
G01 X-23.4454 Y-49.2672
G01 X-23.4251 Y-49.2050
G01 X-23.6739 Y-49.2050
G01 X-23.6974 Y-49.2548
G01 X-23.7020 Y-49.2637
G01 X-23.7440 Y-49.3339
G01 X-23.7495 Y-49.3422
G01 X-23.8022 Y-49.4132
G01 X-23.8639 Y-49.4811
G01 X-23.9318 Y-49.5428
G01 X-24.0055 Y-49.5974
G01 X-24.0842 Y-49.6446
G01 X-24.1547 Y-49.6781
G00 Z1.4000
G00 X-23.5716 Y-49.6343
G01 F60.00
G01 Z0.0000
G01 F120.00
G01 X-23.4559 Y-49.4751
G01 X-23.3666 Y-49.2998
G01 X-23.3081 Y-49.1200
G01 X-23.7306 Y-49.1200
G01 X-23.7402 Y-49.1464
G01 X-23.7748 Y-49.2196
G01 X-23.8176 Y-49.2912
G01 X-23.8679 Y-49.3592
G01 X-23.9240 Y-49.4210
G01 X-23.9858 Y-49.4771
G01 X-24.0538 Y-49.5274
G01 X-24.1254 Y-49.5702
G01 X-24.1986 Y-49.6048
G01 X-24.2397 Y-49.6197
G01 X-24.2397 Y-50.0404
G01 X-24.2323 Y-50.0392
G01 X-24.0452 Y-49.9784
G01 X-23.8699 Y-49.8891
G01 X-23.7107 Y-49.7734
G01 X-23.5716 Y-49.6343
G00 Z1.4000
G00 X-26.4249 Y-49.2050
G01 F60.00
G01 Z0.0000
G01 F120.00
G01 X-26.4046 Y-49.2672
G01 X-26.3214 Y-49.4306
G01 X-26.2136 Y-49.5790
G01 X-26.0839 Y-49.7086
G01 X-25.9356 Y-49.8164
G01 X-25.7722 Y-49.8996
G01 X-25.6953 Y-49.9246
G01 X-25.6953 Y-49.6781
G01 X-25.7658 Y-49.6446
G01 X-25.8445 Y-49.5974
G01 X-25.9182 Y-49.5428
G01 X-25.9861 Y-49.4811
G01 X-26.0478 Y-49.4132
G01 X-26.1005 Y-49.3422
G01 X-26.1060 Y-49.3339
G01 X-26.1480 Y-49.2637
G01 X-26.1526 Y-49.2548
G01 X-26.1761 Y-49.2050
G01 X-26.4249 Y-49.2050
G00 Z1.4000
G00 X-26.5419 Y-49.1200
G01 F60.00
G01 Z0.0000
G01 F120.00
G01 X-26.4834 Y-49.2998
G01 X-26.3941 Y-49.4751
G01 X-26.2784 Y-49.6343
G01 X-26.1393 Y-49.7734
G01 X-25.9801 Y-49.8891
G01 X-25.8048 Y-49.9784
G01 X-25.6177 Y-50.0392
G01 X-25.6103 Y-50.0404
G01 X-25.6103 Y-49.6197
G01 X-25.6514 Y-49.6048
G01 X-25.7246 Y-49.5702
G01 X-25.7962 Y-49.5274
G01 X-25.8642 Y-49.4771
G01 X-25.9260 Y-49.4210
G01 X-25.9821 Y-49.3592
G01 X-26.0324 Y-49.2912
G01 X-26.0752 Y-49.2196
G01 X-26.1098 Y-49.1464
G01 X-26.1194 Y-49.1200
G01 X-26.5419 Y-49.1200
G00 Z1.4000
G00 X-26.5419 Y-48.5200
G01 F60.00
G01 Z0.0000
G01 F120.00
G01 X-26.3664 Y-48.5200
G01 X-26.4988 Y-48.3876
G01 X-26.5419 Y-48.5200
G00 Z1.4000
G00 X-26.5755 Y-46.3726
G01 F60.00
G01 Z0.0000
G01 F120.00
G01 X-24.9781 Y-47.9700
G01 X-24.5250 Y-47.9700
G01 X-24.4429 Y-47.9740
G01 X-24.3592 Y-47.9863
G01 X-24.2806 Y-48.0059
G01 X-24.1986 Y-48.0352
G01 X-24.1243 Y-48.0704
G01 X-24.0528 Y-48.1133
G01 X-23.9858 Y-48.1629
G01 X-23.9231 Y-48.2198
G01 X-23.8679 Y-48.2808
G01 X-23.8176 Y-48.3488
G01 X-23.7748 Y-48.4204
G01 X-23.7402 Y-48.4936
G01 X-23.7306 Y-48.5200
G01 X-23.3081 Y-48.5200
G01 X-23.3666 Y-48.3402
G01 X-23.4559 Y-48.1649
G01 X-23.5716 Y-48.0057
G01 X-23.7107 Y-47.8666
G01 X-23.8699 Y-47.7509
G01 X-23.9593 Y-47.7053
G01 X-23.9656 Y-47.7015
G01 X-24.0162 Y-47.6579
G01 X-24.0210 Y-47.6526
G01 X-24.0256 Y-47.6455
G01 X-24.0290 Y-47.6379
G01 X-24.0519 Y-47.5705
G01 X-24.0534 Y-47.5645
G01 X-24.0541 Y-47.5584
G01 X-24.0541 Y-47.5522
G01 X-24.0530 Y-47.5448
G01 X-24.0345 Y-47.4710
G01 X-24.0303 Y-47.4620
G01 X-24.0275 Y-47.4579
G01 X-24.0235 Y-47.4532
G01 X-23.9692 Y-47.4019
G01 X-23.9645 Y-47.3983
G01 X-23.9604 Y-47.3958
G01 X-23.9371 Y-47.3839
G01 X-23.9306 Y-47.3813
G01 X-23.8697 Y-47.3666
G01 X-23.8651 Y-47.3658
G01 X-23.8592 Y-47.3655
G01 X-20.3246 Y-47.3655
G01 X-20.3031 Y-47.3621
G01 X-20.2962 Y-47.3617
G01 X-20.2480 Y-47.3630
G01 X-20.2407 Y-47.3640
G01 X-20.2347 Y-47.3656
G01 X-20.2267 Y-47.3691
G01 X-20.1654 Y-47.4026
G01 X-20.1585 Y-47.4072
G01 X-20.1540 Y-47.4111
G01 X-20.1346 Y-47.4306
G01 X-20.1155 Y-47.4543
G01 X-20.1109 Y-47.4615
G01 X-20.1072 Y-47.4706
G01 X-20.0875 Y-47.5376
G01 X-20.0862 Y-47.5434
G01 X-20.0856 Y-47.5481
G01 X-20.0855 Y-48.3183
G01 X-20.0858 Y-48.3236
G01 X-20.0891 Y-48.3536
G01 X-20.0910 Y-48.3608
G01 X-20.0939 Y-48.3675
G01 X-20.1285 Y-48.4310
G01 X-20.1318 Y-48.4359
G01 X-20.1348 Y-48.4396
G01 X-20.4556 Y-48.7605
G01 X-20.4600 Y-48.7644
G01 X-20.4659 Y-48.7684
G01 X-20.5257 Y-48.8027
G01 X-20.5336 Y-48.8055
G01 X-20.5893 Y-48.8204
G01 X-20.7876 Y-48.9129
G01 X-20.9669 Y-49.0384
G01 X-21.1216 Y-49.1931
G01 X-21.2471 Y-49.3724
G01 X-21.3396 Y-49.5707
G01 X-21.3962 Y-49.7820
G01 X-21.4153 Y-50.0000
G01 X-21.3962 Y-50.2180
G01 X-21.3396 Y-50.4293
G01 X-21.2471 Y-50.6276
G01 X-21.1216 Y-50.8069
G01 X-20.9669 Y-50.9616
G01 X-20.7876 Y-51.0871
G01 X-20.5893 Y-51.1796
G01 X-20.3780 Y-51.2362
G01 X-20.1600 Y-51.2553
G01 X-19.9420 Y-51.2362
G01 X-19.7307 Y-51.1796
G01 X-19.5324 Y-51.0871
G01 X-19.3531 Y-50.9616
G01 X-19.1984 Y-50.8069
G01 X-19.0729 Y-50.6276
G01 X-18.9804 Y-50.4293
G01 X-18.9655 Y-50.3736
G01 X-18.9627 Y-50.3657
G01 X-18.9284 Y-50.3059
G01 X-18.9244 Y-50.3000
G01 X-18.9205 Y-50.2956
G01 X-18.1720 Y-49.5472
G01 X-18.0716 Y-49.4089
G01 X-17.9940 Y-49.2567
G01 X-17.9412 Y-49.0942
G01 X-17.9145 Y-48.9254
G01 X-17.9145 Y-46.9446
G01 X-17.9412 Y-46.7758
G01 X-17.9940 Y-46.6134
G01 X-18.0716 Y-46.4611
G01 X-18.1720 Y-46.3228
G01 X-18.8405 Y-45.6544
G01 X-18.8451 Y-45.6490
G01 X-18.8484 Y-45.6441
G01 X-18.8827 Y-45.5842
G01 X-18.8855 Y-45.5764
G01 X-18.9004 Y-45.5207
G01 X-18.9929 Y-45.3224
G01 X-19.1184 Y-45.1431
G01 X-19.2731 Y-44.9884
G01 X-19.4524 Y-44.8629
G01 X-19.6507 Y-44.7704
G01 X-19.8620 Y-44.7138
G01 X-20.0800 Y-44.6947
G01 X-20.2980 Y-44.7138
G01 X-20.5093 Y-44.7704
G01 X-20.7076 Y-44.8629
G01 X-20.8869 Y-44.9884
G01 X-21.0430 Y-45.1445
G01 X-21.0686 Y-45.1652
G01 X-21.0759 Y-45.1697
G01 X-21.0827 Y-45.1724
G01 X-21.1521 Y-45.1928
G01 X-21.1568 Y-45.1938
G01 X-21.1627 Y-45.1944
G01 X-23.8604 Y-45.1945
G01 X-23.8697 Y-45.1934
G01 X-23.9306 Y-45.1787
G01 X-23.9371 Y-45.1761
G01 X-23.9609 Y-45.1639
G01 X-23.9679 Y-45.1590
G01 X-24.0157 Y-45.1176
G01 X-24.0190 Y-45.1141
G01 X-24.0226 Y-45.1094
G01 X-24.0272 Y-45.1009
G01 X-24.0514 Y-45.0303
G01 X-24.0531 Y-45.0230
G01 X-24.0537 Y-45.0143
G01 X-24.0525 Y-45.0045
G01 X-24.0351 Y-44.9343
G01 X-24.0331 Y-44.9284
G01 X-24.0310 Y-44.9239
G01 X-24.0254 Y-44.9157
G01 X-24.0212 Y-44.9111
G01 X-23.9704 Y-44.8632
G01 X-23.9649 Y-44.8586
G01 X-23.9588 Y-44.8550
G01 X-23.8696 Y-44.8095
G01 X-23.7104 Y-44.6938
G01 X-23.5712 Y-44.5546
G01 X-23.4555 Y-44.3954
G01 X-23.3661 Y-44.2200
G01 X-23.3053 Y-44.0328
G01 X-23.2745 Y-43.8384
G01 X-23.2745 Y-43.6416
G01 X-23.3053 Y-43.4472
G01 X-23.3661 Y-43.2600
G01 X-23.4555 Y-43.0846
G01 X-23.5712 Y-42.9254
G01 X-23.7104 Y-42.7862
G01 X-23.7447 Y-42.7612
G01 X-23.7584 Y-42.7499
G01 X-23.7628 Y-42.7456
G01 X-23.7687 Y-42.7376
G01 X-23.8055 Y-42.6754
G01 X-23.8093 Y-42.6662
G01 X-23.8105 Y-42.6614
G01 X-23.8112 Y-42.6552
G01 X-23.8087 Y-42.5792
G01 X-23.8080 Y-42.5730
G01 X-23.8061 Y-42.5658
G01 X-23.8037 Y-42.5601
G01 X-23.8006 Y-42.5547
G01 X-23.7601 Y-42.4963
G01 X-23.7554 Y-42.4905
G01 X-23.7479 Y-42.4840
G01 X-23.7404 Y-42.4796
G01 X-23.6714 Y-42.4510
G01 X-23.6656 Y-42.4493
G01 X-23.6610 Y-42.4485
G01 X-23.6291 Y-42.4450
G01 X-23.5069 Y-42.3995
G01 X-23.4032 Y-42.3218
G01 X-23.3255 Y-42.2181
G01 X-23.2800 Y-42.0959
G01 X-23.2745 Y-42.0452
G01 X-23.2745 Y-40.3548
G01 X-23.2800 Y-40.3041
G01 X-23.3255 Y-40.1819
G01 X-23.4032 Y-40.0782
G01 X-23.5069 Y-40.0005
G01 X-23.6291 Y-39.9550
G01 X-23.6886 Y-39.9483
G01 X-23.7326 Y-39.9363
G01 X-23.7384 Y-39.9340
G01 X-23.7448 Y-39.9304
G01 X-23.7498 Y-39.9266
G01 X-23.8035 Y-39.8800
G01 X-23.8078 Y-39.8756
G01 X-23.8122 Y-39.8696
G01 X-23.8157 Y-39.8630
G01 X-23.8178 Y-39.8572
G01 X-23.8378 Y-39.7890
G01 X-23.8394 Y-39.7796
G01 X-23.8395 Y-32.9096
G01 X-23.8662 Y-32.7408
G01 X-23.9190 Y-32.5784
G01 X-23.9966 Y-32.4261
G01 X-24.0970 Y-32.2878
G01 X-24.6805 Y-31.7044
G01 X-24.6844 Y-31.7000
G01 X-24.6884 Y-31.6941
G01 X-24.7227 Y-31.6342
G01 X-24.7255 Y-31.6264
G01 X-24.7404 Y-31.5707
G01 X-24.8329 Y-31.3724
G01 X-24.9584 Y-31.1931
G01 X-25.1131 Y-31.0384
G01 X-25.2924 Y-30.9129
G01 X-25.4907 Y-30.8204
G01 X-25.7020 Y-30.7638
G01 X-25.9200 Y-30.7447
G01 X-26.1380 Y-30.7638
G01 X-26.3493 Y-30.8204
G01 X-26.5476 Y-30.9129
G01 X-26.7269 Y-31.0384
G01 X-26.8816 Y-31.1931
G01 X-27.0071 Y-31.3724
G01 X-27.0996 Y-31.5707
G01 X-27.1562 Y-31.7820
G01 X-27.1753 Y-32.0000
G01 X-27.1562 Y-32.2180
G01 X-27.0996 Y-32.4293
G01 X-27.0071 Y-32.6276
G01 X-26.8816 Y-32.8069
G01 X-26.7269 Y-32.9616
G01 X-26.5476 Y-33.0871
G01 X-26.3493 Y-33.1796
G01 X-26.2936 Y-33.1945
G01 X-26.2858 Y-33.1973
G01 X-26.2259 Y-33.2316
G01 X-26.2191 Y-33.2363
G01 X-26.0615 Y-33.3937
G01 X-26.0405 Y-33.4193
G01 X-26.0359 Y-33.4265
G01 X-26.0326 Y-33.4344
G01 X-26.0122 Y-33.5038
G01 X-26.0112 Y-33.5084
G01 X-26.0106 Y-33.5143
G01 X-26.0107 Y-39.7806
G01 X-26.0179 Y-39.8256
G01 X-26.0196 Y-39.8316
G01 X-26.0226 Y-39.8384
G01 X-26.0258 Y-39.8437
G01 X-26.0663 Y-39.9021
G01 X-26.0721 Y-39.9086
G01 X-26.0788 Y-39.9141
G01 X-26.0876 Y-39.9188
G01 X-26.1555 Y-39.9468
G01 X-26.1647 Y-39.9489
G01 X-26.2209 Y-39.9550
G01 X-26.3431 Y-40.0005
G01 X-26.4468 Y-40.0782
G01 X-26.5245 Y-40.1819
G01 X-26.5700 Y-40.3041
G01 X-26.5755 Y-40.3548
G01 X-26.5755 Y-42.0452
G01 X-26.5700 Y-42.0959
G01 X-26.5245 Y-42.2181
G01 X-26.4468 Y-42.3218
G01 X-26.3431 Y-42.3995
G01 X-26.2209 Y-42.4450
G01 X-26.1887 Y-42.4485
G01 X-26.1712 Y-42.4515
G01 X-26.1628 Y-42.4539
G01 X-26.1561 Y-42.4570
G01 X-26.0921 Y-42.4933
G01 X-26.0872 Y-42.4971
G01 X-26.0836 Y-42.5005
G01 X-26.0775 Y-42.5084
G01 X-26.0431 Y-42.5734
G01 X-26.0405 Y-42.5790
G01 X-26.0384 Y-42.5862
G01 X-26.0374 Y-42.5936
G01 X-26.0374 Y-42.5998
G01 X-26.0439 Y-42.6743
G01 X-26.0464 Y-42.6839
G01 X-26.0484 Y-42.6885
G01 X-26.0515 Y-42.6938
G01 X-26.0963 Y-42.7522
G01 X-26.1002 Y-42.7567
G01 X-26.1056 Y-42.7614
G01 X-26.1396 Y-42.7862
G01 X-26.2788 Y-42.9254
G01 X-26.3945 Y-43.0846
G01 X-26.4839 Y-43.2600
G01 X-26.5447 Y-43.4472
G01 X-26.5755 Y-43.6416
G01 X-26.5755 Y-43.8384
G01 X-26.5447 Y-44.0328
G01 X-26.4839 Y-44.2200
G01 X-26.3945 Y-44.3954
G01 X-26.2788 Y-44.5546
G01 X-26.1396 Y-44.6938
G01 X-25.9804 Y-44.8095
G01 X-25.8912 Y-44.8550
G01 X-25.8860 Y-44.8580
G01 X-25.8812 Y-44.8617
G01 X-25.8335 Y-44.9032
G01 X-25.8295 Y-44.9077
G01 X-25.8267 Y-44.9116
G01 X-25.8243 Y-44.9158
G01 X-25.8219 Y-44.9213
G01 X-25.7983 Y-44.9909
G01 X-25.7966 Y-44.9995
G01 X-25.7964 Y-45.0069
G01 X-25.7978 Y-45.0167
G01 X-25.8152 Y-45.0869
G01 X-25.8169 Y-45.0916
G01 X-25.8196 Y-45.0972
G01 X-25.8230 Y-45.1024
G01 X-25.8270 Y-45.1071
G01 X-25.8796 Y-45.1568
G01 X-25.8851 Y-45.1613
G01 X-25.8912 Y-45.1650
G01 X-25.9804 Y-45.2105
G01 X-26.1396 Y-45.3262
G01 X-26.2788 Y-45.4654
G01 X-26.3945 Y-45.6246
G01 X-26.4839 Y-45.8000
G01 X-26.5447 Y-45.9872
G01 X-26.5755 Y-46.1816
G01 X-26.5755 Y-46.3726
G00 Z1.4000
G00 X-25.6953 Y-42.8819
G01 F60.00
G01 Z0.0000
G01 F120.00
G01 X-25.7658 Y-42.9154
G01 X-25.8389 Y-42.9590
G01 X-25.8499 Y-42.9664
G01 X-25.9182 Y-43.0172
G01 X-25.9813 Y-43.0743
G01 X-25.9907 Y-43.0837
G01 X-26.0478 Y-43.1468
G01 X-26.0986 Y-43.2151
G01 X-26.1060 Y-43.2261
G01 X-26.1496 Y-43.2992
G01 X-26.1861 Y-43.3761
G01 X-26.1912 Y-43.3884
G01 X-26.2197 Y-43.4686
G01 X-26.2406 Y-43.5511
G01 X-26.2432 Y-43.5641
G01 X-26.2555 Y-43.6484
G01 X-26.2598 Y-43.7334
G01 X-26.2598 Y-43.7466
G01 X-26.2555 Y-43.8316
G01 X-26.2432 Y-43.9159
G01 X-26.2406 Y-43.9289
G01 X-26.2197 Y-44.0114
G01 X-26.1912 Y-44.0916
G01 X-26.1861 Y-44.1039
G01 X-26.1496 Y-44.1808
G01 X-26.1060 Y-44.2539
G01 X-26.0986 Y-44.2649
G01 X-26.0478 Y-44.3332
G01 X-25.9907 Y-44.3963
G01 X-25.9813 Y-44.4057
G01 X-25.9182 Y-44.4628
G01 X-25.8472 Y-44.5155
G01 X-25.8389 Y-44.5210
G01 X-25.7658 Y-44.5646
G01 X-25.6889 Y-44.6011
G01 X-25.6766 Y-44.6062
G01 X-25.5964 Y-44.6347
G01 X-25.5139 Y-44.6556
G01 X-25.5009 Y-44.6582
G01 X-25.4166 Y-44.6705
G01 X-25.3250 Y-44.6750
G01 X-24.5250 Y-44.6750
G01 X-24.4400 Y-44.6710
G01 X-24.4301 Y-44.6701
G01 X-24.3426 Y-44.6570
G01 X-24.2536 Y-44.6347
G01 X-24.1672 Y-44.6038
G01 X-24.0902 Y-44.5676
G01 X-24.0785 Y-44.5613
G01 X-24.0055 Y-44.5174
G01 X-23.9371 Y-44.4668
G01 X-23.9268 Y-44.4584
G01 X-23.8687 Y-44.4057
G01 X-23.8593 Y-44.3963
G01 X-23.8022 Y-44.3332
G01 X-23.7495 Y-44.2622
G01 X-23.7440 Y-44.2539
G01 X-23.7004 Y-44.1808
G01 X-23.6612 Y-44.0978
G01 X-23.6303 Y-44.0114
G01 X-23.6094 Y-43.9289
G01 X-23.6068 Y-43.9159
G01 X-23.5945 Y-43.8316
G01 X-23.5902 Y-43.7466
G01 X-23.5902 Y-43.7334
G01 X-23.5940 Y-43.6550
G01 X-23.5953 Y-43.6418
G01 X-23.6080 Y-43.5576
G01 X-23.6303 Y-43.4686
G01 X-23.6612 Y-43.3822
G01 X-23.7004 Y-43.2992
G01 X-23.7476 Y-43.2205
G01 X-23.7982 Y-43.1521
G01 X-23.8066 Y-43.1418
G01 X-23.8639 Y-43.0789
G01 X-23.9268 Y-43.0216
G01 X-23.9371 Y-43.0132
G01 X-24.0001 Y-42.9664
G01 X-24.0111 Y-42.9590
G01 X-24.0842 Y-42.9154
G01 X-24.1547 Y-42.8819
G01 X-24.1547 Y-42.1350
G01 X-23.7250 Y-42.1350
G01 X-23.7118 Y-42.1343
G01 X-23.6987 Y-42.1324
G01 X-23.6890 Y-42.1301
G01 X-23.6795 Y-42.1271
G01 X-23.6703 Y-42.1234
G01 X-23.6614 Y-42.1191
G01 X-23.6528 Y-42.1141
G01 X-23.6446 Y-42.1084
G01 X-23.6368 Y-42.1022
G01 X-23.6295 Y-42.0955
G01 X-23.6228 Y-42.0882
G01 X-23.6166 Y-42.0804
G01 X-23.6075 Y-42.0665
G01 X-23.6030 Y-42.0577
G01 X-23.5990 Y-42.0486
G01 X-23.5958 Y-42.0392
G01 X-23.5933 Y-42.0296
G01 X-23.5907 Y-42.0132
G01 X-23.5900 Y-42.0000
G01 X-23.5900 Y-40.4000
G01 X-23.5907 Y-40.3868
G01 X-23.5920 Y-40.3769
G01 X-23.5949 Y-40.3640
G01 X-23.5979 Y-40.3545
G01 X-23.6016 Y-40.3453
G01 X-23.6059 Y-40.3364
G01 X-23.6128 Y-40.3250
G01 X-23.6186 Y-40.3169
G01 X-23.6250 Y-40.3093
G01 X-23.6319 Y-40.3022
G01 X-23.6394 Y-40.2956
G01 X-23.6500 Y-40.2878
G01 X-23.6614 Y-40.2809
G01 X-23.6703 Y-40.2766
G01 X-23.6795 Y-40.2729
G01 X-23.6922 Y-40.2690
G01 X-23.7085 Y-40.2660
G01 X-23.7250 Y-40.2650
G01 X-24.1547 Y-40.2650
G01 X-24.1547 Y-32.9950
G01 X-24.1584 Y-32.9195
G01 X-24.1689 Y-32.8480
G01 X-24.1709 Y-32.8383
G01 X-24.1879 Y-32.7714
G01 X-24.2109 Y-32.7064
G01 X-24.2160 Y-32.6942
G01 X-24.2456 Y-32.6319
G01 X-24.2810 Y-32.5726
G01 X-24.2883 Y-32.5616
G01 X-24.3295 Y-32.5063
G01 X-24.3803 Y-32.4503
G01 X-25.0010 Y-31.8296
G01 X-25.0024 Y-31.8208
G01 X-25.0044 Y-31.8111
G01 X-25.0235 Y-31.7350
G01 X-25.0273 Y-31.7223
G01 X-25.0562 Y-31.6422
G01 X-25.0954 Y-31.5592
G01 X-25.1426 Y-31.4805
G01 X-25.1932 Y-31.4121
G01 X-25.2016 Y-31.4018
G01 X-25.2589 Y-31.3389
G01 X-25.3268 Y-31.2772
G01 X-25.4005 Y-31.2226
G01 X-25.4792 Y-31.1754
G01 X-25.5622 Y-31.1362
G01 X-25.6486 Y-31.1053
G01 X-25.7376 Y-31.0830
G01 X-25.8284 Y-31.0695
G01 X-25.9134 Y-31.0652
G01 X-25.9233 Y-31.0650
G01 X-26.0116 Y-31.0695
G01 X-26.1024 Y-31.0830
G01 X-26.1914 Y-31.1053
G01 X-26.2778 Y-31.1362
G01 X-26.3608 Y-31.1754
G01 X-26.4395 Y-31.2226
G01 X-26.5132 Y-31.2772
G01 X-26.5811 Y-31.3389
G01 X-26.6428 Y-31.4068
G01 X-26.6974 Y-31.4805
G01 X-26.7446 Y-31.5592
G01 X-26.7838 Y-31.6422
G01 X-26.8147 Y-31.7286
G01 X-26.8370 Y-31.8176
G01 X-26.8505 Y-31.9084
G01 X-26.8548 Y-31.9934
G01 X-26.8550 Y-32.0033
G01 X-26.8505 Y-32.0916
G01 X-26.8370 Y-32.1824
G01 X-26.8147 Y-32.2714
G01 X-26.7862 Y-32.3516
G01 X-26.7811 Y-32.3639
G01 X-26.7476 Y-32.4348
G01 X-26.7413 Y-32.4465
G01 X-26.6974 Y-32.5195
G01 X-26.6468 Y-32.5879
G01 X-26.6384 Y-32.5982
G01 X-26.5811 Y-32.6611
G01 X-26.5132 Y-32.7228
G01 X-26.4395 Y-32.7774
G01 X-26.3665 Y-32.8213
G01 X-26.3548 Y-32.8276
G01 X-26.2778 Y-32.8638
G01 X-26.1977 Y-32.8927
G01 X-26.1850 Y-32.8965
G01 X-26.1089 Y-32.9156
G01 X-26.0992 Y-32.9176
G01 X-26.0904 Y-32.9190
G01 X-25.6953 Y-33.3141
G01 X-25.6953 Y-40.2650
G01 X-26.1250 Y-40.2650
G01 X-26.1349 Y-40.2654
G01 X-26.1481 Y-40.2670
G01 X-26.1642 Y-40.2708
G01 X-26.1736 Y-40.2740
G01 X-26.1827 Y-40.2780
G01 X-26.1972 Y-40.2859
G01 X-26.2054 Y-40.2916
G01 X-26.2132 Y-40.2978
G01 X-26.2250 Y-40.3093
G01 X-26.2314 Y-40.3169
G01 X-26.2372 Y-40.3250
G01 X-26.2425 Y-40.3335
G01 X-26.2470 Y-40.3423
G01 X-26.2532 Y-40.3577
G01 X-26.2560 Y-40.3672
G01 X-26.2585 Y-40.3802
G01 X-26.2596 Y-40.3901
G01 X-26.2600 Y-40.4000
G01 X-26.2600 Y-42.0000
G01 X-26.2596 Y-42.0099
G01 X-26.2580 Y-42.0231
G01 X-26.2560 Y-42.0328
G01 X-26.2532 Y-42.0423
G01 X-26.2497 Y-42.0517
G01 X-26.2441 Y-42.0636
G01 X-26.2391 Y-42.0722
G01 X-26.2314 Y-42.0831
G01 X-26.2250 Y-42.0907
G01 X-26.2181 Y-42.0978
G01 X-26.2106 Y-42.1044
G01 X-26.2000 Y-42.1122
G01 X-26.1915 Y-42.1175
G01 X-26.1797 Y-42.1234
G01 X-26.1673 Y-42.1282
G01 X-26.1578 Y-42.1310
G01 X-26.1415 Y-42.1340
G01 X-26.1250 Y-42.1350
G01 X-25.6953 Y-42.1350
G01 X-25.6953 Y-42.8819
G00 Z1.4000
G00 X-23.6750 Y-40.4000
G01 F60.00
G01 Z0.0000
G01 F120.00
G01 X-23.6760 Y-40.3902
G01 X-23.6784 Y-40.3820
G01 X-23.6821 Y-40.3743
G01 X-23.6880 Y-40.3664
G01 X-23.6942 Y-40.3606
G01 X-23.7025 Y-40.3553
G01 X-23.7105 Y-40.3522
G01 X-23.7201 Y-40.3502
G01 X-24.2397 Y-40.3500
G01 X-24.2397 Y-32.9950
G01 X-24.2433 Y-32.9254
G01 X-24.2529 Y-32.8613
G01 X-24.2689 Y-32.7972
G01 X-24.2918 Y-32.7327
G01 X-24.3206 Y-32.6719
G01 X-24.3552 Y-32.6143
G01 X-24.3960 Y-32.5593
G01 X-24.4404 Y-32.5104
G01 X-25.0810 Y-31.8698
G01 X-25.0866 Y-31.8330
G01 X-25.1070 Y-31.7521
G01 X-25.1347 Y-31.6747
G01 X-25.1710 Y-31.5982
G01 X-25.2133 Y-31.5278
G01 X-25.2629 Y-31.4608
G01 X-25.3190 Y-31.3990
G01 X-25.3798 Y-31.3437
G01 X-25.4478 Y-31.2933
G01 X-25.5215 Y-31.2493
G01 X-25.5947 Y-31.2147
G01 X-25.6709 Y-31.1874
G01 X-25.7542 Y-31.1663
G01 X-25.8367 Y-31.1541
G01 X-25.9225 Y-31.1501
G01 X-26.0033 Y-31.1541
G01 X-26.0834 Y-31.1659
G01 X-26.1656 Y-31.1863
G01 X-26.2475 Y-31.2157
G01 X-26.3207 Y-31.2504
G01 X-26.3922 Y-31.2933
G01 X-26.4592 Y-31.3429
G01 X-26.5193 Y-31.3973
G01 X-26.5786 Y-31.4627
G01 X-26.6267 Y-31.5278
G01 X-26.6696 Y-31.5993
G01 X-26.7053 Y-31.6747
G01 X-26.7326 Y-31.7509
G01 X-26.7541 Y-31.8366
G01 X-26.7659 Y-31.9167
G01 X-26.7700 Y-32.0012
G01 X-26.7659 Y-32.0833
G01 X-26.7537 Y-32.1658
G01 X-26.7334 Y-32.2467
G01 X-26.7053 Y-32.3253
G01 X-26.6696 Y-32.4007
G01 X-26.6267 Y-32.4722
G01 X-26.5771 Y-32.5392
G01 X-26.5227 Y-32.5993
G01 X-26.4573 Y-32.6586
G01 X-26.3922 Y-32.7067
G01 X-26.3196 Y-32.7502
G01 X-26.2453 Y-32.7853
G01 X-26.1679 Y-32.8130
G01 X-26.0870 Y-32.8334
G01 X-26.0502 Y-32.8390
G01 X-25.6103 Y-33.2789
G01 X-25.6103 Y-40.3500
G01 X-26.1299 Y-40.3502
G01 X-26.1383 Y-40.3518
G01 X-26.1475 Y-40.3553
G01 X-26.1548 Y-40.3598
G01 X-26.1620 Y-40.3664
G01 X-26.1672 Y-40.3733
G01 X-26.1716 Y-40.3820
G01 X-26.1740 Y-40.3902
G01 X-26.1750 Y-40.4000
G01 X-26.1750 Y-42.0000
G01 X-26.1745 Y-42.0073
G01 X-26.1725 Y-42.0157
G01 X-26.1697 Y-42.0225
G01 X-26.1659 Y-42.0288
G01 X-26.1604 Y-42.0354
G01 X-26.1548 Y-42.0402
G01 X-26.1486 Y-42.0441
G01 X-26.1418 Y-42.0471
G01 X-26.1348 Y-42.0490
G01 X-26.1275 Y-42.0499
G01 X-25.6103 Y-42.0500
G01 X-25.6103 Y-42.9403
G01 X-25.6514 Y-42.9552
G01 X-25.7268 Y-42.9910
G01 X-25.7972 Y-43.0333
G01 X-25.8633 Y-43.0822
G01 X-25.9277 Y-43.1407
G01 X-25.9821 Y-43.2008
G01 X-26.0311 Y-43.2668
G01 X-26.0757 Y-43.3415
G01 X-26.1103 Y-43.4147
G01 X-26.1384 Y-43.4933
G01 X-26.1591 Y-43.5766
G01 X-26.1709 Y-43.6567
G01 X-26.1749 Y-43.7375
G01 X-26.1706 Y-43.8258
G01 X-26.1587 Y-43.9058
G01 X-26.1391 Y-43.9844
G01 X-26.1103 Y-44.0653
G01 X-26.0734 Y-44.1428
G01 X-26.0317 Y-44.2122
G01 X-25.9836 Y-44.2773
G01 X-25.9260 Y-44.3410
G01 X-25.8642 Y-44.3971
G01 X-25.7992 Y-44.4453
G01 X-25.7246 Y-44.4902
G01 X-25.6503 Y-44.5253
G01 X-25.5717 Y-44.5534
G01 X-25.4908 Y-44.5737
G01 X-25.4059 Y-44.5861
G01 X-25.3250 Y-44.5900
G01 X-24.5250 Y-44.5900
G01 X-24.4417 Y-44.5859
G01 X-24.3604 Y-44.5739
G01 X-24.2783 Y-44.5534
G01 X-24.1975 Y-44.5243
G01 X-24.1222 Y-44.4884
G01 X-24.0528 Y-44.4467
G01 X-23.9877 Y-44.3986
G01 X-23.9240 Y-44.3410
G01 X-23.8679 Y-44.2792
G01 X-23.8183 Y-44.2122
G01 X-23.7748 Y-44.1396
G01 X-23.7397 Y-44.0653
G01 X-23.7116 Y-43.9867
G01 X-23.6913 Y-43.9058
G01 X-23.6794 Y-43.8258
G01 X-23.6751 Y-43.7375
G01 X-23.6791 Y-43.6567
G01 X-23.6916 Y-43.5730
G01 X-23.7124 Y-43.4909
G01 X-23.7397 Y-43.4147
G01 X-23.7743 Y-43.3415
G01 X-23.8183 Y-43.2678
G01 X-23.8687 Y-43.1998
G01 X-23.9240 Y-43.1390
G01 X-23.9839 Y-43.0845
G01 X-24.0518 Y-43.0339
G01 X-24.1254 Y-42.9898
G01 X-24.1986 Y-42.9552
G01 X-24.2397 Y-42.9403
G01 X-24.2397 Y-42.0500
G01 X-23.7225 Y-42.0499
G01 X-23.7152 Y-42.0490
G01 X-23.7082 Y-42.0471
G01 X-23.7014 Y-42.0441
G01 X-23.6952 Y-42.0402
G01 X-23.6896 Y-42.0354
G01 X-23.6848 Y-42.0298
G01 X-23.6809 Y-42.0236
G01 X-23.6775 Y-42.0157
G01 X-23.6757 Y-42.0085
G01 X-23.6750 Y-42.0000
G01 X-23.6750 Y-40.4000
G00 Z1.4000
G00 X-20.9044 Y-45.5089
G01 F60.00
G01 Z0.0000
G01 F120.00
G01 X-20.8574 Y-45.4305
G01 X-20.8028 Y-45.3568
G01 X-20.7411 Y-45.2889
G01 X-20.6732 Y-45.2272
G01 X-20.5995 Y-45.1726
G01 X-20.5208 Y-45.1254
G01 X-20.4378 Y-45.0862
G01 X-20.3514 Y-45.0553
G01 X-20.2624 Y-45.0330
G01 X-20.1716 Y-45.0195
G01 X-20.0800 Y-45.0150
G01 X-19.9884 Y-45.0195
G01 X-19.8976 Y-45.0330
G01 X-19.8086 Y-45.0553
G01 X-19.7222 Y-45.0862
G01 X-19.6422 Y-45.1239
G01 X-19.6335 Y-45.1287
G01 X-19.5605 Y-45.1726
G01 X-19.4921 Y-45.2232
G01 X-19.4818 Y-45.2316
G01 X-19.4189 Y-45.2889
G01 X-19.3616 Y-45.3518
G01 X-19.3532 Y-45.3621
G01 X-19.3064 Y-45.4251
G01 X-19.2990 Y-45.4361
G01 X-19.2554 Y-45.5092
G01 X-19.2162 Y-45.5922
G01 X-19.1853 Y-45.6786
G01 X-19.1644 Y-45.7611
G01 X-19.1624 Y-45.7708
G01 X-19.1610 Y-45.7796
G01 X-18.4553 Y-46.4853
G01 X-18.4089 Y-46.5363
G01 X-18.4025 Y-46.5439
G01 X-18.3633 Y-46.5966
G01 X-18.3560 Y-46.6076
G01 X-18.3206 Y-46.6669
G01 X-18.2910 Y-46.7292
G01 X-18.2859 Y-46.7414
G01 X-18.2629 Y-46.8064
G01 X-18.2445 Y-46.8797
G01 X-18.2334 Y-46.9545
G01 X-18.2297 Y-47.0300
G01 X-18.2297 Y-48.8433
G01 X-18.2334 Y-48.9155
G01 X-18.2445 Y-48.9903
G01 X-18.2629 Y-49.0636
G01 X-18.2883 Y-49.1348
G01 X-18.3206 Y-49.2031
G01 X-18.3595 Y-49.2680
G01 X-18.4045 Y-49.3287
G01 X-18.4507 Y-49.3799
G01 X-19.2410 Y-50.1704
G01 X-19.2424 Y-50.1792
G01 X-19.2444 Y-50.1889
G01 X-19.2635 Y-50.2650
G01 X-19.2673 Y-50.2777
G01 X-19.2962 Y-50.3578
G01 X-19.3354 Y-50.4408
G01 X-19.3790 Y-50.5139
G01 X-19.3864 Y-50.5249
G01 X-19.4372 Y-50.5932
G01 X-19.4943 Y-50.6563
G01 X-19.5037 Y-50.6657
G01 X-19.5668 Y-50.7228
G01 X-19.6351 Y-50.7736
G01 X-19.6461 Y-50.7810
G01 X-19.7192 Y-50.8246
G01 X-19.7961 Y-50.8611
G01 X-19.8084 Y-50.8662
G01 X-19.8854 Y-50.8937
G01 X-19.8950 Y-50.8965
G01 X-19.9776 Y-50.9170
G01 X-20.0684 Y-50.9305
G01 X-20.1600 Y-50.9350
G01 X-20.2450 Y-50.9310
G01 X-20.2582 Y-50.9297
G01 X-20.3424 Y-50.9170
G01 X-20.4250 Y-50.8965
G01 X-20.4377 Y-50.8927
G01 X-20.5116 Y-50.8662
G01 X-20.5239 Y-50.8611
G01 X-20.6008 Y-50.8246
G01 X-20.6795 Y-50.7774
G01 X-20.7532 Y-50.7228
G01 X-20.8163 Y-50.6657
G01 X-20.8257 Y-50.6563
G01 X-20.8784 Y-50.5982
G01 X-20.8868 Y-50.5879
G01 X-20.9374 Y-50.5195
G01 X-20.9813 Y-50.4465
G01 X-20.9876 Y-50.4348
G01 X-21.0238 Y-50.3578
G01 X-21.0547 Y-50.2714
G01 X-21.0770 Y-50.1824
G01 X-21.0897 Y-50.0982
G01 X-21.0910 Y-50.0850
G01 X-21.0950 Y-50.0000
G01 X-21.0905 Y-49.9084
G01 X-21.0770 Y-49.8176
G01 X-21.0547 Y-49.7286
G01 X-21.0238 Y-49.6422
G01 X-20.9846 Y-49.5592
G01 X-20.9374 Y-49.4805
G01 X-20.8868 Y-49.4121
G01 X-20.8806 Y-49.4043
G01 X-20.8211 Y-49.3389
G01 X-20.7532 Y-49.2772
G01 X-20.6795 Y-49.2226
G01 X-20.6065 Y-49.1787
G01 X-20.5948 Y-49.1724
G01 X-20.5178 Y-49.1362
G01 X-20.4377 Y-49.1073
G01 X-20.4250 Y-49.1035
G01 X-20.3489 Y-49.0844
G01 X-20.3392 Y-49.0824
G01 X-20.3304 Y-49.0810
G01 X-19.7703 Y-48.5209
G01 X-19.7703 Y-47.3491
G01 X-20.1243 Y-46.9951
G01 X-20.1864 Y-47.0171
G01 X-20.2597 Y-47.0355
G01 X-20.3345 Y-47.0466
G01 X-20.4067 Y-47.0503
G01 X-23.9957 Y-47.0503
G01 X-24.0028 Y-47.0555
G01 X-24.0111 Y-47.0610
G01 X-24.0785 Y-47.1013
G01 X-24.0902 Y-47.1076
G01 X-24.1672 Y-47.1438
G01 X-24.2536 Y-47.1747
G01 X-24.3361 Y-47.1956
G01 X-24.3491 Y-47.1982
G01 X-24.4334 Y-47.2105
G01 X-24.5217 Y-47.2150
G01 X-25.3250 Y-47.2150
G01 X-25.4133 Y-47.2108
G01 X-25.4232 Y-47.2097
G01 X-25.5009 Y-47.1982
G01 X-25.5139 Y-47.1956
G01 X-25.5964 Y-47.1747
G01 X-25.6766 Y-47.1462
G01 X-25.6849 Y-47.1429
G01 X-24.9428 Y-47.8850
G01 X-24.5250 Y-47.8850
G01 X-24.4334 Y-47.8895
G01 X-24.3426 Y-47.9030
G01 X-24.2600 Y-47.9235
G01 X-24.2473 Y-47.9273
G01 X-24.1734 Y-47.9538
G01 X-24.1641 Y-47.9575
G01 X-24.0842 Y-47.9954
G01 X-24.0055 Y-48.0426
G01 X-23.9318 Y-48.0972
G01 X-23.8662 Y-48.1565
G01 X-23.8593 Y-48.1637
G01 X-23.8022 Y-48.2268
G01 X-23.7495 Y-48.2978
G01 X-23.7440 Y-48.3061
G01 X-23.7020 Y-48.3763
G01 X-23.6974 Y-48.3852
G01 X-23.6739 Y-48.4350
G01 X-23.4251 Y-48.4350
G01 X-23.4454 Y-48.3728
G01 X-23.5286 Y-48.2094
G01 X-23.6364 Y-48.0610
G01 X-23.7661 Y-47.9314
G01 X-23.9144 Y-47.8236
G01 X-24.0008 Y-47.7795
G01 X-24.0093 Y-47.7745
G01 X-24.0174 Y-47.7690
G01 X-24.0250 Y-47.7628
G01 X-24.0701 Y-47.7238
G01 X-24.0795 Y-47.7148
G01 X-24.0859 Y-47.7075
G01 X-24.0937 Y-47.6971
G01 X-24.0988 Y-47.6889
G01 X-24.1033 Y-47.6803
G01 X-24.1095 Y-47.6653
G01 X-24.1340 Y-47.5927
G01 X-24.1376 Y-47.5764
G01 X-24.1392 Y-47.5597
G01 X-24.1386 Y-47.5430
G01 X-24.1360 Y-47.5264
G01 X-24.1185 Y-47.4553
G01 X-24.1134 Y-47.4393
G01 X-24.1080 Y-47.4271
G01 X-24.1032 Y-47.4183
G01 X-24.0957 Y-47.4071
G01 X-24.0894 Y-47.3993
G01 X-24.0801 Y-47.3896
G01 X-24.0270 Y-47.3395
G01 X-24.0144 Y-47.3295
G01 X-24.0008 Y-47.3210
G01 X-23.9710 Y-47.3060
G01 X-23.9562 Y-47.3003
G01 X-23.9470 Y-47.2977
G01 X-23.8876 Y-47.2835
G01 X-23.8719 Y-47.2811
G01 X-23.8592 Y-47.2805
G01 X-20.3313 Y-47.2805
G01 X-20.3114 Y-47.2775
G01 X-20.2957 Y-47.2767
G01 X-20.2402 Y-47.2784
G01 X-20.2236 Y-47.2807
G01 X-20.2106 Y-47.2841
G01 X-20.2012 Y-47.2874
G01 X-20.1890 Y-47.2929
G01 X-20.1247 Y-47.3280
G01 X-20.1111 Y-47.3365
G01 X-20.1034 Y-47.3424
G01 X-20.0962 Y-47.3488
G01 X-20.0714 Y-47.3738
G01 X-20.0480 Y-47.4026
G01 X-20.0423 Y-47.4107
G01 X-20.0371 Y-47.4192
G01 X-20.0300 Y-47.4341
G01 X-20.0257 Y-47.4466
G01 X-20.0051 Y-47.5168
G01 X-20.0029 Y-47.5262
G01 X-20.0011 Y-47.5389
G01 X-20.0005 Y-47.5517
G01 X-20.0005 Y-48.3219
G01 X-20.0013 Y-48.3327
G01 X-20.0041 Y-48.3591
G01 X-20.0055 Y-48.3689
G01 X-20.0095 Y-48.3850
G01 X-20.0154 Y-48.4005
G01 X-20.0198 Y-48.4094
G01 X-20.0549 Y-48.4735
G01 X-20.0637 Y-48.4869
G01 X-20.0719 Y-48.4968
G01 X-20.3955 Y-48.8206
G01 X-20.4050 Y-48.8292
G01 X-20.4126 Y-48.8351
G01 X-20.4207 Y-48.8404
G01 X-20.4790 Y-48.8741
G01 X-20.4904 Y-48.8800
G01 X-20.4993 Y-48.8837
G01 X-20.5085 Y-48.8867
G01 X-20.5601 Y-48.9006
G01 X-20.7450 Y-48.9868
G01 X-20.9120 Y-49.1038
G01 X-21.0562 Y-49.2480
G01 X-21.1732 Y-49.4150
G01 X-21.2594 Y-49.5999
G01 X-21.3122 Y-49.7968
G01 X-21.3300 Y-50.0000
G01 X-21.3122 Y-50.2032
G01 X-21.2594 Y-50.4001
G01 X-21.1732 Y-50.5850
G01 X-21.0562 Y-50.7520
G01 X-20.9120 Y-50.8962
G01 X-20.7450 Y-51.0132
G01 X-20.5601 Y-51.0994
G01 X-20.3632 Y-51.1522
G01 X-20.1600 Y-51.1700
G01 X-19.9568 Y-51.1522
G01 X-19.7599 Y-51.0994
G01 X-19.5750 Y-51.0132
G01 X-19.4080 Y-50.8962
G01 X-19.2638 Y-50.7520
G01 X-19.1468 Y-50.5850
G01 X-19.0606 Y-50.4001
G01 X-19.0467 Y-50.3485
G01 X-19.0437 Y-50.3393
G01 X-19.0400 Y-50.3304
G01 X-19.0341 Y-50.3190
G01 X-19.0020 Y-50.2634
G01 X-18.9969 Y-50.2553
G01 X-18.9912 Y-50.2475
G01 X-18.9806 Y-50.2355
G01 X-18.2369 Y-49.4918
G01 X-18.1443 Y-49.3644
G01 X-18.0728 Y-49.2241
G01 X-18.0241 Y-49.0743
G01 X-17.9995 Y-48.9187
G01 X-17.9995 Y-46.9513
G01 X-18.0241 Y-46.7957
G01 X-18.0728 Y-46.6459
G01 X-18.1443 Y-46.5056
G01 X-18.2369 Y-46.3782
G01 X-18.9006 Y-45.7145
G01 X-18.9092 Y-45.7050
G01 X-18.9151 Y-45.6974
G01 X-18.9220 Y-45.6866
G01 X-18.9541 Y-45.6310
G01 X-18.9600 Y-45.6196
G01 X-18.9637 Y-45.6107
G01 X-18.9667 Y-45.6015
G01 X-18.9806 Y-45.5499
G01 X-19.0668 Y-45.3650
G01 X-19.1838 Y-45.1980
G01 X-19.3280 Y-45.0538
G01 X-19.4950 Y-44.9368
G01 X-19.6799 Y-44.8506
G01 X-19.8768 Y-44.7978
G01 X-20.0800 Y-44.7800
G01 X-20.2832 Y-44.7978
G01 X-20.4801 Y-44.8506
G01 X-20.6650 Y-44.9368
G01 X-20.8320 Y-45.0538
G01 X-20.9845 Y-45.2062
G01 X-20.9927 Y-45.2133
G01 X-21.0133 Y-45.2299
G01 X-21.0268 Y-45.2395
G01 X-21.0414 Y-45.2474
G01 X-21.0568 Y-45.2534
G01 X-21.1301 Y-45.2749
G01 X-21.1427 Y-45.2776
G01 X-21.1554 Y-45.2792
G01 X-21.1650 Y-45.2795
G01 X-23.8655 Y-45.2793
G01 X-23.8782 Y-45.2782
G01 X-23.8876 Y-45.2765
G01 X-23.9531 Y-45.2606
G01 X-23.9622 Y-45.2576
G01 X-23.9710 Y-45.2540
G01 X-24.0031 Y-45.2376
G01 X-24.0142 Y-45.2306
G01 X-24.0220 Y-45.2246
G01 X-24.0743 Y-45.1791
G01 X-24.0811 Y-45.1721
G01 X-24.0894 Y-45.1621
G01 X-24.0966 Y-45.1514
G01 X-24.1013 Y-45.1429
G01 X-24.1078 Y-45.1280
G01 X-24.1335 Y-45.0525
G01 X-24.1371 Y-45.0361
G01 X-24.1382 Y-45.0261
G01 X-24.1387 Y-45.0161
G01 X-24.1381 Y-45.0027
G01 X-24.1362 Y-44.9894
G01 X-24.1179 Y-44.9150
G01 X-24.1151 Y-44.9054
G01 X-24.1116 Y-44.8959
G01 X-24.1043 Y-44.8809
G01 X-24.0951 Y-44.8669
G01 X-24.0843 Y-44.8541
G01 X-24.0288 Y-44.8014
G01 X-24.0165 Y-44.7911
G01 X-24.0085 Y-44.7856
G01 X-24.0002 Y-44.7807
G01 X-23.9141 Y-44.7368
G01 X-23.7657 Y-44.6290
G01 X-23.6360 Y-44.4993
G01 X-23.5282 Y-44.3509
G01 X-23.4449 Y-44.1874
G01 X-23.3882 Y-44.0129
G01 X-23.3595 Y-43.8317
G01 X-23.3595 Y-43.6483
G01 X-23.3882 Y-43.4671
G01 X-23.4449 Y-43.2926
G01 X-23.5282 Y-43.1291
G01 X-23.6360 Y-42.9807
G01 X-23.7657 Y-42.8510
G01 X-23.7967 Y-42.8284
G01 X-23.8115 Y-42.8163
G01 X-23.8237 Y-42.8049
G01 X-23.8324 Y-42.7948
G01 X-23.8418 Y-42.7810
G01 X-23.8774 Y-42.7209
G01 X-23.8837 Y-42.7091
G01 X-23.8887 Y-42.6966
G01 X-23.8925 Y-42.6838
G01 X-23.8945 Y-42.6739
G01 X-23.8961 Y-42.6606
G01 X-23.8962 Y-42.6472
G01 X-23.8933 Y-42.5707
G01 X-23.8909 Y-42.5541
G01 X-23.8864 Y-42.5380
G01 X-23.8799 Y-42.5225
G01 X-23.8716 Y-42.5080
G01 X-23.8299 Y-42.4478
G01 X-23.8195 Y-42.4347
G01 X-23.8101 Y-42.4251
G01 X-23.8024 Y-42.4186
G01 X-23.7914 Y-42.4109
G01 X-23.7828 Y-42.4058
G01 X-23.7707 Y-42.4001
G01 X-23.7061 Y-42.3733
G01 X-23.6940 Y-42.3690
G01 X-23.6816 Y-42.3658
G01 X-23.6721 Y-42.3642
G01 X-23.6488 Y-42.3617
G01 X-23.5480 Y-42.3241
G01 X-23.4639 Y-42.2611
G01 X-23.4009 Y-42.1770
G01 X-23.3633 Y-42.0762
G01 X-23.3595 Y-42.0406
G01 X-23.3595 Y-40.3594
G01 X-23.3633 Y-40.3238
G01 X-23.4009 Y-40.2230
G01 X-23.4639 Y-40.1389
G01 X-23.5480 Y-40.0759
G01 X-23.6488 Y-40.0383
G01 X-23.6932 Y-40.0336
G01 X-23.7054 Y-40.0317
G01 X-23.7145 Y-40.0295
G01 X-23.7591 Y-40.0171
G01 X-23.7686 Y-40.0136
G01 X-23.7807 Y-40.0079
G01 X-23.7893 Y-40.0028
G01 X-23.8003 Y-39.9951
G01 X-23.8632 Y-39.9406
G01 X-23.8745 Y-39.9283
G01 X-23.8806 Y-39.9202
G01 X-23.8860 Y-39.9118
G01 X-23.8936 Y-39.8969
G01 X-23.8993 Y-39.8811
G01 X-23.9199 Y-39.8110
G01 X-23.9226 Y-39.7984
G01 X-23.9242 Y-39.7857
G01 X-23.9245 Y-39.7760
G01 X-23.9245 Y-32.9162
G01 X-23.9491 Y-32.7607
G01 X-23.9978 Y-32.6109
G01 X-24.0693 Y-32.4706
G01 X-24.1619 Y-32.3432
G01 X-24.7406 Y-31.7645
G01 X-24.7512 Y-31.7525
G01 X-24.7569 Y-31.7447
G01 X-24.7620 Y-31.7366
G01 X-24.7941 Y-31.6810
G01 X-24.8000 Y-31.6696
G01 X-24.8037 Y-31.6607
G01 X-24.8067 Y-31.6515
G01 X-24.8206 Y-31.5999
G01 X-24.9068 Y-31.4150
G01 X-25.0238 Y-31.2480
G01 X-25.1680 Y-31.1038
G01 X-25.3350 Y-30.9868
G01 X-25.5199 Y-30.9006
G01 X-25.7168 Y-30.8478
G01 X-25.9200 Y-30.8300
G01 X-26.1232 Y-30.8478
G01 X-26.3201 Y-30.9006
G01 X-26.5050 Y-30.9868
G01 X-26.6720 Y-31.1038
G01 X-26.8162 Y-31.2480
G01 X-26.9332 Y-31.4150
