(G-CODE GENERATED BY FLATCAM v8.994 - www.flatcam.org - Version Date: 2020/11/7)

(Name: monitor_solar_v2-B_Mask.gbr_iso_combined_cnc)
(Type: G-code from Geometry)
(Units: MM)

(Created on Wednesday, 02 October 2024 at 01:20)

(This preprocessor is the default preprocessor used by FlatCAM.)
(It is made to work with MACH3 compatible motion controllers.)

(TOOL DIAMETER: 0.1 mm)
(Feedrate_XY: 120.0 mm/min)
(Feedrate_Z: 60.0 mm/min)
(Feedrate rapids 1500.0 mm/min)

(Z_Cut: 0.0 mm)
(Z_Move: 1.4 mm)
(Z Start: None mm)
(Z End: 15.0 mm)
(X,Y End: None mm)
(Steps per circle: 64)
(Preprocessor Geometry: default)

(X range:  -63.7350 ...   -2.2650  mm)
(Y range:  -62.7350 ...  -21.6450  mm)

(Spindle Speed: 0.0 RPM)
G21
G90
G94

G01 F120.00

M5
G00 Z15.0000
G00 X0.0000 Y0.0000
T1
M6    
(MSG, Change to Tool Dia = 0.1000)
M0
G00 Z15.0000

M03
G01 F120.00
G00 X-5.6499 Y-23.9975
G01 F60.00
G01 Z0.0000
G01 F120.00
G01 X-5.6421 Y-24.1617
G01 X-5.6183 Y-24.3219
G01 X-5.5790 Y-24.4790
G01 X-5.5244 Y-24.6314
G01 X-5.4552 Y-24.7778
G01 X-5.3719 Y-24.9167
G01 X-5.2755 Y-25.0467
G01 X-5.1667 Y-25.1667
G01 X-5.0467 Y-25.2755
G01 X-4.9167 Y-25.3719
G01 X-4.7778 Y-25.4552
G01 X-4.6314 Y-25.5244
G01 X-4.4790 Y-25.5790
G01 X-4.3219 Y-25.6183
G01 X-4.1617 Y-25.6421
G01 X-4.0000 Y-25.6500
G01 X-3.8383 Y-25.6421
G01 X-3.6781 Y-25.6183
G01 X-3.5210 Y-25.5790
G01 X-3.3686 Y-25.5244
G01 X-3.2222 Y-25.4552
G01 X-3.0833 Y-25.3719
G01 X-2.9533 Y-25.2755
G01 X-2.8333 Y-25.1667
G01 X-2.7245 Y-25.0467
G01 X-2.6281 Y-24.9167
G01 X-2.5448 Y-24.7778
G01 X-2.4756 Y-24.6314
G01 X-2.4210 Y-24.4790
G01 X-2.3817 Y-24.3219
G01 X-2.3579 Y-24.1617
G01 X-2.3500 Y-24.0000
G01 X-2.3579 Y-23.8383
G01 X-2.3817 Y-23.6781
G01 X-2.4210 Y-23.5210
G01 X-2.4756 Y-23.3686
G01 X-2.5448 Y-23.2222
G01 X-2.6281 Y-23.0833
G01 X-2.7245 Y-22.9533
G01 X-2.8333 Y-22.8333
G01 X-2.9533 Y-22.7245
G01 X-3.0833 Y-22.6281
G01 X-3.2222 Y-22.5448
G01 X-3.3686 Y-22.4756
G01 X-3.5210 Y-22.4210
G01 X-3.6781 Y-22.3817
G01 X-3.8383 Y-22.3579
G01 X-4.0000 Y-22.3500
G01 X-4.1617 Y-22.3579
G01 X-4.3219 Y-22.3817
G01 X-4.4790 Y-22.4210
G01 X-4.6314 Y-22.4756
G01 X-4.7778 Y-22.5448
G01 X-4.9167 Y-22.6281
G01 X-5.0467 Y-22.7245
G01 X-5.1667 Y-22.8333
G01 X-5.2755 Y-22.9533
G01 X-5.3719 Y-23.0833
G01 X-5.4552 Y-23.2222
G01 X-5.5244 Y-23.3686
G01 X-5.5790 Y-23.5210
G01 X-5.6183 Y-23.6781
G01 X-5.6421 Y-23.8383
G01 X-5.6499 Y-23.9975
G00 Z1.4000
G00 X-5.7348 Y-23.9934
G01 F60.00
G01 Z0.0000
G01 F120.00
G01 X-5.7348 Y-24.0066
G01 X-5.7266 Y-24.1701
G01 X-5.7017 Y-24.3385
G01 X-5.6603 Y-24.5036
G01 X-5.6029 Y-24.6640
G01 X-5.5301 Y-24.8179
G01 X-5.4426 Y-24.9639
G01 X-5.3412 Y-25.1007
G01 X-5.2268 Y-25.2268
G01 X-5.1007 Y-25.3412
G01 X-4.9639 Y-25.4426
G01 X-4.8179 Y-25.5301
G01 X-4.6640 Y-25.6029
G01 X-4.5036 Y-25.6603
G01 X-4.3385 Y-25.7017
G01 X-4.1701 Y-25.7266
G01 X-4.0000 Y-25.7350
G01 X-3.8299 Y-25.7266
G01 X-3.6615 Y-25.7017
G01 X-3.4964 Y-25.6603
G01 X-3.3360 Y-25.6029
G01 X-3.1821 Y-25.5301
G01 X-3.0361 Y-25.4426
G01 X-2.8993 Y-25.3412
G01 X-2.7732 Y-25.2268
G01 X-2.6588 Y-25.1007
G01 X-2.5574 Y-24.9639
G01 X-2.4699 Y-24.8179
G01 X-2.3971 Y-24.6640
G01 X-2.3397 Y-24.5036
G01 X-2.2983 Y-24.3385
G01 X-2.2734 Y-24.1701
G01 X-2.2650 Y-24.0000
G01 X-2.2734 Y-23.8299
G01 X-2.2983 Y-23.6615
G01 X-2.3397 Y-23.4964
G01 X-2.3971 Y-23.3360
G01 X-2.4699 Y-23.1821
G01 X-2.5574 Y-23.0361
G01 X-2.6588 Y-22.8993
G01 X-2.7732 Y-22.7732
G01 X-2.8993 Y-22.6588
G01 X-3.0361 Y-22.5574
G01 X-3.1821 Y-22.4699
G01 X-3.3360 Y-22.3971
G01 X-3.4964 Y-22.3397
G01 X-3.6615 Y-22.2983
G01 X-3.8299 Y-22.2734
G01 X-4.0000 Y-22.2650
G01 X-4.1701 Y-22.2734
G01 X-4.3385 Y-22.2983
G01 X-4.5036 Y-22.3397
G01 X-4.6640 Y-22.3971
G01 X-4.8179 Y-22.4699
G01 X-4.9639 Y-22.5574
G01 X-5.1007 Y-22.6588
G01 X-5.2268 Y-22.7732
G01 X-5.3412 Y-22.8993
G01 X-5.4426 Y-23.0361
G01 X-5.5301 Y-23.1821
G01 X-5.6029 Y-23.3360
G01 X-5.6603 Y-23.4964
G01 X-5.7017 Y-23.6615
G01 X-5.7266 Y-23.8299
G01 X-5.7348 Y-23.9934
G00 Z1.4000
G00 X-8.7000 Y-27.8500
G01 F60.00
G01 Z0.0000
G01 F120.00
G01 X-8.6902 Y-27.8490
G01 X-8.6809 Y-27.8462
G01 X-8.6722 Y-27.8416
G01 X-8.6646 Y-27.8354
G01 X-8.6584 Y-27.8278
G01 X-8.6543 Y-27.8203
G01 X-8.6512 Y-27.8110
G01 X-8.6500 Y-27.8012
G01 X-8.6500 Y-26.2000
G01 X-8.6510 Y-26.1902
G01 X-8.6538 Y-26.1809
G01 X-8.6584 Y-26.1722
G01 X-8.6638 Y-26.1655
G01 X-8.6712 Y-26.1591
G01 X-8.6797 Y-26.1543
G01 X-8.6890 Y-26.1512
G01 X-8.6951 Y-26.1502
G01 X-8.7000 Y-26.1500
G01 X-10.3000 Y-26.1500
G01 X-10.3085 Y-26.1507
G01 X-10.3180 Y-26.1534
G01 X-10.3267 Y-26.1578
G01 X-10.3345 Y-26.1638
G01 X-10.3409 Y-26.1712
G01 X-10.3457 Y-26.1797
G01 X-10.3488 Y-26.1890
G01 X-10.3498 Y-26.1951
G01 X-10.3500 Y-26.2000
G01 X-10.3500 Y-27.8000
G01 X-10.3490 Y-27.8098
G01 X-10.3462 Y-27.8191
G01 X-10.3422 Y-27.8267
G01 X-10.3362 Y-27.8345
G01 X-10.3317 Y-27.8387
G01 X-10.3278 Y-27.8416
G01 X-10.3191 Y-27.8462
G01 X-10.3098 Y-27.8490
G01 X-10.3000 Y-27.8500
G01 X-8.7000 Y-27.8500
G00 Z1.4000
G00 X-8.7000 Y-27.9350
G01 F60.00
G01 Z0.0000
G01 F120.00
G01 X-8.6868 Y-27.9343
G01 X-8.6737 Y-27.9324
G01 X-8.6608 Y-27.9292
G01 X-8.6514 Y-27.9260
G01 X-8.6393 Y-27.9206
G01 X-8.6278 Y-27.9141
G01 X-8.6169 Y-27.9064
G01 X-8.6069 Y-27.8978
G01 X-8.6000 Y-27.8907
G01 X-8.5916 Y-27.8804
G01 X-8.5842 Y-27.8694
G01 X-8.5780 Y-27.8577
G01 X-8.5729 Y-27.8455
G01 X-8.5690 Y-27.8328
G01 X-8.5665 Y-27.8198
G01 X-8.5652 Y-27.8066
G01 X-8.5650 Y-26.1967
G01 X-8.5660 Y-26.1835
G01 X-8.5676 Y-26.1737
G01 X-8.5699 Y-26.1640
G01 X-8.5740 Y-26.1514
G01 X-8.5794 Y-26.1393
G01 X-8.5842 Y-26.1306
G01 X-8.5916 Y-26.1196
G01 X-8.6000 Y-26.1093
G01 X-8.6093 Y-26.1000
G01 X-8.6196 Y-26.0916
G01 X-8.6335 Y-26.0825
G01 X-8.6453 Y-26.0766
G01 X-8.6577 Y-26.0718
G01 X-8.6704 Y-26.0683
G01 X-8.6835 Y-26.0660
G01 X-8.7000 Y-26.0650
G01 X-10.3033 Y-26.0650
G01 X-10.3165 Y-26.0660
G01 X-10.3263 Y-26.0676
G01 X-10.3392 Y-26.0708
G01 X-10.3517 Y-26.0753
G01 X-10.3636 Y-26.0809
G01 X-10.3722 Y-26.0859
G01 X-10.3831 Y-26.0936
G01 X-10.3907 Y-26.1000
G01 X-10.4000 Y-26.1093
G01 X-10.4084 Y-26.1196
G01 X-10.4175 Y-26.1335
G01 X-10.4234 Y-26.1453
G01 X-10.4282 Y-26.1577
G01 X-10.4317 Y-26.1704
G01 X-10.4340 Y-26.1835
G01 X-10.4350 Y-26.2000
G01 X-10.4350 Y-27.8033
G01 X-10.4343 Y-27.8132
G01 X-10.4324 Y-27.8263
G01 X-10.4301 Y-27.8360
G01 X-10.4260 Y-27.8486
G01 X-10.4206 Y-27.8607
G01 X-10.4141 Y-27.8722
G01 X-10.4084 Y-27.8804
G01 X-10.4000 Y-27.8907
G01 X-10.3907 Y-27.9000
G01 X-10.3777 Y-27.9104
G01 X-10.3665 Y-27.9175
G01 X-10.3547 Y-27.9234
G01 X-10.3423 Y-27.9282
G01 X-10.3296 Y-27.9317
G01 X-10.3165 Y-27.9340
G01 X-10.3033 Y-27.9350
G01 X-8.7000 Y-27.9350
G00 Z1.4000
G00 X-12.8499 Y-26.9975
G01 F60.00
G01 Z0.0000
G01 F120.00
G01 X-12.8459 Y-27.0833
G01 X-12.8337 Y-27.1658
G01 X-12.8134 Y-27.2467
G01 X-12.7853 Y-27.3253
G01 X-12.7496 Y-27.4007
G01 X-12.7067 Y-27.4722
G01 X-12.6571 Y-27.5392
G01 X-12.6010 Y-27.6010
G01 X-12.5392 Y-27.6571
G01 X-12.4722 Y-27.7067
G01 X-12.4007 Y-27.7496
G01 X-12.3253 Y-27.7853
G01 X-12.2467 Y-27.8134
G01 X-12.1658 Y-27.8337
G01 X-12.0833 Y-27.8459
G01 X-12.0000 Y-27.8500
G01 X-11.9167 Y-27.8459
G01 X-11.8342 Y-27.8337
G01 X-11.7533 Y-27.8134
G01 X-11.6747 Y-27.7853
G01 X-11.5993 Y-27.7496
G01 X-11.5278 Y-27.7067
G01 X-11.4608 Y-27.6571
G01 X-11.3990 Y-27.6010
G01 X-11.3429 Y-27.5392
G01 X-11.2933 Y-27.4722
G01 X-11.2504 Y-27.4007
G01 X-11.2147 Y-27.3253
G01 X-11.1866 Y-27.2467
G01 X-11.1663 Y-27.1658
G01 X-11.1541 Y-27.0833
G01 X-11.1500 Y-27.0000
G01 X-11.1541 Y-26.9167
G01 X-11.1663 Y-26.8342
G01 X-11.1866 Y-26.7533
G01 X-11.2147 Y-26.6747
G01 X-11.2504 Y-26.5993
G01 X-11.2933 Y-26.5278
G01 X-11.3429 Y-26.4608
G01 X-11.3990 Y-26.3990
G01 X-11.4608 Y-26.3429
G01 X-11.5278 Y-26.2933
G01 X-11.5993 Y-26.2504
G01 X-11.6747 Y-26.2147
G01 X-11.7533 Y-26.1866
G01 X-11.8342 Y-26.1663
G01 X-11.9167 Y-26.1541
G01 X-12.0000 Y-26.1500
G01 X-12.0833 Y-26.1541
G01 X-12.1658 Y-26.1663
G01 X-12.2467 Y-26.1866
G01 X-12.3253 Y-26.2147
G01 X-12.4007 Y-26.2504
G01 X-12.4722 Y-26.2933
G01 X-12.5392 Y-26.3429
G01 X-12.6010 Y-26.3990
G01 X-12.6571 Y-26.4608
G01 X-12.7067 Y-26.5278
G01 X-12.7496 Y-26.5993
G01 X-12.7853 Y-26.6747
G01 X-12.8134 Y-26.7533
G01 X-12.8337 Y-26.8342
G01 X-12.8459 Y-26.9167
G01 X-12.8499 Y-26.9975
G00 Z1.4000
G00 X-12.9348 Y-26.9934
G01 F60.00
G01 Z0.0000
G01 F120.00
G01 X-12.9348 Y-27.0066
G01 X-12.9305 Y-27.0916
G01 X-12.9170 Y-27.1824
G01 X-12.8947 Y-27.2714
G01 X-12.8638 Y-27.3578
G01 X-12.8246 Y-27.4408
G01 X-12.7774 Y-27.5195
G01 X-12.7228 Y-27.5932
G01 X-12.6611 Y-27.6611
G01 X-12.5932 Y-27.7228
G01 X-12.5195 Y-27.7774
G01 X-12.4408 Y-27.8246
G01 X-12.3578 Y-27.8638
G01 X-12.2714 Y-27.8947
G01 X-12.1824 Y-27.9170
G01 X-12.0916 Y-27.9305
G01 X-12.0000 Y-27.9350
G01 X-11.9084 Y-27.9305
G01 X-11.8176 Y-27.9170
G01 X-11.7286 Y-27.8947
G01 X-11.6422 Y-27.8638
G01 X-11.5592 Y-27.8246
G01 X-11.4805 Y-27.7774
G01 X-11.4068 Y-27.7228
G01 X-11.3389 Y-27.6611
G01 X-11.2772 Y-27.5932
G01 X-11.2226 Y-27.5195
G01 X-11.1754 Y-27.4408
G01 X-11.1362 Y-27.3578
G01 X-11.1053 Y-27.2714
G01 X-11.0830 Y-27.1824
G01 X-11.0695 Y-27.0916
G01 X-11.0650 Y-27.0000
G01 X-11.0695 Y-26.9084
G01 X-11.0830 Y-26.8176
G01 X-11.1053 Y-26.7286
G01 X-11.1362 Y-26.6422
G01 X-11.1754 Y-26.5592
G01 X-11.2226 Y-26.4805
G01 X-11.2772 Y-26.4068
G01 X-11.3389 Y-26.3389
G01 X-11.4068 Y-26.2772
G01 X-11.4805 Y-26.2226
G01 X-11.5592 Y-26.1754
G01 X-11.6422 Y-26.1362
G01 X-11.7286 Y-26.1053
G01 X-11.8176 Y-26.0830
G01 X-11.9084 Y-26.0695
G01 X-12.0000 Y-26.0650
G01 X-12.0916 Y-26.0695
G01 X-12.1824 Y-26.0830
G01 X-12.2714 Y-26.1053
G01 X-12.3578 Y-26.1362
G01 X-12.4408 Y-26.1754
G01 X-12.5195 Y-26.2226
G01 X-12.5932 Y-26.2772
G01 X-12.6611 Y-26.3389
G01 X-12.7228 Y-26.4068
G01 X-12.7774 Y-26.4805
G01 X-12.8246 Y-26.5592
G01 X-12.8638 Y-26.6422
G01 X-12.8947 Y-26.7286
G01 X-12.9170 Y-26.8176
G01 X-12.9305 Y-26.9084
G01 X-12.9348 Y-26.9934
G00 Z1.4000
G00 X-17.4000 Y-25.1150
G01 F60.00
G01 Z0.0000
G01 F120.00
G01 X-17.3868 Y-25.1143
G01 X-17.3737 Y-25.1124
G01 X-17.3608 Y-25.1092
G01 X-17.3483 Y-25.1047
G01 X-17.3364 Y-25.0991
G01 X-17.3250 Y-25.0922
G01 X-17.3144 Y-25.0844
G01 X-17.3045 Y-25.0755
G01 X-17.2978 Y-25.0682
G01 X-17.2896 Y-25.0577
G01 X-17.2825 Y-25.0465
G01 X-17.2766 Y-25.0347
G01 X-17.2718 Y-25.0223
G01 X-17.2683 Y-25.0096
G01 X-17.2660 Y-24.9965
G01 X-17.2650 Y-24.9833
G01 X-17.2650 Y-21.7800
G01 X-17.2657 Y-21.7668
G01 X-17.2676 Y-21.7537
G01 X-17.2708 Y-21.7408
G01 X-17.2740 Y-21.7314
G01 X-17.2794 Y-21.7193
G01 X-17.2859 Y-21.7078
G01 X-17.2936 Y-21.6969
G01 X-17.3022 Y-21.6869
G01 X-17.3144 Y-21.6756
G01 X-17.3250 Y-21.6678
G01 X-17.3364 Y-21.6609
G01 X-17.3483 Y-21.6553
G01 X-17.3608 Y-21.6508
G01 X-17.3737 Y-21.6476
G01 X-17.3868 Y-21.6457
G01 X-17.4000 Y-21.6450
G01 X-20.6000 Y-21.6450
G01 X-20.6132 Y-21.6457
G01 X-20.6263 Y-21.6476
G01 X-20.6392 Y-21.6508
G01 X-20.6517 Y-21.6553
G01 X-20.6607 Y-21.6594
G01 X-20.6722 Y-21.6659
G01 X-20.6831 Y-21.6736
G01 X-20.6931 Y-21.6822
G01 X-20.7044 Y-21.6944
G01 X-20.7122 Y-21.7050
G01 X-20.7191 Y-21.7164
G01 X-20.7247 Y-21.7283
G01 X-20.7292 Y-21.7408
G01 X-20.7324 Y-21.7537
G01 X-20.7343 Y-21.7668
G01 X-20.7350 Y-21.7800
G01 X-20.7350 Y-24.9800
G01 X-20.7343 Y-24.9932
G01 X-20.7330 Y-25.0031
G01 X-20.7301 Y-25.0160
G01 X-20.7260 Y-25.0286
G01 X-20.7206 Y-25.0407
G01 X-20.7141 Y-25.0522
G01 X-20.7064 Y-25.0631
G01 X-20.6978 Y-25.0731
G01 X-20.6882 Y-25.0822
G01 X-20.6777 Y-25.0904
G01 X-20.6665 Y-25.0975
G01 X-20.6547 Y-25.1034
G01 X-20.6423 Y-25.1082
G01 X-20.6296 Y-25.1117
G01 X-20.6165 Y-25.1140
G01 X-20.6033 Y-25.1150
G01 X-17.4000 Y-25.1150
G00 Z1.4000
G00 X-17.4000 Y-25.0300
G01 F60.00
G01 Z0.0000
G01 F120.00
G01 X-17.3902 Y-25.0290
G01 X-17.3809 Y-25.0262
G01 X-17.3722 Y-25.0216
G01 X-17.3646 Y-25.0154
G01 X-17.3584 Y-25.0078
G01 X-17.3538 Y-24.9991
G01 X-17.3510 Y-24.9898
G01 X-17.3500 Y-24.9800
G01 X-17.3500 Y-21.7800
G01 X-17.3510 Y-21.7702
G01 X-17.3538 Y-21.7609
G01 X-17.3584 Y-21.7522
G01 X-17.3646 Y-21.7446
G01 X-17.3722 Y-21.7384
G01 X-17.3809 Y-21.7338
G01 X-17.3902 Y-21.7310
G01 X-17.4000 Y-21.7300
G01 X-20.6000 Y-21.7300
G01 X-20.6098 Y-21.7310
G01 X-20.6191 Y-21.7338
G01 X-20.6278 Y-21.7384
G01 X-20.6354 Y-21.7446
G01 X-20.6416 Y-21.7522
G01 X-20.6462 Y-21.7609
G01 X-20.6490 Y-21.7702
G01 X-20.6500 Y-21.7800
G01 X-20.6500 Y-24.9800
G01 X-20.6490 Y-24.9898
G01 X-20.6462 Y-24.9991
G01 X-20.6416 Y-25.0078
G01 X-20.6354 Y-25.0154
G01 X-20.6278 Y-25.0216
G01 X-20.6191 Y-25.0262
G01 X-20.6098 Y-25.0290
G01 X-20.6000 Y-25.0300
G01 X-17.4000 Y-25.0300
G00 Z1.4000
G00 X-26.2000 Y-26.8500
G01 F60.00
G01 Z0.0000
G01 F120.00
G01 X-26.1902 Y-26.8490
G01 X-26.1809 Y-26.8462
G01 X-26.1722 Y-26.8416
G01 X-26.1646 Y-26.8354
G01 X-26.1584 Y-26.8278
G01 X-26.1543 Y-26.8203
G01 X-26.1512 Y-26.8110
G01 X-26.1500 Y-26.8012
G01 X-26.1500 Y-25.2000
G01 X-26.1510 Y-25.1902
G01 X-26.1538 Y-25.1809
G01 X-26.1584 Y-25.1722
G01 X-26.1638 Y-25.1655
G01 X-26.1712 Y-25.1591
G01 X-26.1797 Y-25.1543
G01 X-26.1890 Y-25.1512
G01 X-26.1939 Y-25.1504
G01 X-26.2000 Y-25.1500
G01 X-27.8000 Y-25.1500
G01 X-27.8085 Y-25.1507
G01 X-27.8180 Y-25.1534
G01 X-27.8267 Y-25.1578
G01 X-27.8345 Y-25.1638
G01 X-27.8409 Y-25.1712
G01 X-27.8441 Y-25.1764
G01 X-27.8462 Y-25.1809
G01 X-27.8490 Y-25.1902
G01 X-27.8500 Y-25.2000
G01 X-27.8500 Y-26.8000
G01 X-27.8493 Y-26.8085
G01 X-27.8466 Y-26.8180
G01 X-27.8422 Y-26.8267
G01 X-27.8362 Y-26.8345
G01 X-27.8288 Y-26.8409
G01 X-27.8203 Y-26.8457
G01 X-27.8145 Y-26.8478
G01 X-27.8098 Y-26.8490
G01 X-27.8000 Y-26.8500
G01 X-26.2000 Y-26.8500
G00 Z1.4000
G00 X-26.2000 Y-26.9350
G01 F60.00
G01 Z0.0000
G01 F120.00
G01 X-26.1868 Y-26.9343
G01 X-26.1737 Y-26.9324
G01 X-26.1608 Y-26.9292
G01 X-26.1483 Y-26.9247
G01 X-26.1364 Y-26.9191
G01 X-26.1278 Y-26.9141
G01 X-26.1169 Y-26.9064
G01 X-26.1069 Y-26.8978
G01 X-26.0978 Y-26.8882
G01 X-26.0896 Y-26.8777
G01 X-26.0842 Y-26.8694
G01 X-26.0780 Y-26.8577
G01 X-26.0729 Y-26.8455
G01 X-26.0690 Y-26.8328
G01 X-26.0665 Y-26.8198
G01 X-26.0652 Y-26.8066
G01 X-26.0650 Y-25.1967
G01 X-26.0660 Y-25.1835
G01 X-26.0683 Y-25.1704
G01 X-26.0708 Y-25.1608
G01 X-26.0753 Y-25.1483
G01 X-26.0809 Y-25.1364
G01 X-26.0859 Y-25.1278
G01 X-26.0916 Y-25.1196
G01 X-26.1000 Y-25.1093
G01 X-26.1118 Y-25.0978
G01 X-26.1223 Y-25.0896
G01 X-26.1335 Y-25.0825
G01 X-26.1453 Y-25.0766
G01 X-26.1577 Y-25.0718
G01 X-26.1704 Y-25.0683
G01 X-26.1835 Y-25.0660
G01 X-26.2000 Y-25.0650
G01 X-27.8033 Y-25.0650
G01 X-27.8165 Y-25.0660
G01 X-27.8263 Y-25.0676
G01 X-27.8360 Y-25.0699
G01 X-27.8486 Y-25.0740
G01 X-27.8607 Y-25.0794
G01 X-27.8722 Y-25.0859
G01 X-27.8804 Y-25.0916
G01 X-27.8907 Y-25.1000
G01 X-27.9000 Y-25.1093
G01 X-27.9084 Y-25.1196
G01 X-27.9158 Y-25.1306
G01 X-27.9234 Y-25.1453
G01 X-27.9282 Y-25.1577
G01 X-27.9317 Y-25.1704
G01 X-27.9340 Y-25.1835
G01 X-27.9350 Y-25.2000
G01 X-27.9350 Y-26.8033
G01 X-27.9340 Y-26.8165
G01 X-27.9324 Y-26.8263
G01 X-27.9292 Y-26.8392
G01 X-27.9247 Y-26.8517
G01 X-27.9206 Y-26.8607
G01 X-27.9141 Y-26.8722
G01 X-27.9084 Y-26.8804
G01 X-27.9000 Y-26.8907
G01 X-27.8907 Y-26.9000
G01 X-27.8804 Y-26.9084
G01 X-27.8694 Y-26.9158
G01 X-27.8547 Y-26.9234
G01 X-27.8423 Y-26.9282
G01 X-27.8296 Y-26.9317
G01 X-27.8165 Y-26.9340
G01 X-27.8033 Y-26.9350
G01 X-26.2000 Y-26.9350
G00 Z1.4000
G00 X-27.8499 Y-23.4975
G01 F60.00
G01 Z0.0000
G01 F120.00
G01 X-27.8459 Y-23.5833
G01 X-27.8337 Y-23.6658
G01 X-27.8134 Y-23.7467
G01 X-27.7853 Y-23.8253
G01 X-27.7496 Y-23.9007
G01 X-27.7067 Y-23.9722
G01 X-27.6571 Y-24.0392
G01 X-27.6010 Y-24.1010
G01 X-27.5392 Y-24.1571
G01 X-27.4722 Y-24.2067
G01 X-27.4007 Y-24.2496
G01 X-27.3253 Y-24.2853
G01 X-27.2467 Y-24.3134
G01 X-27.1658 Y-24.3337
G01 X-27.0833 Y-24.3459
G01 X-27.0000 Y-24.3500
G01 X-26.9167 Y-24.3459
G01 X-26.8342 Y-24.3337
G01 X-26.7533 Y-24.3134
G01 X-26.6747 Y-24.2853
G01 X-26.5993 Y-24.2496
G01 X-26.5278 Y-24.2067
G01 X-26.4608 Y-24.1571
G01 X-26.3990 Y-24.1010
G01 X-26.3429 Y-24.0392
G01 X-26.2933 Y-23.9722
G01 X-26.2504 Y-23.9007
G01 X-26.2147 Y-23.8253
G01 X-26.1866 Y-23.7467
G01 X-26.1663 Y-23.6658
G01 X-26.1541 Y-23.5833
G01 X-26.1500 Y-23.5000
G01 X-26.1541 Y-23.4167
G01 X-26.1663 Y-23.3342
G01 X-26.1866 Y-23.2533
G01 X-26.2147 Y-23.1747
G01 X-26.2504 Y-23.0993
G01 X-26.2933 Y-23.0278
G01 X-26.3429 Y-22.9608
G01 X-26.3990 Y-22.8990
G01 X-26.4608 Y-22.8429
G01 X-26.5278 Y-22.7933
G01 X-26.5993 Y-22.7504
G01 X-26.6747 Y-22.7147
G01 X-26.7533 Y-22.6866
G01 X-26.8342 Y-22.6663
G01 X-26.9167 Y-22.6541
G01 X-27.0000 Y-22.6500
G01 X-27.0833 Y-22.6541
G01 X-27.1658 Y-22.6663
G01 X-27.2467 Y-22.6866
G01 X-27.3253 Y-22.7147
G01 X-27.4007 Y-22.7504
G01 X-27.4722 Y-22.7933
G01 X-27.5392 Y-22.8429
G01 X-27.6010 Y-22.8990
G01 X-27.6571 Y-22.9608
G01 X-27.7067 Y-23.0278
G01 X-27.7496 Y-23.0993
G01 X-27.7853 Y-23.1747
G01 X-27.8134 Y-23.2533
G01 X-27.8337 Y-23.3342
G01 X-27.8459 Y-23.4167
G01 X-27.8499 Y-23.4975
G00 Z1.4000
G00 X-27.9348 Y-23.4934
G01 F60.00
G01 Z0.0000
G01 F120.00
G01 X-27.9348 Y-23.5066
G01 X-27.9305 Y-23.5916
G01 X-27.9170 Y-23.6824
G01 X-27.8947 Y-23.7714
G01 X-27.8638 Y-23.8578
G01 X-27.8246 Y-23.9408
G01 X-27.7774 Y-24.0195
G01 X-27.7228 Y-24.0932
G01 X-27.6611 Y-24.1611
G01 X-27.5932 Y-24.2228
G01 X-27.5195 Y-24.2774
G01 X-27.4408 Y-24.3246
G01 X-27.3578 Y-24.3638
G01 X-27.2714 Y-24.3947
G01 X-27.1824 Y-24.4170
G01 X-27.0916 Y-24.4305
G01 X-27.0000 Y-24.4350
G01 X-26.9084 Y-24.4305
G01 X-26.8176 Y-24.4170
G01 X-26.7286 Y-24.3947
G01 X-26.6422 Y-24.3638
G01 X-26.5592 Y-24.3246
G01 X-26.4805 Y-24.2774
G01 X-26.4068 Y-24.2228
G01 X-26.3389 Y-24.1611
G01 X-26.2772 Y-24.0932
G01 X-26.2226 Y-24.0195
G01 X-26.1754 Y-23.9408
G01 X-26.1362 Y-23.8578
G01 X-26.1053 Y-23.7714
G01 X-26.0830 Y-23.6824
G01 X-26.0695 Y-23.5916
G01 X-26.0650 Y-23.5000
G01 X-26.0695 Y-23.4084
G01 X-26.0830 Y-23.3176
G01 X-26.1053 Y-23.2286
G01 X-26.1362 Y-23.1422
G01 X-26.1754 Y-23.0592
G01 X-26.2226 Y-22.9805
G01 X-26.2772 Y-22.9068
G01 X-26.3389 Y-22.8389
G01 X-26.4068 Y-22.7772
G01 X-26.4805 Y-22.7226
G01 X-26.5592 Y-22.6754
G01 X-26.6422 Y-22.6362
G01 X-26.7286 Y-22.6053
G01 X-26.8176 Y-22.5830
G01 X-26.9084 Y-22.5695
G01 X-27.0000 Y-22.5650
G01 X-27.0916 Y-22.5695
G01 X-27.1824 Y-22.5830
G01 X-27.2714 Y-22.6053
G01 X-27.3578 Y-22.6362
G01 X-27.4408 Y-22.6754
G01 X-27.5195 Y-22.7226
G01 X-27.5932 Y-22.7772
G01 X-27.6611 Y-22.8389
G01 X-27.7228 Y-22.9068
G01 X-27.7774 Y-22.9805
G01 X-27.8246 Y-23.0592
G01 X-27.8638 Y-23.1422
G01 X-27.8947 Y-23.2286
G01 X-27.9170 Y-23.3176
G01 X-27.9305 Y-23.4084
G01 X-27.9348 Y-23.4934
G00 Z1.4000
G00 X-32.4625 Y-24.8999
G01 F60.00
G01 Z0.0000
G01 F120.00
G01 X-32.3718 Y-24.8957
G01 X-32.2844 Y-24.8827
G01 X-32.1987 Y-24.8612
G01 X-32.1156 Y-24.8315
G01 X-32.0357 Y-24.7937
G01 X-31.9600 Y-24.7483
G01 X-31.8890 Y-24.6957
G01 X-31.8236 Y-24.6364
G01 X-31.7643 Y-24.5710
G01 X-31.7117 Y-24.5000
G01 X-31.6663 Y-24.4243
G01 X-31.6285 Y-24.3444
G01 X-31.5988 Y-24.2613
G01 X-31.5773 Y-24.1756
G01 X-31.5643 Y-24.0882
G01 X-31.5600 Y-24.0000
G01 X-31.5643 Y-23.9118
G01 X-31.5773 Y-23.8244
G01 X-31.5988 Y-23.7387
G01 X-31.6285 Y-23.6556
G01 X-31.6663 Y-23.5757
G01 X-31.7117 Y-23.5000
G01 X-31.7643 Y-23.4290
G01 X-31.8236 Y-23.3636
G01 X-31.8890 Y-23.3043
G01 X-31.9600 Y-23.2517
G01 X-32.0357 Y-23.2063
G01 X-32.1156 Y-23.1685
G01 X-32.1987 Y-23.1388
G01 X-32.2844 Y-23.1173
G01 X-32.3718 Y-23.1043
G01 X-32.4600 Y-23.1000
G01 X-32.5482 Y-23.1043
G01 X-32.6356 Y-23.1173
G01 X-32.7213 Y-23.1388
G01 X-32.8044 Y-23.1685
G01 X-32.8843 Y-23.2063
G01 X-32.9600 Y-23.2517
G01 X-33.0310 Y-23.3043
G01 X-33.0964 Y-23.3636
G01 X-33.1557 Y-23.4290
G01 X-33.2083 Y-23.5000
G01 X-33.2537 Y-23.5757
G01 X-33.2915 Y-23.6556
G01 X-33.3212 Y-23.7387
G01 X-33.3427 Y-23.8244
G01 X-33.3557 Y-23.9118
G01 X-33.3600 Y-24.0000
G01 X-33.3557 Y-24.0882
G01 X-33.3427 Y-24.1756
G01 X-33.3212 Y-24.2613
G01 X-33.2915 Y-24.3444
G01 X-33.2537 Y-24.4243
G01 X-33.2083 Y-24.5000
G01 X-33.1557 Y-24.5710
G01 X-33.0964 Y-24.6364
G01 X-33.0310 Y-24.6957
G01 X-32.9600 Y-24.7483
G01 X-32.8843 Y-24.7937
G01 X-32.8044 Y-24.8315
G01 X-32.7213 Y-24.8612
G01 X-32.6356 Y-24.8827
G01 X-32.5482 Y-24.8957
G01 X-32.4625 Y-24.8999
G00 Z1.4000
G00 X-32.4666 Y-24.9848
G01 F60.00
G01 Z0.0000
G01 F120.00
G01 X-32.4534 Y-24.9848
G01 X-32.3635 Y-24.9803
G01 X-32.2678 Y-24.9661
G01 X-32.1741 Y-24.9426
G01 X-32.0831 Y-24.9100
G01 X-31.9957 Y-24.8687
G01 X-31.9128 Y-24.8190
G01 X-31.8351 Y-24.7614
G01 X-31.7635 Y-24.6965
G01 X-31.6986 Y-24.6249
G01 X-31.6410 Y-24.5472
G01 X-31.5913 Y-24.4643
G01 X-31.5500 Y-24.3769
G01 X-31.5174 Y-24.2859
G01 X-31.4939 Y-24.1922
G01 X-31.4797 Y-24.0965
G01 X-31.4750 Y-24.0000
G01 X-31.4797 Y-23.9035
G01 X-31.4939 Y-23.8078
G01 X-31.5174 Y-23.7141
G01 X-31.5500 Y-23.6231
G01 X-31.5913 Y-23.5357
G01 X-31.6410 Y-23.4528
G01 X-31.6986 Y-23.3751
G01 X-31.7635 Y-23.3035
G01 X-31.8351 Y-23.2386
G01 X-31.9128 Y-23.1810
G01 X-31.9957 Y-23.1313
G01 X-32.0831 Y-23.0900
G01 X-32.1741 Y-23.0574
G01 X-32.2678 Y-23.0339
G01 X-32.3635 Y-23.0197
G01 X-32.4600 Y-23.0150
G01 X-32.5565 Y-23.0197
G01 X-32.6522 Y-23.0339
G01 X-32.7459 Y-23.0574
G01 X-32.8369 Y-23.0900
G01 X-32.9243 Y-23.1313
G01 X-33.0072 Y-23.1810
G01 X-33.0849 Y-23.2386
G01 X-33.1565 Y-23.3035
G01 X-33.2214 Y-23.3751
G01 X-33.2790 Y-23.4528
G01 X-33.3287 Y-23.5357
G01 X-33.3700 Y-23.6231
G01 X-33.4026 Y-23.7141
G01 X-33.4261 Y-23.8078
G01 X-33.4403 Y-23.9035
G01 X-33.4450 Y-24.0000
G01 X-33.4403 Y-24.0965
G01 X-33.4261 Y-24.1922
G01 X-33.4026 Y-24.2859
G01 X-33.3700 Y-24.3769
G01 X-33.3287 Y-24.4643
G01 X-33.2790 Y-24.5472
G01 X-33.2214 Y-24.6249
G01 X-33.1565 Y-24.6965
G01 X-33.0849 Y-24.7614
G01 X-33.0072 Y-24.8190
G01 X-32.9243 Y-24.8687
G01 X-32.8369 Y-24.9100
G01 X-32.7459 Y-24.9426
G01 X-32.6522 Y-24.9661
G01 X-32.5565 Y-24.9803
G01 X-32.4666 Y-24.9848
G00 Z1.4000
G00 X-35.0025 Y-24.8999
G01 F60.00
G01 Z0.0000
G01 F120.00
G01 X-34.9118 Y-24.8957
G01 X-34.8244 Y-24.8827
G01 X-34.7387 Y-24.8612
G01 X-34.6556 Y-24.8315
G01 X-34.5757 Y-24.7937
G01 X-34.5000 Y-24.7483
G01 X-34.4290 Y-24.6957
G01 X-34.3636 Y-24.6364
G01 X-34.3043 Y-24.5710
G01 X-34.2517 Y-24.5000
G01 X-34.2063 Y-24.4243
G01 X-34.1685 Y-24.3444
G01 X-34.1388 Y-24.2613
G01 X-34.1173 Y-24.1756
G01 X-34.1043 Y-24.0882
G01 X-34.1000 Y-24.0000
G01 X-34.1043 Y-23.9118
G01 X-34.1173 Y-23.8244
G01 X-34.1388 Y-23.7387
G01 X-34.1685 Y-23.6556
G01 X-34.2063 Y-23.5757
G01 X-34.2517 Y-23.5000
G01 X-34.3043 Y-23.4290
G01 X-34.3636 Y-23.3636
G01 X-34.4290 Y-23.3043
G01 X-34.5000 Y-23.2517
G01 X-34.5757 Y-23.2063
G01 X-34.6556 Y-23.1685
G01 X-34.7387 Y-23.1388
G01 X-34.8244 Y-23.1173
G01 X-34.9118 Y-23.1043
G01 X-35.0000 Y-23.1000
G01 X-35.0882 Y-23.1043
G01 X-35.1756 Y-23.1173
G01 X-35.2613 Y-23.1388
G01 X-35.3444 Y-23.1685
G01 X-35.4243 Y-23.2063
G01 X-35.5000 Y-23.2517
G01 X-35.5710 Y-23.3043
G01 X-35.6364 Y-23.3636
G01 X-35.6957 Y-23.4290
G01 X-35.7483 Y-23.5000
G01 X-35.7937 Y-23.5757
G01 X-35.8315 Y-23.6556
G01 X-35.8612 Y-23.7387
G01 X-35.8827 Y-23.8244
G01 X-35.8957 Y-23.9118
G01 X-35.9000 Y-24.0000
G01 X-35.8957 Y-24.0882
G01 X-35.8827 Y-24.1756
G01 X-35.8612 Y-24.2613
G01 X-35.8315 Y-24.3444
G01 X-35.7937 Y-24.4243
G01 X-35.7483 Y-24.5000
G01 X-35.6957 Y-24.5710
G01 X-35.6364 Y-24.6364
G01 X-35.5710 Y-24.6957
G01 X-35.5000 Y-24.7483
G01 X-35.4243 Y-24.7937
G01 X-35.3444 Y-24.8315
G01 X-35.2613 Y-24.8612
G01 X-35.1756 Y-24.8827
G01 X-35.0882 Y-24.8957
G01 X-35.0025 Y-24.8999
G00 Z1.4000
G00 X-35.0066 Y-24.9848
G01 F60.00
G01 Z0.0000
G01 F120.00
G01 X-34.9934 Y-24.9848
G01 X-34.9035 Y-24.9803
G01 X-34.8078 Y-24.9661
G01 X-34.7141 Y-24.9426
G01 X-34.6231 Y-24.9100
G01 X-34.5357 Y-24.8687
G01 X-34.4528 Y-24.8190
G01 X-34.3751 Y-24.7614
G01 X-34.3035 Y-24.6965
G01 X-34.2386 Y-24.6249
G01 X-34.1810 Y-24.5472
G01 X-34.1313 Y-24.4643
G01 X-34.0900 Y-24.3769
G01 X-34.0574 Y-24.2859
G01 X-34.0339 Y-24.1922
G01 X-34.0197 Y-24.0965
G01 X-34.0150 Y-24.0000
G01 X-34.0197 Y-23.9035
G01 X-34.0339 Y-23.8078
G01 X-34.0574 Y-23.7141
G01 X-34.0900 Y-23.6231
G01 X-34.1313 Y-23.5357
G01 X-34.1810 Y-23.4528
G01 X-34.2386 Y-23.3751
G01 X-34.3035 Y-23.3035
G01 X-34.3751 Y-23.2386
G01 X-34.4528 Y-23.1810
G01 X-34.5357 Y-23.1313
G01 X-34.6231 Y-23.0900
G01 X-34.7141 Y-23.0574
G01 X-34.8078 Y-23.0339
G01 X-34.9035 Y-23.0197
G01 X-35.0000 Y-23.0150
G01 X-35.0965 Y-23.0197
G01 X-35.1922 Y-23.0339
G01 X-35.2859 Y-23.0574
G01 X-35.3769 Y-23.0900
G01 X-35.4643 Y-23.1313
G01 X-35.5472 Y-23.1810
G01 X-35.6249 Y-23.2386
G01 X-35.6965 Y-23.3035
G01 X-35.7614 Y-23.3751
G01 X-35.8190 Y-23.4528
G01 X-35.8687 Y-23.5357
G01 X-35.9100 Y-23.6231
G01 X-35.9426 Y-23.7141
G01 X-35.9661 Y-23.8078
G01 X-35.9803 Y-23.9035
G01 X-35.9850 Y-24.0000
G01 X-35.9803 Y-24.0965
G01 X-35.9661 Y-24.1922
G01 X-35.9426 Y-24.2859
G01 X-35.9100 Y-24.3769
G01 X-35.8687 Y-24.4643
G01 X-35.8190 Y-24.5472
G01 X-35.7614 Y-24.6249
G01 X-35.6965 Y-24.6965
G01 X-35.6249 Y-24.7614
G01 X-35.5472 Y-24.8190
G01 X-35.4643 Y-24.8687
G01 X-35.3769 Y-24.9100
G01 X-35.2859 Y-24.9426
G01 X-35.1922 Y-24.9661
G01 X-35.0965 Y-24.9803
G01 X-35.0066 Y-24.9848
G00 Z1.4000
G00 X-37.5425 Y-24.8999
G01 F60.00
G01 Z0.0000
G01 F120.00
G01 X-37.4518 Y-24.8957
G01 X-37.3644 Y-24.8827
G01 X-37.2787 Y-24.8612
G01 X-37.1956 Y-24.8315
G01 X-37.1157 Y-24.7937
G01 X-37.0400 Y-24.7483
G01 X-36.9690 Y-24.6957
G01 X-36.9036 Y-24.6364
G01 X-36.8443 Y-24.5710
G01 X-36.7917 Y-24.5000
G01 X-36.7463 Y-24.4243
G01 X-36.7085 Y-24.3444
G01 X-36.6788 Y-24.2613
G01 X-36.6573 Y-24.1756
G01 X-36.6443 Y-24.0882
G01 X-36.6400 Y-24.0000
G01 X-36.6443 Y-23.9118
G01 X-36.6573 Y-23.8244
G01 X-36.6788 Y-23.7387
G01 X-36.7085 Y-23.6556
G01 X-36.7463 Y-23.5757
G01 X-36.7917 Y-23.5000
G01 X-36.8443 Y-23.4290
G01 X-36.9036 Y-23.3636
G01 X-36.9690 Y-23.3043
G01 X-37.0400 Y-23.2517
G01 X-37.1157 Y-23.2063
G01 X-37.1956 Y-23.1685
G01 X-37.2787 Y-23.1388
G01 X-37.3644 Y-23.1173
G01 X-37.4518 Y-23.1043
G01 X-37.5400 Y-23.1000
G01 X-37.6282 Y-23.1043
G01 X-37.7156 Y-23.1173
G01 X-37.8013 Y-23.1388
G01 X-37.8844 Y-23.1685
G01 X-37.9643 Y-23.2063
G01 X-38.0400 Y-23.2517
G01 X-38.1110 Y-23.3043
G01 X-38.1764 Y-23.3636
G01 X-38.2357 Y-23.4290
G01 X-38.2883 Y-23.5000
G01 X-38.3337 Y-23.5757
G01 X-38.3715 Y-23.6556
G01 X-38.4012 Y-23.7387
G01 X-38.4227 Y-23.8244
G01 X-38.4357 Y-23.9118
G01 X-38.4400 Y-24.0000
G01 X-38.4357 Y-24.0882
G01 X-38.4227 Y-24.1756
G01 X-38.4012 Y-24.2613
G01 X-38.3715 Y-24.3444
G01 X-38.3337 Y-24.4243
G01 X-38.2883 Y-24.5000
G01 X-38.2357 Y-24.5710
G01 X-38.1764 Y-24.6364
G01 X-38.1110 Y-24.6957
G01 X-38.0400 Y-24.7483
G01 X-37.9643 Y-24.7937
G01 X-37.8844 Y-24.8315
G01 X-37.8013 Y-24.8612
G01 X-37.7156 Y-24.8827
G01 X-37.6282 Y-24.8957
G01 X-37.5425 Y-24.8999
G00 Z1.4000
G00 X-37.5466 Y-24.9848
G01 F60.00
G01 Z0.0000
G01 F120.00
G01 X-37.5334 Y-24.9848
G01 X-37.4435 Y-24.9803
G01 X-37.3478 Y-24.9661
G01 X-37.2541 Y-24.9426
G01 X-37.1631 Y-24.9100
G01 X-37.0757 Y-24.8687
G01 X-36.9928 Y-24.8190
G01 X-36.9151 Y-24.7614
G01 X-36.8435 Y-24.6965
G01 X-36.7786 Y-24.6249
G01 X-36.7210 Y-24.5472
G01 X-36.6713 Y-24.4643
G01 X-36.6300 Y-24.3769
G01 X-36.5974 Y-24.2859
G01 X-36.5739 Y-24.1922
G01 X-36.5597 Y-24.0965
G01 X-36.5550 Y-24.0000
G01 X-36.5597 Y-23.9035
G01 X-36.5739 Y-23.8078
G01 X-36.5974 Y-23.7141
G01 X-36.6300 Y-23.6231
G01 X-36.6713 Y-23.5357
G01 X-36.7210 Y-23.4528
G01 X-36.7786 Y-23.3751
G01 X-36.8435 Y-23.3035
G01 X-36.9151 Y-23.2386
G01 X-36.9928 Y-23.1810
G01 X-37.0757 Y-23.1313
G01 X-37.1631 Y-23.0900
G01 X-37.2541 Y-23.0574
G01 X-37.3478 Y-23.0339
G01 X-37.4435 Y-23.0197
G01 X-37.5400 Y-23.0150
G01 X-37.6365 Y-23.0197
G01 X-37.7322 Y-23.0339
G01 X-37.8259 Y-23.0574
G01 X-37.9169 Y-23.0900
G01 X-38.0043 Y-23.1313
G01 X-38.0872 Y-23.1810
G01 X-38.1649 Y-23.2386
G01 X-38.2365 Y-23.3035
G01 X-38.3014 Y-23.3751
G01 X-38.3590 Y-23.4528
G01 X-38.4087 Y-23.5357
G01 X-38.4500 Y-23.6231
G01 X-38.4826 Y-23.7141
G01 X-38.5061 Y-23.8078
G01 X-38.5203 Y-23.9035
G01 X-38.5250 Y-24.0000
G01 X-38.5203 Y-24.0965
G01 X-38.5061 Y-24.1922
G01 X-38.4826 Y-24.2859
G01 X-38.4500 Y-24.3769
G01 X-38.4087 Y-24.4643
G01 X-38.3590 Y-24.5472
G01 X-38.3014 Y-24.6249
G01 X-38.2365 Y-24.6965
G01 X-38.1649 Y-24.7614
G01 X-38.0872 Y-24.8190
G01 X-38.0043 Y-24.8687
G01 X-37.9169 Y-24.9100
G01 X-37.8259 Y-24.9426
G01 X-37.7322 Y-24.9661
G01 X-37.6365 Y-24.9803
G01 X-37.5466 Y-24.9848
G00 Z1.4000
G00 X-39.2300 Y-24.9850
G01 F60.00
G01 Z0.0000
G01 F120.00
G01 X-39.2168 Y-24.9843
G01 X-39.2037 Y-24.9824
G01 X-39.1908 Y-24.9792
G01 X-39.1814 Y-24.9760
G01 X-39.1693 Y-24.9706
G01 X-39.1578 Y-24.9641
G01 X-39.1469 Y-24.9564
G01 X-39.1369 Y-24.9478
G01 X-39.1278 Y-24.9382
G01 X-39.1196 Y-24.9277
G01 X-39.1125 Y-24.9165
G01 X-39.1066 Y-24.9047
G01 X-39.1018 Y-24.8923
G01 X-39.0990 Y-24.8828
G01 X-39.0965 Y-24.8698
G01 X-39.0952 Y-24.8566
G01 X-39.0950 Y-23.1467
G01 X-39.0960 Y-23.1335
G01 X-39.0976 Y-23.1237
G01 X-39.1008 Y-23.1108
G01 X-39.1040 Y-23.1014
G01 X-39.1080 Y-23.0923
G01 X-39.1142 Y-23.0806
G01 X-39.1216 Y-23.0696
G01 X-39.1300 Y-23.0593
G01 X-39.1393 Y-23.0500
G01 X-39.1523 Y-23.0396
G01 X-39.1635 Y-23.0325
G01 X-39.1753 Y-23.0266
G01 X-39.1877 Y-23.0218
G01 X-39.2037 Y-23.0176
G01 X-39.2168 Y-23.0157
G01 X-39.2300 Y-23.0150
G01 X-40.9333 Y-23.0150
G01 X-40.9432 Y-23.0157
G01 X-40.9563 Y-23.0176
G01 X-40.9660 Y-23.0199
G01 X-40.9786 Y-23.0240
G01 X-40.9907 Y-23.0294
G01 X-41.0022 Y-23.0359
G01 X-41.0104 Y-23.0416
G01 X-41.0207 Y-23.0500
G01 X-41.0322 Y-23.0618
G01 X-41.0404 Y-23.0723
G01 X-41.0475 Y-23.0835
G01 X-41.0534 Y-23.0953
G01 X-41.0592 Y-23.1108
G01 X-41.0624 Y-23.1237
G01 X-41.0643 Y-23.1368
G01 X-41.0650 Y-23.1500
G01 X-41.0650 Y-24.8533
G01 X-41.0640 Y-24.8665
G01 X-41.0624 Y-24.8763
G01 X-41.0592 Y-24.8892
G01 X-41.0560 Y-24.8986
G01 X-41.0520 Y-24.9077
G01 X-41.0458 Y-24.9194
G01 X-41.0384 Y-24.9304
G01 X-41.0300 Y-24.9407
G01 X-41.0207 Y-24.9500
G01 X-41.0104 Y-24.9584
G01 X-40.9994 Y-24.9658
G01 X-40.9877 Y-24.9720
G01 X-40.9755 Y-24.9771
G01 X-40.9628 Y-24.9810
G01 X-40.9465 Y-24.9840
G01 X-40.9333 Y-24.9850
G01 X-39.2300 Y-24.9850
G00 Z1.4000
G00 X-39.2300 Y-24.9000
G01 F60.00
G01 Z0.0000
G01 F120.00
G01 X-39.2215 Y-24.8993
G01 X-39.2120 Y-24.8966
G01 X-39.2033 Y-24.8922
G01 X-39.1955 Y-24.8862
G01 X-39.1891 Y-24.8788
G01 X-39.1843 Y-24.8703
G01 X-39.1812 Y-24.8610
G01 X-39.1800 Y-24.8512
G01 X-39.1800 Y-23.1500
G01 X-39.1810 Y-23.1402
G01 X-39.1834 Y-23.1320
G01 X-39.1878 Y-23.1233
G01 X-39.1938 Y-23.1155
G01 X-39.1973 Y-23.1121
G01 X-39.2022 Y-23.1084
G01 X-39.2109 Y-23.1038
G01 X-39.2202 Y-23.1010
G01 X-39.2300 Y-23.1000
G01 X-40.9300 Y-23.1000
G01 X-40.9398 Y-23.1010
G01 X-40.9491 Y-23.1038
G01 X-40.9567 Y-23.1078
G01 X-40.9645 Y-23.1138
G01 X-40.9709 Y-23.1212
G01 X-40.9741 Y-23.1264
G01 X-40.9762 Y-23.1309
G01 X-40.9790 Y-23.1402
G01 X-40.9800 Y-23.1500
G01 X-40.9800 Y-24.8500
G01 X-40.9790 Y-24.8598
G01 X-40.9762 Y-24.8691
G01 X-40.9722 Y-24.8767
G01 X-40.9662 Y-24.8845
G01 X-40.9588 Y-24.8909
G01 X-40.9503 Y-24.8957
G01 X-40.9410 Y-24.8988
G01 X-40.9361 Y-24.8996
G01 X-40.9300 Y-24.9000
G01 X-39.2300 Y-24.9000
G00 Z1.4000
G00 X-45.2000 Y-26.8500
G01 F60.00
G01 Z0.0000
G01 F120.00
G01 X-45.1902 Y-26.8490
G01 X-45.1809 Y-26.8462
G01 X-45.1722 Y-26.8416
G01 X-45.1646 Y-26.8354
G01 X-45.1584 Y-26.8278
G01 X-45.1538 Y-26.8191
G01 X-45.1510 Y-26.8098
G01 X-45.1500 Y-26.8012
G01 X-45.1500 Y-25.2000
G01 X-45.1510 Y-25.1902
G01 X-45.1538 Y-25.1809
G01 X-45.1584 Y-25.1722
G01 X-45.1638 Y-25.1655
G01 X-45.1673 Y-25.1621
G01 X-45.1722 Y-25.1584
G01 X-45.1809 Y-25.1538
G01 X-45.1902 Y-25.1510
G01 X-45.2000 Y-25.1500
G01 X-46.8000 Y-25.1500
G01 X-46.8098 Y-25.1510
G01 X-46.8180 Y-25.1534
G01 X-46.8267 Y-25.1578
G01 X-46.8345 Y-25.1638
G01 X-46.8409 Y-25.1712
G01 X-46.8457 Y-25.1797
G01 X-46.8478 Y-25.1855
G01 X-46.8490 Y-25.1902
G01 X-46.8500 Y-25.2000
G01 X-46.8500 Y-26.8000
G01 X-46.8490 Y-26.8098
G01 X-46.8462 Y-26.8191
G01 X-46.8422 Y-26.8267
G01 X-46.8362 Y-26.8345
G01 X-46.8288 Y-26.8409
G01 X-46.8236 Y-26.8441
G01 X-46.8191 Y-26.8462
G01 X-46.8098 Y-26.8490
G01 X-46.8000 Y-26.8500
G01 X-45.2000 Y-26.8500
G00 Z1.4000
G00 X-45.2000 Y-26.9350
G01 F60.00
G01 Z0.0000
G01 F120.00
G01 X-45.1868 Y-26.9343
G01 X-45.1769 Y-26.9330
G01 X-45.1640 Y-26.9301
G01 X-45.1514 Y-26.9260
G01 X-45.1393 Y-26.9206
G01 X-45.1278 Y-26.9141
G01 X-45.1169 Y-26.9064
G01 X-45.1069 Y-26.8978
G01 X-45.0978 Y-26.8882
G01 X-45.0896 Y-26.8777
G01 X-45.0825 Y-26.8665
G01 X-45.0780 Y-26.8577
G01 X-45.0729 Y-26.8455
G01 X-45.0690 Y-26.8328
G01 X-45.0665 Y-26.8198
G01 X-45.0652 Y-26.8066
G01 X-45.0650 Y-25.1967
G01 X-45.0660 Y-25.1835
G01 X-45.0676 Y-25.1737
G01 X-45.0708 Y-25.1608
G01 X-45.0740 Y-25.1514
G01 X-45.0780 Y-25.1423
G01 X-45.0842 Y-25.1306
G01 X-45.0916 Y-25.1196
G01 X-45.1000 Y-25.1093
G01 X-45.1093 Y-25.1000
G01 X-45.1196 Y-25.0916
G01 X-45.1335 Y-25.0825
G01 X-45.1453 Y-25.0766
G01 X-45.1577 Y-25.0718
G01 X-45.1704 Y-25.0683
G01 X-45.1868 Y-25.0657
G01 X-45.2000 Y-25.0650
G01 X-46.8033 Y-25.0650
G01 X-46.8165 Y-25.0660
G01 X-46.8296 Y-25.0683
G01 X-46.8423 Y-25.0718
G01 X-46.8517 Y-25.0753
G01 X-46.8607 Y-25.0794
G01 X-46.8722 Y-25.0859
G01 X-46.8831 Y-25.0936
G01 X-46.8907 Y-25.1000
G01 X-46.9022 Y-25.1118
G01 X-46.9104 Y-25.1223
G01 X-46.9175 Y-25.1335
G01 X-46.9234 Y-25.1453
G01 X-46.9292 Y-25.1608
G01 X-46.9324 Y-25.1737
G01 X-46.9343 Y-25.1868
G01 X-46.9350 Y-25.2000
G01 X-46.9350 Y-26.8033
G01 X-46.9340 Y-26.8165
G01 X-46.9324 Y-26.8263
G01 X-46.9292 Y-26.8392
G01 X-46.9247 Y-26.8517
G01 X-46.9206 Y-26.8607
G01 X-46.9141 Y-26.8722
G01 X-46.9064 Y-26.8831
G01 X-46.9000 Y-26.8907
G01 X-46.8907 Y-26.9000
G01 X-46.8804 Y-26.9084
G01 X-46.8694 Y-26.9158
G01 X-46.8577 Y-26.9220
G01 X-46.8455 Y-26.9271
G01 X-46.8328 Y-26.9310
G01 X-46.8165 Y-26.9340
G01 X-46.8033 Y-26.9350
G01 X-45.2000 Y-26.9350
G00 Z1.4000
G00 X-46.8499 Y-23.4975
G01 F60.00
G01 Z0.0000
G01 F120.00
G01 X-46.8459 Y-23.5833
G01 X-46.8337 Y-23.6658
G01 X-46.8134 Y-23.7467
G01 X-46.7853 Y-23.8253
G01 X-46.7496 Y-23.9007
G01 X-46.7067 Y-23.9722
G01 X-46.6571 Y-24.0392
G01 X-46.6010 Y-24.1010
G01 X-46.5392 Y-24.1571
G01 X-46.4722 Y-24.2067
G01 X-46.4007 Y-24.2496
G01 X-46.3253 Y-24.2853
G01 X-46.2467 Y-24.3134
G01 X-46.1658 Y-24.3337
G01 X-46.0833 Y-24.3459
G01 X-46.0000 Y-24.3500
G01 X-45.9167 Y-24.3459
G01 X-45.8342 Y-24.3337
G01 X-45.7533 Y-24.3134
G01 X-45.6747 Y-24.2853
G01 X-45.5993 Y-24.2496
G01 X-45.5278 Y-24.2067
G01 X-45.4608 Y-24.1571
G01 X-45.3990 Y-24.1010
G01 X-45.3429 Y-24.0392
G01 X-45.2933 Y-23.9722
G01 X-45.2504 Y-23.9007
G01 X-45.2147 Y-23.8253
G01 X-45.1866 Y-23.7467
G01 X-45.1663 Y-23.6658
G01 X-45.1541 Y-23.5833
G01 X-45.1500 Y-23.5000
G01 X-45.1541 Y-23.4167
G01 X-45.1663 Y-23.3342
G01 X-45.1866 Y-23.2533
G01 X-45.2147 Y-23.1747
G01 X-45.2504 Y-23.0993
G01 X-45.2933 Y-23.0278
G01 X-45.3429 Y-22.9608
G01 X-45.3990 Y-22.8990
G01 X-45.4608 Y-22.8429
G01 X-45.5278 Y-22.7933
G01 X-45.5993 Y-22.7504
G01 X-45.6747 Y-22.7147
G01 X-45.7533 Y-22.6866
G01 X-45.8342 Y-22.6663
G01 X-45.9167 Y-22.6541
G01 X-46.0000 Y-22.6500
G01 X-46.0833 Y-22.6541
G01 X-46.1658 Y-22.6663
G01 X-46.2467 Y-22.6866
G01 X-46.3253 Y-22.7147
G01 X-46.4007 Y-22.7504
G01 X-46.4722 Y-22.7933
G01 X-46.5392 Y-22.8429
G01 X-46.6010 Y-22.8990
G01 X-46.6571 Y-22.9608
G01 X-46.7067 Y-23.0278
G01 X-46.7496 Y-23.0993
G01 X-46.7853 Y-23.1747
G01 X-46.8134 Y-23.2533
G01 X-46.8337 Y-23.3342
G01 X-46.8459 Y-23.4167
G01 X-46.8499 Y-23.4975
G00 Z1.4000
G00 X-46.9348 Y-23.4934
G01 F60.00
G01 Z0.0000
G01 F120.00
G01 X-46.9348 Y-23.5066
G01 X-46.9305 Y-23.5916
G01 X-46.9170 Y-23.6824
G01 X-46.8947 Y-23.7714
G01 X-46.8638 Y-23.8578
G01 X-46.8246 Y-23.9408
G01 X-46.7774 Y-24.0195
G01 X-46.7228 Y-24.0932
G01 X-46.6611 Y-24.1611
G01 X-46.5932 Y-24.2228
G01 X-46.5195 Y-24.2774
G01 X-46.4408 Y-24.3246
G01 X-46.3578 Y-24.3638
G01 X-46.2714 Y-24.3947
G01 X-46.1824 Y-24.4170
G01 X-46.0916 Y-24.4305
G01 X-46.0000 Y-24.4350
G01 X-45.9084 Y-24.4305
G01 X-45.8176 Y-24.4170
G01 X-45.7286 Y-24.3947
G01 X-45.6422 Y-24.3638
G01 X-45.5592 Y-24.3246
G01 X-45.4805 Y-24.2774
G01 X-45.4068 Y-24.2228
G01 X-45.3389 Y-24.1611
G01 X-45.2772 Y-24.0932
G01 X-45.2226 Y-24.0195
G01 X-45.1754 Y-23.9408
G01 X-45.1362 Y-23.8578
G01 X-45.1053 Y-23.7714
G01 X-45.0830 Y-23.6824
G01 X-45.0695 Y-23.5916
G01 X-45.0650 Y-23.5000
G01 X-45.0695 Y-23.4084
G01 X-45.0830 Y-23.3176
G01 X-45.1053 Y-23.2286
G01 X-45.1362 Y-23.1422
G01 X-45.1754 Y-23.0592
G01 X-45.2226 Y-22.9805
G01 X-45.2772 Y-22.9068
G01 X-45.3389 Y-22.8389
G01 X-45.4068 Y-22.7772
G01 X-45.4805 Y-22.7226
G01 X-45.5592 Y-22.6754
G01 X-45.6422 Y-22.6362
G01 X-45.7286 Y-22.6053
G01 X-45.8176 Y-22.5830
G01 X-45.9084 Y-22.5695
G01 X-46.0000 Y-22.5650
G01 X-46.0916 Y-22.5695
G01 X-46.1824 Y-22.5830
G01 X-46.2714 Y-22.6053
G01 X-46.3578 Y-22.6362
G01 X-46.4408 Y-22.6754
G01 X-46.5195 Y-22.7226
G01 X-46.5932 Y-22.7772
G01 X-46.6611 Y-22.8389
G01 X-46.7228 Y-22.9068
G01 X-46.7774 Y-22.9805
G01 X-46.8246 Y-23.0592
G01 X-46.8638 Y-23.1422
G01 X-46.8947 Y-23.2286
G01 X-46.9170 Y-23.3176
G01 X-46.9305 Y-23.4084
G01 X-46.9348 Y-23.4934
G00 Z1.4000
G00 X-51.4000 Y-25.0300
G01 F60.00
G01 Z0.0000
G01 F120.00
G01 X-51.3902 Y-25.0290
G01 X-51.3809 Y-25.0262
G01 X-51.3722 Y-25.0216
G01 X-51.3646 Y-25.0154
G01 X-51.3584 Y-25.0078
G01 X-51.3538 Y-24.9991
G01 X-51.3510 Y-24.9898
G01 X-51.3500 Y-24.9800
G01 X-51.3500 Y-21.7800
G01 X-51.3510 Y-21.7702
G01 X-51.3538 Y-21.7609
G01 X-51.3584 Y-21.7522
G01 X-51.3646 Y-21.7446
G01 X-51.3722 Y-21.7384
G01 X-51.3809 Y-21.7338
G01 X-51.3902 Y-21.7310
G01 X-51.4000 Y-21.7300
G01 X-54.6000 Y-21.7300
G01 X-54.6098 Y-21.7310
G01 X-54.6191 Y-21.7338
G01 X-54.6278 Y-21.7384
G01 X-54.6354 Y-21.7446
G01 X-54.6416 Y-21.7522
G01 X-54.6462 Y-21.7609
G01 X-54.6490 Y-21.7702
G01 X-54.6500 Y-21.7800
G01 X-54.6500 Y-24.9800
G01 X-54.6490 Y-24.9898
G01 X-54.6462 Y-24.9991
G01 X-54.6416 Y-25.0078
G01 X-54.6354 Y-25.0154
G01 X-54.6278 Y-25.0216
G01 X-54.6191 Y-25.0262
G01 X-54.6098 Y-25.0290
G01 X-54.6000 Y-25.0300
G01 X-51.4000 Y-25.0300
G00 Z1.4000
G00 X-51.4000 Y-25.1150
G01 F60.00
G01 Z0.0000
G01 F120.00
G01 X-51.3868 Y-25.1143
G01 X-51.3737 Y-25.1124
G01 X-51.3608 Y-25.1092
G01 X-51.3483 Y-25.1047
G01 X-51.3393 Y-25.1006
G01 X-51.3278 Y-25.0941
G01 X-51.3169 Y-25.0864
G01 X-51.3069 Y-25.0778
G01 X-51.2978 Y-25.0682
G01 X-51.2896 Y-25.0577
G01 X-51.2825 Y-25.0465
G01 X-51.2766 Y-25.0347
G01 X-51.2718 Y-25.0223
G01 X-51.2683 Y-25.0096
G01 X-51.2660 Y-24.9965
G01 X-51.2650 Y-24.9833
G01 X-51.2650 Y-21.7800
G01 X-51.2657 Y-21.7668
G01 X-51.2676 Y-21.7537
G01 X-51.2708 Y-21.7408
G01 X-51.2753 Y-21.7283
G01 X-51.2809 Y-21.7164
G01 X-51.2878 Y-21.7050
G01 X-51.2956 Y-21.6944
G01 X-51.3022 Y-21.6869
G01 X-51.3118 Y-21.6778
G01 X-51.3250 Y-21.6678
G01 X-51.3364 Y-21.6609
G01 X-51.3483 Y-21.6553
G01 X-51.3608 Y-21.6508
G01 X-51.3737 Y-21.6476
G01 X-51.3868 Y-21.6457
G01 X-51.4000 Y-21.6450
G01 X-54.6000 Y-21.6450
G01 X-54.6132 Y-21.6457
G01 X-54.6263 Y-21.6476
G01 X-54.6392 Y-21.6508
G01 X-54.6517 Y-21.6553
G01 X-54.6607 Y-21.6594
G01 X-54.6722 Y-21.6659
G01 X-54.6831 Y-21.6736
G01 X-54.6931 Y-21.6822
G01 X-54.7022 Y-21.6918
G01 X-54.7122 Y-21.7050
G01 X-54.7191 Y-21.7164
G01 X-54.7247 Y-21.7283
G01 X-54.7292 Y-21.7408
G01 X-54.7324 Y-21.7537
G01 X-54.7343 Y-21.7668
G01 X-54.7350 Y-21.7800
G01 X-54.7350 Y-24.9800
G01 X-54.7346 Y-24.9899
G01 X-54.7330 Y-25.0031
G01 X-54.7301 Y-25.0160
G01 X-54.7260 Y-25.0286
G01 X-54.7206 Y-25.0407
G01 X-54.7141 Y-25.0522
G01 X-54.7064 Y-25.0631
G01 X-54.6978 Y-25.0731
G01 X-54.6882 Y-25.0822
G01 X-54.6777 Y-25.0904
G01 X-54.6665 Y-25.0975
G01 X-54.6547 Y-25.1034
G01 X-54.6423 Y-25.1082
G01 X-54.6296 Y-25.1117
G01 X-54.6165 Y-25.1140
G01 X-54.6033 Y-25.1150
G01 X-51.4000 Y-25.1150
G00 Z1.4000
G00 X-48.0825 Y-36.8499
G01 F60.00
G01 Z0.0000
G01 F120.00
G01 X-47.9967 Y-36.8459
G01 X-47.9142 Y-36.8337
G01 X-47.8333 Y-36.8134
G01 X-47.7547 Y-36.7853
G01 X-47.6793 Y-36.7496
G01 X-47.6078 Y-36.7067
G01 X-47.5408 Y-36.6571
G01 X-47.4790 Y-36.6010
G01 X-47.4229 Y-36.5392
G01 X-47.3733 Y-36.4722
G01 X-47.3304 Y-36.4007
G01 X-47.2947 Y-36.3253
G01 X-47.2666 Y-36.2467
G01 X-47.2463 Y-36.1658
G01 X-47.2341 Y-36.0833
G01 X-47.2300 Y-36.0000
G01 X-47.2341 Y-35.9167
G01 X-47.2463 Y-35.8342
G01 X-47.2666 Y-35.7533
G01 X-47.2947 Y-35.6747
G01 X-47.3304 Y-35.5993
G01 X-47.3733 Y-35.5278
G01 X-47.4229 Y-35.4608
G01 X-47.4790 Y-35.3990
G01 X-47.5408 Y-35.3429
G01 X-47.6078 Y-35.2933
G01 X-47.6793 Y-35.2504
G01 X-47.7547 Y-35.2147
G01 X-47.8333 Y-35.1866
G01 X-47.9142 Y-35.1663
G01 X-47.9967 Y-35.1541
G01 X-48.0800 Y-35.1500
G01 X-48.1633 Y-35.1541
G01 X-48.2458 Y-35.1663
G01 X-48.3267 Y-35.1866
G01 X-48.4053 Y-35.2147
G01 X-48.4807 Y-35.2504
G01 X-48.5522 Y-35.2933
G01 X-48.6192 Y-35.3429
G01 X-48.6810 Y-35.3990
G01 X-48.7371 Y-35.4608
G01 X-48.7867 Y-35.5278
G01 X-48.8296 Y-35.5993
G01 X-48.8653 Y-35.6747
G01 X-48.8934 Y-35.7533
G01 X-48.9137 Y-35.8342
G01 X-48.9259 Y-35.9167
G01 X-48.9300 Y-36.0000
G01 X-48.9259 Y-36.0833
G01 X-48.9137 Y-36.1658
G01 X-48.8934 Y-36.2467
G01 X-48.8653 Y-36.3253
G01 X-48.8296 Y-36.4007
G01 X-48.7867 Y-36.4722
G01 X-48.7371 Y-36.5392
G01 X-48.6810 Y-36.6010
G01 X-48.6192 Y-36.6571
G01 X-48.5522 Y-36.7067
G01 X-48.4807 Y-36.7496
G01 X-48.4053 Y-36.7853
G01 X-48.3267 Y-36.8134
G01 X-48.2458 Y-36.8337
G01 X-48.1633 Y-36.8459
G01 X-48.0825 Y-36.8499
G00 Z1.4000
G00 X-48.0866 Y-36.9348
G01 F60.00
G01 Z0.0000
G01 F120.00
G01 X-48.0734 Y-36.9348
G01 X-47.9884 Y-36.9305
G01 X-47.8976 Y-36.9170
G01 X-47.8086 Y-36.8947
G01 X-47.7222 Y-36.8638
G01 X-47.6392 Y-36.8246
G01 X-47.5605 Y-36.7774
G01 X-47.4868 Y-36.7228
G01 X-47.4189 Y-36.6611
G01 X-47.3572 Y-36.5932
G01 X-47.3026 Y-36.5195
G01 X-47.2554 Y-36.4408
G01 X-47.2162 Y-36.3578
G01 X-47.1853 Y-36.2714
G01 X-47.1630 Y-36.1824
G01 X-47.1495 Y-36.0916
G01 X-47.1450 Y-36.0000
G01 X-47.1495 Y-35.9084
G01 X-47.1630 Y-35.8176
G01 X-47.1853 Y-35.7286
G01 X-47.2162 Y-35.6422
G01 X-47.2554 Y-35.5592
G01 X-47.3026 Y-35.4805
G01 X-47.3572 Y-35.4068
G01 X-47.4189 Y-35.3389
G01 X-47.4868 Y-35.2772
G01 X-47.5605 Y-35.2226
G01 X-47.6392 Y-35.1754
G01 X-47.7222 Y-35.1362
G01 X-47.8086 Y-35.1053
G01 X-47.8976 Y-35.0830
G01 X-47.9884 Y-35.0695
G01 X-48.0800 Y-35.0650
G01 X-48.1716 Y-35.0695
G01 X-48.2624 Y-35.0830
G01 X-48.3514 Y-35.1053
G01 X-48.4378 Y-35.1362
G01 X-48.5208 Y-35.1754
G01 X-48.5995 Y-35.2226
G01 X-48.6732 Y-35.2772
G01 X-48.7411 Y-35.3389
G01 X-48.8028 Y-35.4068
G01 X-48.8574 Y-35.4805
G01 X-48.9046 Y-35.5592
G01 X-48.9438 Y-35.6422
G01 X-48.9747 Y-35.7286
G01 X-48.9970 Y-35.8176
G01 X-49.0105 Y-35.9084
G01 X-49.0150 Y-36.0000
G01 X-49.0105 Y-36.0916
G01 X-48.9970 Y-36.1824
G01 X-48.9747 Y-36.2714
G01 X-48.9438 Y-36.3578
G01 X-48.9046 Y-36.4408
G01 X-48.8574 Y-36.5195
G01 X-48.8028 Y-36.5932
G01 X-48.7411 Y-36.6611
G01 X-48.6732 Y-36.7228
G01 X-48.5995 Y-36.7774
G01 X-48.5208 Y-36.8246
G01 X-48.4378 Y-36.8638
G01 X-48.3514 Y-36.8947
G01 X-48.2624 Y-36.9170
G01 X-48.1716 Y-36.9305
G01 X-48.0866 Y-36.9348
G00 Z1.4000
G00 X-53.0025 Y-40.2699
G01 F60.00
G01 Z0.0000
G01 F120.00
G01 X-52.8383 Y-40.2621
G01 X-52.6781 Y-40.2383
G01 X-52.5210 Y-40.1990
G01 X-52.3686 Y-40.1444
G01 X-52.2222 Y-40.0752
G01 X-52.0833 Y-39.9919
G01 X-51.9533 Y-39.8955
G01 X-51.8333 Y-39.7867
G01 X-51.7245 Y-39.6667
G01 X-51.6281 Y-39.5367
G01 X-51.5448 Y-39.3978
G01 X-51.4756 Y-39.2514
G01 X-51.4210 Y-39.0990
G01 X-51.3817 Y-38.9419
G01 X-51.3579 Y-38.7817
G01 X-51.3500 Y-38.6200
G01 X-51.3579 Y-38.4583
G01 X-51.3817 Y-38.2981
G01 X-51.4210 Y-38.1410
G01 X-51.4756 Y-37.9886
G01 X-51.5448 Y-37.8422
G01 X-51.6281 Y-37.7033
G01 X-51.7245 Y-37.5733
G01 X-51.8333 Y-37.4533
G01 X-51.9533 Y-37.3445
G01 X-52.0833 Y-37.2481
G01 X-52.2222 Y-37.1648
G01 X-52.3686 Y-37.0956
G01 X-52.5210 Y-37.0410
G01 X-52.6781 Y-37.0017
G01 X-52.8383 Y-36.9779
G01 X-53.0000 Y-36.9700
G01 X-53.1617 Y-36.9779
G01 X-53.3219 Y-37.0017
G01 X-53.4790 Y-37.0410
G01 X-53.6314 Y-37.0956
G01 X-53.7778 Y-37.1648
G01 X-53.9167 Y-37.2481
G01 X-54.0467 Y-37.3445
G01 X-54.1667 Y-37.4533
G01 X-54.2755 Y-37.5733
G01 X-54.3719 Y-37.7033
G01 X-54.4552 Y-37.8422
G01 X-54.5244 Y-37.9886
G01 X-54.5790 Y-38.1410
G01 X-54.6183 Y-38.2981
G01 X-54.6421 Y-38.4583
G01 X-54.6500 Y-38.6200
G01 X-54.6421 Y-38.7817
G01 X-54.6183 Y-38.9419
G01 X-54.5790 Y-39.0990
G01 X-54.5244 Y-39.2514
G01 X-54.4552 Y-39.3978
G01 X-54.3719 Y-39.5367
G01 X-54.2755 Y-39.6667
G01 X-54.1667 Y-39.7867
G01 X-54.0467 Y-39.8955
G01 X-53.9167 Y-39.9919
G01 X-53.7778 Y-40.0752
G01 X-53.6314 Y-40.1444
G01 X-53.4790 Y-40.1990
G01 X-53.3219 Y-40.2383
G01 X-53.1617 Y-40.2621
G01 X-53.0025 Y-40.2699
G00 Z1.4000
G00 X-53.0066 Y-40.3548
G01 F60.00
G01 Z0.0000
G01 F120.00
G01 X-52.9934 Y-40.3548
G01 X-52.8299 Y-40.3466
G01 X-52.6615 Y-40.3217
G01 X-52.4964 Y-40.2803
G01 X-52.3360 Y-40.2229
G01 X-52.1821 Y-40.1501
G01 X-52.0361 Y-40.0626
G01 X-51.8993 Y-39.9612
G01 X-51.7732 Y-39.8468
G01 X-51.6588 Y-39.7207
G01 X-51.5574 Y-39.5839
G01 X-51.4699 Y-39.4379
G01 X-51.3971 Y-39.2840
G01 X-51.3397 Y-39.1236
G01 X-51.2983 Y-38.9585
G01 X-51.2734 Y-38.7901
G01 X-51.2650 Y-38.6200
G01 X-51.2734 Y-38.4499
G01 X-51.2983 Y-38.2815
G01 X-51.3397 Y-38.1164
G01 X-51.3971 Y-37.9560
G01 X-51.4699 Y-37.8021
G01 X-51.5574 Y-37.6561
G01 X-51.6588 Y-37.5193
G01 X-51.7732 Y-37.3932
G01 X-51.8993 Y-37.2788
G01 X-52.0361 Y-37.1774
G01 X-52.1821 Y-37.0899
G01 X-52.3360 Y-37.0171
G01 X-52.4964 Y-36.9597
G01 X-52.6615 Y-36.9183
G01 X-52.8299 Y-36.8934
G01 X-53.0000 Y-36.8850
G01 X-53.1701 Y-36.8934
G01 X-53.3385 Y-36.9183
G01 X-53.5036 Y-36.9597
G01 X-53.6640 Y-37.0171
G01 X-53.8179 Y-37.0899
G01 X-53.9639 Y-37.1774
G01 X-54.1007 Y-37.2788
G01 X-54.2268 Y-37.3932
G01 X-54.3412 Y-37.5193
G01 X-54.4426 Y-37.6561
G01 X-54.5301 Y-37.8021
G01 X-54.6029 Y-37.9560
G01 X-54.6603 Y-38.1164
G01 X-54.7017 Y-38.2815
G01 X-54.7266 Y-38.4499
G01 X-54.7350 Y-38.6200
G01 X-54.7266 Y-38.7901
G01 X-54.7017 Y-38.9585
G01 X-54.6603 Y-39.1236
G01 X-54.6029 Y-39.2840
G01 X-54.5301 Y-39.4379
G01 X-54.4426 Y-39.5839
G01 X-54.3412 Y-39.7207
G01 X-54.2268 Y-39.8468
G01 X-54.1007 Y-39.9612
G01 X-53.9639 Y-40.0626
G01 X-53.8179 Y-40.1501
G01 X-53.6640 Y-40.2229
G01 X-53.5036 Y-40.2803
G01 X-53.3385 Y-40.3217
G01 X-53.1701 Y-40.3466
G01 X-53.0066 Y-40.3548
G00 Z1.4000
G00 X-60.8119 Y-42.3775
G01 F60.00
G01 Z0.0000
G01 F120.00
G01 X-60.8081 Y-42.4596
G01 X-60.7964 Y-42.5384
G01 X-60.7770 Y-42.6157
G01 X-60.7502 Y-42.6907
G01 X-60.7161 Y-42.7628
G01 X-60.6752 Y-42.8311
G01 X-60.6277 Y-42.8951
G01 X-60.5742 Y-42.9542
G01 X-60.5151 Y-43.0077
G01 X-60.4511 Y-43.0552
G01 X-60.3828 Y-43.0961
G01 X-60.3107 Y-43.1302
G01 X-60.2357 Y-43.1570
G01 X-60.1584 Y-43.1764
G01 X-60.0796 Y-43.1881
G01 X-60.0000 Y-43.1920
G01 X-59.9204 Y-43.1881
G01 X-59.8416 Y-43.1764
G01 X-59.7643 Y-43.1570
G01 X-59.6893 Y-43.1302
G01 X-59.6172 Y-43.0961
G01 X-59.5489 Y-43.0552
G01 X-59.4849 Y-43.0077
G01 X-59.4258 Y-42.9542
G01 X-59.3723 Y-42.8951
G01 X-59.3248 Y-42.8311
G01 X-59.2839 Y-42.7628
G01 X-59.2498 Y-42.6907
G01 X-59.2230 Y-42.6157
G01 X-59.2036 Y-42.5384
G01 X-59.1919 Y-42.4596
G01 X-59.1880 Y-42.3800
G01 X-59.1919 Y-42.3004
G01 X-59.2036 Y-42.2216
G01 X-59.2230 Y-42.1443
G01 X-59.2498 Y-42.0693
G01 X-59.2839 Y-41.9972
G01 X-59.3248 Y-41.9289
G01 X-59.3723 Y-41.8649
G01 X-59.4258 Y-41.8058
G01 X-59.4849 Y-41.7523
G01 X-59.5489 Y-41.7048
G01 X-59.6172 Y-41.6639
G01 X-59.6893 Y-41.6298
G01 X-59.7643 Y-41.6030
G01 X-59.8416 Y-41.5836
G01 X-59.9204 Y-41.5719
G01 X-60.0000 Y-41.5680
G01 X-60.0796 Y-41.5719
G01 X-60.1584 Y-41.5836
G01 X-60.2357 Y-41.6030
G01 X-60.3107 Y-41.6298
G01 X-60.3828 Y-41.6639
G01 X-60.4511 Y-41.7048
G01 X-60.5151 Y-41.7523
G01 X-60.5742 Y-41.8058
G01 X-60.6277 Y-41.8649
G01 X-60.6752 Y-41.9289
G01 X-60.7161 Y-41.9972
G01 X-60.7502 Y-42.0693
G01 X-60.7770 Y-42.1443
G01 X-60.7964 Y-42.2216
G01 X-60.8081 Y-42.3004
G01 X-60.8119 Y-42.3775
G00 Z1.4000
G00 X-60.8968 Y-42.3734
G01 F60.00
G01 Z0.0000
G01 F120.00
G01 X-60.8968 Y-42.3866
G01 X-60.8927 Y-42.4679
G01 X-60.8798 Y-42.5550
G01 X-60.8584 Y-42.6404
G01 X-60.8287 Y-42.7233
G01 X-60.7911 Y-42.8028
G01 X-60.7458 Y-42.8783
G01 X-60.6934 Y-42.9491
G01 X-60.6343 Y-43.0143
G01 X-60.5691 Y-43.0734
G01 X-60.4983 Y-43.1258
G01 X-60.4228 Y-43.1711
G01 X-60.3433 Y-43.2087
G01 X-60.2604 Y-43.2384
G01 X-60.1750 Y-43.2598
G01 X-60.0879 Y-43.2727
G01 X-60.0000 Y-43.2770
G01 X-59.9121 Y-43.2727
G01 X-59.8250 Y-43.2598
G01 X-59.7396 Y-43.2384
G01 X-59.6567 Y-43.2087
G01 X-59.5772 Y-43.1711
G01 X-59.5017 Y-43.1258
G01 X-59.4309 Y-43.0734
G01 X-59.3657 Y-43.0143
G01 X-59.3066 Y-42.9491
G01 X-59.2542 Y-42.8783
G01 X-59.2089 Y-42.8028
G01 X-59.1713 Y-42.7233
G01 X-59.1416 Y-42.6404
G01 X-59.1202 Y-42.5550
G01 X-59.1073 Y-42.4679
G01 X-59.1030 Y-42.3800
G01 X-59.1073 Y-42.2921
G01 X-59.1202 Y-42.2050
G01 X-59.1416 Y-42.1196
G01 X-59.1713 Y-42.0367
G01 X-59.2089 Y-41.9572
G01 X-59.2542 Y-41.8817
G01 X-59.3066 Y-41.8109
G01 X-59.3657 Y-41.7457
G01 X-59.4309 Y-41.6866
G01 X-59.5017 Y-41.6342
G01 X-59.5772 Y-41.5889
G01 X-59.6567 Y-41.5513
G01 X-59.7396 Y-41.5216
G01 X-59.8250 Y-41.5002
G01 X-59.9121 Y-41.4873
G01 X-60.0000 Y-41.4830
G01 X-60.0879 Y-41.4873
G01 X-60.1750 Y-41.5002
G01 X-60.2604 Y-41.5216
G01 X-60.3433 Y-41.5513
G01 X-60.4228 Y-41.5889
G01 X-60.4983 Y-41.6342
G01 X-60.5691 Y-41.6866
G01 X-60.6343 Y-41.7457
G01 X-60.6934 Y-41.8109
G01 X-60.7458 Y-41.8817
G01 X-60.7911 Y-41.9572
G01 X-60.8287 Y-42.0367
G01 X-60.8584 Y-42.1196
G01 X-60.8798 Y-42.2050
G01 X-60.8927 Y-42.2921
G01 X-60.8968 Y-42.3734
G00 Z1.4000
G00 X-60.8968 Y-44.9134
G01 F60.00
G01 Z0.0000
G01 F120.00
G01 X-60.8968 Y-44.9266
G01 X-60.8927 Y-45.0079
G01 X-60.8798 Y-45.0950
G01 X-60.8584 Y-45.1804
G01 X-60.8287 Y-45.2633
G01 X-60.7911 Y-45.3428
G01 X-60.7458 Y-45.4183
G01 X-60.6934 Y-45.4891
G01 X-60.6343 Y-45.5543
G01 X-60.5691 Y-45.6134
G01 X-60.4983 Y-45.6658
G01 X-60.4228 Y-45.7111
G01 X-60.3433 Y-45.7487
G01 X-60.2604 Y-45.7784
G01 X-60.1750 Y-45.7998
G01 X-60.0879 Y-45.8127
G01 X-60.0000 Y-45.8170
G01 X-59.9121 Y-45.8127
G01 X-59.8250 Y-45.7998
G01 X-59.7396 Y-45.7784
G01 X-59.6567 Y-45.7487
G01 X-59.5772 Y-45.7111
G01 X-59.5017 Y-45.6658
G01 X-59.4309 Y-45.6134
G01 X-59.3657 Y-45.5543
G01 X-59.3066 Y-45.4891
G01 X-59.2542 Y-45.4183
G01 X-59.2089 Y-45.3428
G01 X-59.1713 Y-45.2633
G01 X-59.1416 Y-45.1804
G01 X-59.1202 Y-45.0950
G01 X-59.1073 Y-45.0079
G01 X-59.1030 Y-44.9200
G01 X-59.1073 Y-44.8321
G01 X-59.1202 Y-44.7450
G01 X-59.1416 Y-44.6596
G01 X-59.1713 Y-44.5767
G01 X-59.2089 Y-44.4972
G01 X-59.2542 Y-44.4217
G01 X-59.3066 Y-44.3509
G01 X-59.3657 Y-44.2857
G01 X-59.4309 Y-44.2266
G01 X-59.5017 Y-44.1742
G01 X-59.5772 Y-44.1289
G01 X-59.6567 Y-44.0913
G01 X-59.7396 Y-44.0616
G01 X-59.8250 Y-44.0402
G01 X-59.9121 Y-44.0273
G01 X-60.0000 Y-44.0230
G01 X-60.0879 Y-44.0273
G01 X-60.1750 Y-44.0402
G01 X-60.2604 Y-44.0616
G01 X-60.3433 Y-44.0913
G01 X-60.4228 Y-44.1289
G01 X-60.4983 Y-44.1742
G01 X-60.5691 Y-44.2266
G01 X-60.6343 Y-44.2857
G01 X-60.6934 Y-44.3509
G01 X-60.7458 Y-44.4217
G01 X-60.7911 Y-44.4972
G01 X-60.8287 Y-44.5767
G01 X-60.8584 Y-44.6596
G01 X-60.8798 Y-44.7450
G01 X-60.8927 Y-44.8321
G01 X-60.8968 Y-44.9134
G00 Z1.4000
G00 X-60.8119 Y-44.9175
G01 F60.00
G01 Z0.0000
G01 F120.00
G01 X-60.8081 Y-44.9996
G01 X-60.7964 Y-45.0784
G01 X-60.7770 Y-45.1557
G01 X-60.7502 Y-45.2307
G01 X-60.7161 Y-45.3028
G01 X-60.6752 Y-45.3711
G01 X-60.6277 Y-45.4351
G01 X-60.5742 Y-45.4942
G01 X-60.5151 Y-45.5477
G01 X-60.4511 Y-45.5952
G01 X-60.3828 Y-45.6361
G01 X-60.3107 Y-45.6702
G01 X-60.2357 Y-45.6970
G01 X-60.1584 Y-45.7164
G01 X-60.0796 Y-45.7281
G01 X-60.0000 Y-45.7320
G01 X-59.9204 Y-45.7281
G01 X-59.8416 Y-45.7164
G01 X-59.7643 Y-45.6970
G01 X-59.6893 Y-45.6702
G01 X-59.6172 Y-45.6361
G01 X-59.5489 Y-45.5952
G01 X-59.4849 Y-45.5477
G01 X-59.4258 Y-45.4942
G01 X-59.3723 Y-45.4351
G01 X-59.3248 Y-45.3711
G01 X-59.2839 Y-45.3028
G01 X-59.2498 Y-45.2307
G01 X-59.2230 Y-45.1557
G01 X-59.2036 Y-45.0784
G01 X-59.1919 Y-44.9996
G01 X-59.1880 Y-44.9200
G01 X-59.1919 Y-44.8404
G01 X-59.2036 Y-44.7616
G01 X-59.2230 Y-44.6843
G01 X-59.2498 Y-44.6093
G01 X-59.2839 Y-44.5372
G01 X-59.3248 Y-44.4689
G01 X-59.3723 Y-44.4049
G01 X-59.4258 Y-44.3458
G01 X-59.4849 Y-44.2923
G01 X-59.5489 Y-44.2448
G01 X-59.6172 Y-44.2039
G01 X-59.6893 Y-44.1698
G01 X-59.7643 Y-44.1430
G01 X-59.8416 Y-44.1236
G01 X-59.9204 Y-44.1119
G01 X-60.0000 Y-44.1080
G01 X-60.0796 Y-44.1119
G01 X-60.1584 Y-44.1236
G01 X-60.2357 Y-44.1430
G01 X-60.3107 Y-44.1698
G01 X-60.3828 Y-44.2039
G01 X-60.4511 Y-44.2448
G01 X-60.5151 Y-44.2923
G01 X-60.5742 Y-44.3458
G01 X-60.6277 Y-44.4049
G01 X-60.6752 Y-44.4689
G01 X-60.7161 Y-44.5372
G01 X-60.7502 Y-44.6093
G01 X-60.7770 Y-44.6843
G01 X-60.7964 Y-44.7616
G01 X-60.8081 Y-44.8404
G01 X-60.8119 Y-44.9175
G00 Z1.4000
G00 X-60.8968 Y-47.4534
G01 F60.00
G01 Z0.0000
G01 F120.00
G01 X-60.8968 Y-47.4666
G01 X-60.8927 Y-47.5479
G01 X-60.8798 Y-47.6350
G01 X-60.8584 Y-47.7204
G01 X-60.8287 Y-47.8033
G01 X-60.7911 Y-47.8828
G01 X-60.7458 Y-47.9583
G01 X-60.6934 Y-48.0291
G01 X-60.6343 Y-48.0943
G01 X-60.5691 Y-48.1534
G01 X-60.4983 Y-48.2058
G01 X-60.4228 Y-48.2511
G01 X-60.3433 Y-48.2887
G01 X-60.2604 Y-48.3184
G01 X-60.1750 Y-48.3398
G01 X-60.0879 Y-48.3527
G01 X-60.0000 Y-48.3570
G01 X-59.9121 Y-48.3527
G01 X-59.8250 Y-48.3398
G01 X-59.7396 Y-48.3184
G01 X-59.6567 Y-48.2887
G01 X-59.5772 Y-48.2511
G01 X-59.5017 Y-48.2058
G01 X-59.4309 Y-48.1534
G01 X-59.3657 Y-48.0943
G01 X-59.3066 Y-48.0291
G01 X-59.2542 Y-47.9583
G01 X-59.2089 Y-47.8828
G01 X-59.1713 Y-47.8033
G01 X-59.1416 Y-47.7204
G01 X-59.1202 Y-47.6350
G01 X-59.1073 Y-47.5479
G01 X-59.1030 Y-47.4600
G01 X-59.1073 Y-47.3721
G01 X-59.1202 Y-47.2850
G01 X-59.1416 Y-47.1996
G01 X-59.1713 Y-47.1167
G01 X-59.2089 Y-47.0372
G01 X-59.2542 Y-46.9617
G01 X-59.3066 Y-46.8909
G01 X-59.3657 Y-46.8257
G01 X-59.4309 Y-46.7666
G01 X-59.5017 Y-46.7142
G01 X-59.5772 Y-46.6689
G01 X-59.6567 Y-46.6313
G01 X-59.7396 Y-46.6016
G01 X-59.8250 Y-46.5802
G01 X-59.9121 Y-46.5673
G01 X-60.0000 Y-46.5630
G01 X-60.0879 Y-46.5673
G01 X-60.1750 Y-46.5802
G01 X-60.2604 Y-46.6016
G01 X-60.3433 Y-46.6313
G01 X-60.4228 Y-46.6689
G01 X-60.4983 Y-46.7142
G01 X-60.5691 Y-46.7666
G01 X-60.6343 Y-46.8257
G01 X-60.6934 Y-46.8909
G01 X-60.7458 Y-46.9617
G01 X-60.7911 Y-47.0372
G01 X-60.8287 Y-47.1167
G01 X-60.8584 Y-47.1996
G01 X-60.8798 Y-47.2850
G01 X-60.8927 Y-47.3721
G01 X-60.8968 Y-47.4534
G00 Z1.4000
G00 X-60.8119 Y-47.4575
G01 F60.00
G01 Z0.0000
G01 F120.00
G01 X-60.8081 Y-47.5396
G01 X-60.7964 Y-47.6184
G01 X-60.7770 Y-47.6957
G01 X-60.7502 Y-47.7707
G01 X-60.7161 Y-47.8428
G01 X-60.6752 Y-47.9111
G01 X-60.6277 Y-47.9751
G01 X-60.5742 Y-48.0342
G01 X-60.5151 Y-48.0877
G01 X-60.4511 Y-48.1352
G01 X-60.3828 Y-48.1761
G01 X-60.3107 Y-48.2102
G01 X-60.2357 Y-48.2370
G01 X-60.1584 Y-48.2564
G01 X-60.0796 Y-48.2681
G01 X-60.0000 Y-48.2720
G01 X-59.9204 Y-48.2681
G01 X-59.8416 Y-48.2564
G01 X-59.7643 Y-48.2370
G01 X-59.6893 Y-48.2102
G01 X-59.6172 Y-48.1761
G01 X-59.5489 Y-48.1352
G01 X-59.4849 Y-48.0877
G01 X-59.4258 Y-48.0342
G01 X-59.3723 Y-47.9751
G01 X-59.3248 Y-47.9111
G01 X-59.2839 Y-47.8428
G01 X-59.2498 Y-47.7707
G01 X-59.2230 Y-47.6957
G01 X-59.2036 Y-47.6184
G01 X-59.1919 Y-47.5396
G01 X-59.1880 Y-47.4600
G01 X-59.1919 Y-47.3804
G01 X-59.2036 Y-47.3016
G01 X-59.2230 Y-47.2243
G01 X-59.2498 Y-47.1493
G01 X-59.2839 Y-47.0772
G01 X-59.3248 Y-47.0089
G01 X-59.3723 Y-46.9449
G01 X-59.4258 Y-46.8858
G01 X-59.4849 Y-46.8323
G01 X-59.5489 Y-46.7848
G01 X-59.6172 Y-46.7439
G01 X-59.6893 Y-46.7098
G01 X-59.7643 Y-46.6830
G01 X-59.8416 Y-46.6636
G01 X-59.9204 Y-46.6519
G01 X-60.0000 Y-46.6480
G01 X-60.0796 Y-46.6519
G01 X-60.1584 Y-46.6636
G01 X-60.2357 Y-46.6830
G01 X-60.3107 Y-46.7098
G01 X-60.3828 Y-46.7439
G01 X-60.4511 Y-46.7848
G01 X-60.5151 Y-46.8323
G01 X-60.5742 Y-46.8858
G01 X-60.6277 Y-46.9449
G01 X-60.6752 Y-47.0089
G01 X-60.7161 Y-47.0772
G01 X-60.7502 Y-47.1493
G01 X-60.7770 Y-47.2243
G01 X-60.7964 Y-47.3016
G01 X-60.8081 Y-47.3804
G01 X-60.8119 Y-47.4575
G00 Z1.4000
G00 X-60.8968 Y-49.9934
G01 F60.00
G01 Z0.0000
G01 F120.00
G01 X-60.8968 Y-50.0066
G01 X-60.8927 Y-50.0879
G01 X-60.8798 Y-50.1750
G01 X-60.8584 Y-50.2604
G01 X-60.8287 Y-50.3433
G01 X-60.7911 Y-50.4228
G01 X-60.7458 Y-50.4983
G01 X-60.6934 Y-50.5691
G01 X-60.6343 Y-50.6343
G01 X-60.5691 Y-50.6934
G01 X-60.4983 Y-50.7458
G01 X-60.4228 Y-50.7911
G01 X-60.3433 Y-50.8287
G01 X-60.2604 Y-50.8584
G01 X-60.1750 Y-50.8798
G01 X-60.0879 Y-50.8927
G01 X-60.0000 Y-50.8970
G01 X-59.9121 Y-50.8927
G01 X-59.8250 Y-50.8798
G01 X-59.7396 Y-50.8584
G01 X-59.6567 Y-50.8287
G01 X-59.5772 Y-50.7911
G01 X-59.5017 Y-50.7458
G01 X-59.4309 Y-50.6934
G01 X-59.3657 Y-50.6343
G01 X-59.3066 Y-50.5691
G01 X-59.2542 Y-50.4983
G01 X-59.2089 Y-50.4228
G01 X-59.1713 Y-50.3433
G01 X-59.1416 Y-50.2604
G01 X-59.1202 Y-50.1750
G01 X-59.1073 Y-50.0879
G01 X-59.1030 Y-50.0000
G01 X-59.1073 Y-49.9121
G01 X-59.1202 Y-49.8250
G01 X-59.1416 Y-49.7396
G01 X-59.1713 Y-49.6567
G01 X-59.2089 Y-49.5772
G01 X-59.2542 Y-49.5017
G01 X-59.3066 Y-49.4309
G01 X-59.3657 Y-49.3657
G01 X-59.4309 Y-49.3066
G01 X-59.5017 Y-49.2542
G01 X-59.5772 Y-49.2089
G01 X-59.6567 Y-49.1713
G01 X-59.7396 Y-49.1416
G01 X-59.8250 Y-49.1202
G01 X-59.9121 Y-49.1073
G01 X-60.0000 Y-49.1030
G01 X-60.0879 Y-49.1073
G01 X-60.1750 Y-49.1202
G01 X-60.2604 Y-49.1416
G01 X-60.3433 Y-49.1713
G01 X-60.4228 Y-49.2089
G01 X-60.4983 Y-49.2542
G01 X-60.5691 Y-49.3066
G01 X-60.6343 Y-49.3657
G01 X-60.6934 Y-49.4309
G01 X-60.7458 Y-49.5017
G01 X-60.7911 Y-49.5772
G01 X-60.8287 Y-49.6567
G01 X-60.8584 Y-49.7396
G01 X-60.8798 Y-49.8250
G01 X-60.8927 Y-49.9121
G01 X-60.8968 Y-49.9934
G00 Z1.4000
G00 X-60.8119 Y-49.9975
G01 F60.00
G01 Z0.0000
G01 F120.00
G01 X-60.8081 Y-50.0796
G01 X-60.7964 Y-50.1584
G01 X-60.7770 Y-50.2357
G01 X-60.7502 Y-50.3107
G01 X-60.7161 Y-50.3828
G01 X-60.6752 Y-50.4511
G01 X-60.6277 Y-50.5151
G01 X-60.5742 Y-50.5742
G01 X-60.5151 Y-50.6277
G01 X-60.4511 Y-50.6752
G01 X-60.3828 Y-50.7161
G01 X-60.3107 Y-50.7502
G01 X-60.2357 Y-50.7770
G01 X-60.1584 Y-50.7964
G01 X-60.0796 Y-50.8081
G01 X-60.0000 Y-50.8120
G01 X-59.9204 Y-50.8081
G01 X-59.8416 Y-50.7964
G01 X-59.7643 Y-50.7770
G01 X-59.6893 Y-50.7502
G01 X-59.6172 Y-50.7161
G01 X-59.5489 Y-50.6752
G01 X-59.4849 Y-50.6277
G01 X-59.4258 Y-50.5742
G01 X-59.3723 Y-50.5151
G01 X-59.3248 Y-50.4511
G01 X-59.2839 Y-50.3828
G01 X-59.2498 Y-50.3107
G01 X-59.2230 Y-50.2357
G01 X-59.2036 Y-50.1584
G01 X-59.1919 Y-50.0796
G01 X-59.1880 Y-50.0000
G01 X-59.1919 Y-49.9204
G01 X-59.2036 Y-49.8416
G01 X-59.2230 Y-49.7643
G01 X-59.2498 Y-49.6893
G01 X-59.2839 Y-49.6172
G01 X-59.3248 Y-49.5489
G01 X-59.3723 Y-49.4849
G01 X-59.4258 Y-49.4258
G01 X-59.4849 Y-49.3723
G01 X-59.5489 Y-49.3248
G01 X-59.6172 Y-49.2839
G01 X-59.6893 Y-49.2498
G01 X-59.7643 Y-49.2230
G01 X-59.8416 Y-49.2036
G01 X-59.9204 Y-49.1919
G01 X-60.0000 Y-49.1880
G01 X-60.0796 Y-49.1919
G01 X-60.1584 Y-49.2036
G01 X-60.2357 Y-49.2230
G01 X-60.3107 Y-49.2498
G01 X-60.3828 Y-49.2839
G01 X-60.4511 Y-49.3248
G01 X-60.5151 Y-49.3723
G01 X-60.5742 Y-49.4258
G01 X-60.6277 Y-49.4849
G01 X-60.6752 Y-49.5489
G01 X-60.7161 Y-49.6172
G01 X-60.7502 Y-49.6893
G01 X-60.7770 Y-49.7643
G01 X-60.7964 Y-49.8416
G01 X-60.8081 Y-49.9204
G01 X-60.8119 Y-49.9975
G00 Z1.4000
G00 X-60.8968 Y-52.5334
G01 F60.00
G01 Z0.0000
G01 F120.00
G01 X-60.8968 Y-52.5466
G01 X-60.8927 Y-52.6279
G01 X-60.8798 Y-52.7150
G01 X-60.8584 Y-52.8004
G01 X-60.8287 Y-52.8833
G01 X-60.7911 Y-52.9628
G01 X-60.7458 Y-53.0383
G01 X-60.6934 Y-53.1091
G01 X-60.6343 Y-53.1743
G01 X-60.5691 Y-53.2334
G01 X-60.4983 Y-53.2858
G01 X-60.4228 Y-53.3311
G01 X-60.3433 Y-53.3687
G01 X-60.2604 Y-53.3984
G01 X-60.1750 Y-53.4198
G01 X-60.0879 Y-53.4327
G01 X-60.0000 Y-53.4370
G01 X-59.9121 Y-53.4327
G01 X-59.8250 Y-53.4198
G01 X-59.7396 Y-53.3984
G01 X-59.6567 Y-53.3687
G01 X-59.5772 Y-53.3311
G01 X-59.5017 Y-53.2858
G01 X-59.4309 Y-53.2334
G01 X-59.3657 Y-53.1743
G01 X-59.3066 Y-53.1091
G01 X-59.2542 Y-53.0383
G01 X-59.2089 Y-52.9628
G01 X-59.1713 Y-52.8833
G01 X-59.1416 Y-52.8004
G01 X-59.1202 Y-52.7150
G01 X-59.1073 Y-52.6279
G01 X-59.1030 Y-52.5400
G01 X-59.1073 Y-52.4521
G01 X-59.1202 Y-52.3650
G01 X-59.1416 Y-52.2796
G01 X-59.1713 Y-52.1967
G01 X-59.2089 Y-52.1172
G01 X-59.2542 Y-52.0417
G01 X-59.3066 Y-51.9709
G01 X-59.3657 Y-51.9057
G01 X-59.4309 Y-51.8466
G01 X-59.5017 Y-51.7942
G01 X-59.5772 Y-51.7489
G01 X-59.6567 Y-51.7113
G01 X-59.7396 Y-51.6816
G01 X-59.8250 Y-51.6602
G01 X-59.9121 Y-51.6473
G01 X-60.0000 Y-51.6430
G01 X-60.0879 Y-51.6473
G01 X-60.1750 Y-51.6602
G01 X-60.2604 Y-51.6816
G01 X-60.3433 Y-51.7113
G01 X-60.4228 Y-51.7489
G01 X-60.4983 Y-51.7942
G01 X-60.5691 Y-51.8466
G01 X-60.6343 Y-51.9057
G01 X-60.6934 Y-51.9709
G01 X-60.7458 Y-52.0417
G01 X-60.7911 Y-52.1172
G01 X-60.8287 Y-52.1967
G01 X-60.8584 Y-52.2796
G01 X-60.8798 Y-52.3650
G01 X-60.8927 Y-52.4521
G01 X-60.8968 Y-52.5334
G00 Z1.4000
G00 X-60.8119 Y-52.5375
G01 F60.00
G01 Z0.0000
G01 F120.00
G01 X-60.8081 Y-52.6196
G01 X-60.7964 Y-52.6984
G01 X-60.7770 Y-52.7757
G01 X-60.7502 Y-52.8507
G01 X-60.7161 Y-52.9228
G01 X-60.6752 Y-52.9911
G01 X-60.6277 Y-53.0551
G01 X-60.5742 Y-53.1142
G01 X-60.5151 Y-53.1677
G01 X-60.4511 Y-53.2152
G01 X-60.3828 Y-53.2561
G01 X-60.3107 Y-53.2902
G01 X-60.2357 Y-53.3170
G01 X-60.1584 Y-53.3364
G01 X-60.0796 Y-53.3481
G01 X-60.0000 Y-53.3520
G01 X-59.9204 Y-53.3481
G01 X-59.8416 Y-53.3364
G01 X-59.7643 Y-53.3170
G01 X-59.6893 Y-53.2902
G01 X-59.6172 Y-53.2561
G01 X-59.5489 Y-53.2152
G01 X-59.4849 Y-53.1677
G01 X-59.4258 Y-53.1142
G01 X-59.3723 Y-53.0551
G01 X-59.3248 Y-52.9911
G01 X-59.2839 Y-52.9228
G01 X-59.2498 Y-52.8507
G01 X-59.2230 Y-52.7757
G01 X-59.2036 Y-52.6984
G01 X-59.1919 Y-52.6196
G01 X-59.1880 Y-52.5400
G01 X-59.1919 Y-52.4604
G01 X-59.2036 Y-52.3816
G01 X-59.2230 Y-52.3043
G01 X-59.2498 Y-52.2293
G01 X-59.2839 Y-52.1572
G01 X-59.3248 Y-52.0889
G01 X-59.3723 Y-52.0249
G01 X-59.4258 Y-51.9658
G01 X-59.4849 Y-51.9123
G01 X-59.5489 Y-51.8648
G01 X-59.6172 Y-51.8239
G01 X-59.6893 Y-51.7898
G01 X-59.7643 Y-51.7630
G01 X-59.8416 Y-51.7436
G01 X-59.9204 Y-51.7319
G01 X-60.0000 Y-51.7280
G01 X-60.0796 Y-51.7319
G01 X-60.1584 Y-51.7436
G01 X-60.2357 Y-51.7630
G01 X-60.3107 Y-51.7898
G01 X-60.3828 Y-51.8239
G01 X-60.4511 Y-51.8648
G01 X-60.5151 Y-51.9123
G01 X-60.5742 Y-51.9658
G01 X-60.6277 Y-52.0249
G01 X-60.6752 Y-52.0889
G01 X-60.7161 Y-52.1572
G01 X-60.7502 Y-52.2293
G01 X-60.7770 Y-52.3043
G01 X-60.7964 Y-52.3816
G01 X-60.8081 Y-52.4604
G01 X-60.8119 Y-52.5375
G00 Z1.4000
G00 X-56.4348 Y-60.2984
G01 F60.00
G01 Z0.0000
G01 F120.00
G01 X-56.4348 Y-60.3116
G01 X-56.4281 Y-60.4457
G01 X-56.4074 Y-60.5850
G01 X-56.3732 Y-60.7216
G01 X-56.3258 Y-60.8542
G01 X-56.2656 Y-60.9815
G01 X-56.1932 Y-61.1022
G01 X-56.1093 Y-61.2154
G01 X-56.0147 Y-61.3197
G01 X-55.9104 Y-61.4143
G01 X-55.7972 Y-61.4982
G01 X-55.6765 Y-61.5706
G01 X-55.5492 Y-61.6308
G01 X-55.4166 Y-61.6782
G01 X-55.2800 Y-61.7124
G01 X-55.1407 Y-61.7331
G01 X-55.0000 Y-61.7400
G01 X-54.8593 Y-61.7331
G01 X-54.7200 Y-61.7124
G01 X-54.5834 Y-61.6782
G01 X-54.4508 Y-61.6308
G01 X-54.3235 Y-61.5706
G01 X-54.2028 Y-61.4982
G01 X-54.0896 Y-61.4143
G01 X-53.9853 Y-61.3197
G01 X-53.8907 Y-61.2154
G01 X-53.8068 Y-61.1022
G01 X-53.7344 Y-60.9815
G01 X-53.6742 Y-60.8542
G01 X-53.6268 Y-60.7216
G01 X-53.5926 Y-60.5850
G01 X-53.5719 Y-60.4457
G01 X-53.5650 Y-60.3050
G01 X-53.5719 Y-60.1643
G01 X-53.5926 Y-60.0250
G01 X-53.6268 Y-59.8884
G01 X-53.6742 Y-59.7558
G01 X-53.7344 Y-59.6285
G01 X-53.8068 Y-59.5078
G01 X-53.8907 Y-59.3946
G01 X-53.9853 Y-59.2903
G01 X-54.0896 Y-59.1957
G01 X-54.2028 Y-59.1118
G01 X-54.3235 Y-59.0394
G01 X-54.4508 Y-58.9792
G01 X-54.5834 Y-58.9318
G01 X-54.7200 Y-58.8976
G01 X-54.8593 Y-58.8769
G01 X-55.0000 Y-58.8700
G01 X-55.1407 Y-58.8769
G01 X-55.2800 Y-58.8976
G01 X-55.4166 Y-58.9318
G01 X-55.5492 Y-58.9792
G01 X-55.6765 Y-59.0394
G01 X-55.7972 Y-59.1118
G01 X-55.9104 Y-59.1957
G01 X-56.0147 Y-59.2903
G01 X-56.1093 Y-59.3946
G01 X-56.1932 Y-59.5078
G01 X-56.2656 Y-59.6285
G01 X-56.3258 Y-59.7558
G01 X-56.3732 Y-59.8884
G01 X-56.4074 Y-60.0250
G01 X-56.4281 Y-60.1643
G01 X-56.4348 Y-60.2984
G00 Z1.4000
G00 X-56.3499 Y-60.3025
G01 F60.00
G01 Z0.0000
G01 F120.00
G01 X-56.3435 Y-60.4373
G01 X-56.3241 Y-60.5684
G01 X-56.2919 Y-60.6969
G01 X-56.2472 Y-60.8216
G01 X-56.1906 Y-60.9414
G01 X-56.1225 Y-61.0550
G01 X-56.0436 Y-61.1614
G01 X-55.9546 Y-61.2596
G01 X-55.8564 Y-61.3486
G01 X-55.7500 Y-61.4275
G01 X-55.6364 Y-61.4956
G01 X-55.5166 Y-61.5522
G01 X-55.3919 Y-61.5969
G01 X-55.2634 Y-61.6291
G01 X-55.1323 Y-61.6485
G01 X-55.0000 Y-61.6550
G01 X-54.8677 Y-61.6485
G01 X-54.7366 Y-61.6291
G01 X-54.6081 Y-61.5969
G01 X-54.4834 Y-61.5522
G01 X-54.3636 Y-61.4956
G01 X-54.2500 Y-61.4275
G01 X-54.1436 Y-61.3486
G01 X-54.0454 Y-61.2596
G01 X-53.9564 Y-61.1614
G01 X-53.8775 Y-61.0550
G01 X-53.8094 Y-60.9414
G01 X-53.7528 Y-60.8216
G01 X-53.7081 Y-60.6969
G01 X-53.6759 Y-60.5684
G01 X-53.6565 Y-60.4373
G01 X-53.6500 Y-60.3050
G01 X-53.6565 Y-60.1727
G01 X-53.6759 Y-60.0416
G01 X-53.7081 Y-59.9131
G01 X-53.7528 Y-59.7884
G01 X-53.8094 Y-59.6686
G01 X-53.8775 Y-59.5550
G01 X-53.9564 Y-59.4486
G01 X-54.0454 Y-59.3504
G01 X-54.1436 Y-59.2614
G01 X-54.2500 Y-59.1825
G01 X-54.3636 Y-59.1144
G01 X-54.4834 Y-59.0578
G01 X-54.6081 Y-59.0131
G01 X-54.7366 Y-58.9809
G01 X-54.8677 Y-58.9615
G01 X-55.0000 Y-58.9550
G01 X-55.1323 Y-58.9615
G01 X-55.2634 Y-58.9809
G01 X-55.3919 Y-59.0131
G01 X-55.5166 Y-59.0578
G01 X-55.6364 Y-59.1144
G01 X-55.7500 Y-59.1825
G01 X-55.8564 Y-59.2614
G01 X-55.9546 Y-59.3504
G01 X-56.0436 Y-59.4486
G01 X-56.1225 Y-59.5550
G01 X-56.1906 Y-59.6686
G01 X-56.2472 Y-59.7884
G01 X-56.2919 Y-59.9131
G01 X-56.3241 Y-60.0416
G01 X-56.3435 Y-60.1727
G01 X-56.3499 Y-60.3025
G00 Z1.4000
G00 X-63.6499 Y-60.9975
G01 F60.00
G01 Z0.0000
G01 F120.00
G01 X-63.6421 Y-61.1617
G01 X-63.6183 Y-61.3219
G01 X-63.5790 Y-61.4790
G01 X-63.5244 Y-61.6314
G01 X-63.4552 Y-61.7778
G01 X-63.3719 Y-61.9167
G01 X-63.2755 Y-62.0467
G01 X-63.1667 Y-62.1667
G01 X-63.0467 Y-62.2755
G01 X-62.9167 Y-62.3719
G01 X-62.7778 Y-62.4552
G01 X-62.6314 Y-62.5244
G01 X-62.4790 Y-62.5790
G01 X-62.3219 Y-62.6183
G01 X-62.1617 Y-62.6421
G01 X-62.0000 Y-62.6500
G01 X-61.8383 Y-62.6421
G01 X-61.6781 Y-62.6183
G01 X-61.5210 Y-62.5790
G01 X-61.3686 Y-62.5244
G01 X-61.2222 Y-62.4552
G01 X-61.0833 Y-62.3719
G01 X-60.9533 Y-62.2755
G01 X-60.8333 Y-62.1667
G01 X-60.7245 Y-62.0467
G01 X-60.6281 Y-61.9167
G01 X-60.5448 Y-61.7778
G01 X-60.4756 Y-61.6314
G01 X-60.4210 Y-61.4790
G01 X-60.3817 Y-61.3219
G01 X-60.3579 Y-61.1617
G01 X-60.3500 Y-61.0000
G01 X-60.3579 Y-60.8383
G01 X-60.3817 Y-60.6781
G01 X-60.4210 Y-60.5210
G01 X-60.4756 Y-60.3686
G01 X-60.5448 Y-60.2222
G01 X-60.6281 Y-60.0833
G01 X-60.7245 Y-59.9533
G01 X-60.8333 Y-59.8333
G01 X-60.9533 Y-59.7245
G01 X-61.0833 Y-59.6281
G01 X-61.2222 Y-59.5448
G01 X-61.3686 Y-59.4756
G01 X-61.5210 Y-59.4210
G01 X-61.6781 Y-59.3817
G01 X-61.8383 Y-59.3579
G01 X-62.0000 Y-59.3500
G01 X-62.1617 Y-59.3579
G01 X-62.3219 Y-59.3817
G01 X-62.4790 Y-59.4210
G01 X-62.6314 Y-59.4756
G01 X-62.7778 Y-59.5448
G01 X-62.9167 Y-59.6281
G01 X-63.0467 Y-59.7245
G01 X-63.1667 Y-59.8333
G01 X-63.2755 Y-59.9533
G01 X-63.3719 Y-60.0833
G01 X-63.4552 Y-60.2222
G01 X-63.5244 Y-60.3686
G01 X-63.5790 Y-60.5210
G01 X-63.6183 Y-60.6781
G01 X-63.6421 Y-60.8383
G01 X-63.6499 Y-60.9975
G00 Z1.4000
G00 X-63.7348 Y-60.9934
G01 F60.00
G01 Z0.0000
G01 F120.00
G01 X-63.7348 Y-61.0066
G01 X-63.7266 Y-61.1701
G01 X-63.7017 Y-61.3385
G01 X-63.6603 Y-61.5036
G01 X-63.6029 Y-61.6640
G01 X-63.5301 Y-61.8179
G01 X-63.4426 Y-61.9639
G01 X-63.3412 Y-62.1007
G01 X-63.2268 Y-62.2268
G01 X-63.1007 Y-62.3412
G01 X-62.9639 Y-62.4426
G01 X-62.8179 Y-62.5301
G01 X-62.6640 Y-62.6029
G01 X-62.5036 Y-62.6603
G01 X-62.3385 Y-62.7017
G01 X-62.1701 Y-62.7266
G01 X-62.0000 Y-62.7350
G01 X-61.8299 Y-62.7266
G01 X-61.6615 Y-62.7017
G01 X-61.4964 Y-62.6603
G01 X-61.3360 Y-62.6029
G01 X-61.1821 Y-62.5301
G01 X-61.0361 Y-62.4426
G01 X-60.8993 Y-62.3412
G01 X-60.7732 Y-62.2268
G01 X-60.6588 Y-62.1007
G01 X-60.5574 Y-61.9639
G01 X-60.4699 Y-61.8179
G01 X-60.3971 Y-61.6640
G01 X-60.3397 Y-61.5036
G01 X-60.2983 Y-61.3385
G01 X-60.2734 Y-61.1701
G01 X-60.2650 Y-61.0000
G01 X-60.2734 Y-60.8299
G01 X-60.2983 Y-60.6615
G01 X-60.3397 Y-60.4964
G01 X-60.3971 Y-60.3360
G01 X-60.4699 Y-60.1821
G01 X-60.5574 Y-60.0361
G01 X-60.6588 Y-59.8993
G01 X-60.7732 Y-59.7732
G01 X-60.8993 Y-59.6588
G01 X-61.0361 Y-59.5574
G01 X-61.1821 Y-59.4699
G01 X-61.3360 Y-59.3971
G01 X-61.4964 Y-59.3397
G01 X-61.6615 Y-59.2983
G01 X-61.8299 Y-59.2734
G01 X-62.0000 Y-59.2650
G01 X-62.1701 Y-59.2734
G01 X-62.3385 Y-59.2983
G01 X-62.5036 Y-59.3397
G01 X-62.6640 Y-59.3971
G01 X-62.8179 Y-59.4699
G01 X-62.9639 Y-59.5574
G01 X-63.1007 Y-59.6588
G01 X-63.2268 Y-59.7732
G01 X-63.3412 Y-59.8993
G01 X-63.4426 Y-60.0361
G01 X-63.5301 Y-60.1821
G01 X-63.6029 Y-60.3360
G01 X-63.6603 Y-60.4964
G01 X-63.7017 Y-60.6615
G01 X-63.7266 Y-60.8299
G01 X-63.7348 Y-60.9934
G00 Z1.4000
G00 X-48.7000 Y-61.6550
G01 F60.00
G01 Z0.0000
G01 F120.00
G01 X-48.6902 Y-61.6540
G01 X-48.6809 Y-61.6512
G01 X-48.6722 Y-61.6466
G01 X-48.6646 Y-61.6404
G01 X-48.6584 Y-61.6328
G01 X-48.6538 Y-61.6241
G01 X-48.6510 Y-61.6148
G01 X-48.6500 Y-61.6062
G01 X-48.6500 Y-59.0050
G01 X-48.6510 Y-58.9952
G01 X-48.6538 Y-58.9859
G01 X-48.6584 Y-58.9772
G01 X-48.6646 Y-58.9696
G01 X-48.6722 Y-58.9634
G01 X-48.6809 Y-58.9588
G01 X-48.6902 Y-58.9560
G01 X-48.7000 Y-58.9550
G01 X-51.3000 Y-58.9550
G01 X-51.3098 Y-58.9560
G01 X-51.3191 Y-58.9588
G01 X-51.3278 Y-58.9634
G01 X-51.3354 Y-58.9696
G01 X-51.3416 Y-58.9772
G01 X-51.3462 Y-58.9859
G01 X-51.3490 Y-58.9952
G01 X-51.3500 Y-59.0050
G01 X-51.3500 Y-61.6050
G01 X-51.3490 Y-61.6148
G01 X-51.3462 Y-61.6241
G01 X-51.3416 Y-61.6328
G01 X-51.3354 Y-61.6404
G01 X-51.3278 Y-61.6466
G01 X-51.3191 Y-61.6512
G01 X-51.3098 Y-61.6540
G01 X-51.3000 Y-61.6550
G01 X-48.7000 Y-61.6550
G00 Z1.4000
G00 X-48.7000 Y-61.7400
G01 F60.00
G01 Z0.0000
G01 F120.00
G01 X-48.6901 Y-61.7396
G01 X-48.6769 Y-61.7380
G01 X-48.6640 Y-61.7351
G01 X-48.6514 Y-61.7310
G01 X-48.6393 Y-61.7256
G01 X-48.6278 Y-61.7191
G01 X-48.6169 Y-61.7114
G01 X-48.6069 Y-61.7028
G01 X-48.5978 Y-61.6932
G01 X-48.5896 Y-61.6827
G01 X-48.5825 Y-61.6715
G01 X-48.5766 Y-61.6597
G01 X-48.5718 Y-61.6473
G01 X-48.5683 Y-61.6346
G01 X-48.5660 Y-61.6215
G01 X-48.5650 Y-61.6083
G01 X-48.5650 Y-59.0017
G01 X-48.5660 Y-58.9885
G01 X-48.5683 Y-58.9754
G01 X-48.5708 Y-58.9658
G01 X-48.5753 Y-58.9533
G01 X-48.5794 Y-58.9443
G01 X-48.5859 Y-58.9328
G01 X-48.5936 Y-58.9219
G01 X-48.6022 Y-58.9119
G01 X-48.6118 Y-58.9028
G01 X-48.6223 Y-58.8946
G01 X-48.6335 Y-58.8875
G01 X-48.6453 Y-58.8816
G01 X-48.6577 Y-58.8768
G01 X-48.6704 Y-58.8733
G01 X-48.6868 Y-58.8707
G01 X-48.7000 Y-58.8700
G01 X-51.3033 Y-58.8700
G01 X-51.3165 Y-58.8710
G01 X-51.3296 Y-58.8733
G01 X-51.3392 Y-58.8758
G01 X-51.3517 Y-58.8803
G01 X-51.3636 Y-58.8859
G01 X-51.3750 Y-58.8928
G01 X-51.3831 Y-58.8986
G01 X-51.3931 Y-58.9072
G01 X-51.4022 Y-58.9168
G01 X-51.4104 Y-58.9273
G01 X-51.4191 Y-58.9414
G01 X-51.4247 Y-58.9533
G01 X-51.4292 Y-58.9658
G01 X-51.4324 Y-58.9787
G01 X-51.4343 Y-58.9918
G01 X-51.4350 Y-59.0050
G01 X-51.4350 Y-61.6083
G01 X-51.4340 Y-61.6215
G01 X-51.4317 Y-61.6346
G01 X-51.4292 Y-61.6442
G01 X-51.4247 Y-61.6567
G01 X-51.4191 Y-61.6686
G01 X-51.4122 Y-61.6800
G01 X-51.4064 Y-61.6881
G01 X-51.3978 Y-61.6981
G01 X-51.3882 Y-61.7072
G01 X-51.3777 Y-61.7154
G01 X-51.3665 Y-61.7225
G01 X-51.3547 Y-61.7284
G01 X-51.3423 Y-61.7332
G01 X-51.3296 Y-61.7367
G01 X-51.3165 Y-61.7390
G01 X-51.3033 Y-61.7400
G01 X-48.7000 Y-61.7400
G00 Z1.4000
G00 X-42.6900 Y-61.9000
G01 F60.00
G01 Z0.0000
G01 F120.00
G01 X-42.6802 Y-61.8990
G01 X-42.6720 Y-61.8966
G01 X-42.6633 Y-61.8922
G01 X-42.6555 Y-61.8862
G01 X-42.6491 Y-61.8788
G01 X-42.6443 Y-61.8703
G01 X-42.6412 Y-61.8610
G01 X-42.6400 Y-61.8512
G01 X-42.6400 Y-60.1500
G01 X-42.6410 Y-60.1402
G01 X-42.6438 Y-60.1309
G01 X-42.6484 Y-60.1222
G01 X-42.6538 Y-60.1155
G01 X-42.6573 Y-60.1121
G01 X-42.6622 Y-60.1084
G01 X-42.6709 Y-60.1038
G01 X-42.6802 Y-60.1010
G01 X-42.6900 Y-60.1000
G01 X-44.3900 Y-60.1000
G01 X-44.3998 Y-60.1010
G01 X-44.4091 Y-60.1038
G01 X-44.4167 Y-60.1078
G01 X-44.4245 Y-60.1138
G01 X-44.4309 Y-60.1212
G01 X-44.4335 Y-60.1254
G01 X-44.4362 Y-60.1309
G01 X-44.4390 Y-60.1402
G01 X-44.4400 Y-60.1500
G01 X-44.4400 Y-61.8500
G01 X-44.4390 Y-61.8598
G01 X-44.4362 Y-61.8691
G01 X-44.4322 Y-61.8767
G01 X-44.4262 Y-61.8845
G01 X-44.4188 Y-61.8909
G01 X-44.4146 Y-61.8935
G01 X-44.4091 Y-61.8962
G01 X-44.3998 Y-61.8990
G01 X-44.3900 Y-61.9000
G01 X-42.6900 Y-61.9000
G00 Z1.4000
G00 X-42.6900 Y-61.9850
G01 F60.00
G01 Z0.0000
G01 F120.00
G01 X-42.6768 Y-61.9843
G01 X-42.6637 Y-61.9824
G01 X-42.6508 Y-61.9792
G01 X-42.6383 Y-61.9747
G01 X-42.6264 Y-61.9691
G01 X-42.6178 Y-61.9641
G01 X-42.6069 Y-61.9564
G01 X-42.5969 Y-61.9478
G01 X-42.5878 Y-61.9382
G01 X-42.5796 Y-61.9277
G01 X-42.5725 Y-61.9165
G01 X-42.5666 Y-61.9047
G01 X-42.5618 Y-61.8923
G01 X-42.5590 Y-61.8828
G01 X-42.5565 Y-61.8698
G01 X-42.5552 Y-61.8566
G01 X-42.5550 Y-60.1467
G01 X-42.5560 Y-60.1335
G01 X-42.5576 Y-60.1237
G01 X-42.5608 Y-60.1108
G01 X-42.5640 Y-60.1014
G01 X-42.5694 Y-60.0893
G01 X-42.5759 Y-60.0778
G01 X-42.5836 Y-60.0669
G01 X-42.5900 Y-60.0593
G01 X-42.6018 Y-60.0478
G01 X-42.6123 Y-60.0396
G01 X-42.6235 Y-60.0325
G01 X-42.6353 Y-60.0266
G01 X-42.6477 Y-60.0218
G01 X-42.6637 Y-60.0176
G01 X-42.6768 Y-60.0157
G01 X-42.6900 Y-60.0150
G01 X-44.3933 Y-60.0150
G01 X-44.4065 Y-60.0160
G01 X-44.4163 Y-60.0176
G01 X-44.4292 Y-60.0208
G01 X-44.4386 Y-60.0240
G01 X-44.4507 Y-60.0294
G01 X-44.4622 Y-60.0359
G01 X-44.4731 Y-60.0436
G01 X-44.4807 Y-60.0500
G01 X-44.4922 Y-60.0618
G01 X-44.5004 Y-60.0723
G01 X-44.5075 Y-60.0835
G01 X-44.5134 Y-60.0953
G01 X-44.5192 Y-60.1108
G01 X-44.5224 Y-60.1237
G01 X-44.5243 Y-60.1368
G01 X-44.5250 Y-60.1500
G01 X-44.5250 Y-61.8533
G01 X-44.5240 Y-61.8665
G01 X-44.5224 Y-61.8763
G01 X-44.5192 Y-61.8892
G01 X-44.5160 Y-61.8986
G01 X-44.5106 Y-61.9107
G01 X-44.5041 Y-61.9222
G01 X-44.4964 Y-61.9331
G01 X-44.4900 Y-61.9407
G01 X-44.4807 Y-61.9500
G01 X-44.4704 Y-61.9584
G01 X-44.4594 Y-61.9658
G01 X-44.4477 Y-61.9720
G01 X-44.4355 Y-61.9771
G01 X-44.4228 Y-61.9810
G01 X-44.4098 Y-61.9835
G01 X-44.3933 Y-61.9850
G01 X-42.6900 Y-61.9850
G00 Z1.4000
G00 X-41.0066 Y-61.9848
G01 F60.00
G01 Z0.0000
G01 F120.00
G01 X-40.9934 Y-61.9848
G01 X-40.9035 Y-61.9803
G01 X-40.8078 Y-61.9661
G01 X-40.7141 Y-61.9426
G01 X-40.6231 Y-61.9100
G01 X-40.5357 Y-61.8687
G01 X-40.4528 Y-61.8190
G01 X-40.3751 Y-61.7614
G01 X-40.3035 Y-61.6965
G01 X-40.2386 Y-61.6249
G01 X-40.1810 Y-61.5472
G01 X-40.1313 Y-61.4643
G01 X-40.0900 Y-61.3769
G01 X-40.0574 Y-61.2859
G01 X-40.0339 Y-61.1922
G01 X-40.0197 Y-61.0965
G01 X-40.0150 Y-61.0000
G01 X-40.0197 Y-60.9035
G01 X-40.0339 Y-60.8078
G01 X-40.0574 Y-60.7141
G01 X-40.0900 Y-60.6231
G01 X-40.1313 Y-60.5357
G01 X-40.1810 Y-60.4528
G01 X-40.2386 Y-60.3751
G01 X-40.3035 Y-60.3035
G01 X-40.3751 Y-60.2386
G01 X-40.4528 Y-60.1810
G01 X-40.5357 Y-60.1313
G01 X-40.6231 Y-60.0900
G01 X-40.7141 Y-60.0574
G01 X-40.8078 Y-60.0339
G01 X-40.9035 Y-60.0197
G01 X-41.0000 Y-60.0150
G01 X-41.0965 Y-60.0197
G01 X-41.1922 Y-60.0339
G01 X-41.2859 Y-60.0574
G01 X-41.3769 Y-60.0900
G01 X-41.4643 Y-60.1313
G01 X-41.5472 Y-60.1810
G01 X-41.6249 Y-60.2386
G01 X-41.6965 Y-60.3035
G01 X-41.7614 Y-60.3751
G01 X-41.8190 Y-60.4528
G01 X-41.8687 Y-60.5357
G01 X-41.9100 Y-60.6231
G01 X-41.9426 Y-60.7141
G01 X-41.9661 Y-60.8078
G01 X-41.9803 Y-60.9035
G01 X-41.9850 Y-61.0000
G01 X-41.9803 Y-61.0965
G01 X-41.9661 Y-61.1922
G01 X-41.9426 Y-61.2859
G01 X-41.9100 Y-61.3769
G01 X-41.8687 Y-61.4643
G01 X-41.8190 Y-61.5472
G01 X-41.7614 Y-61.6249
G01 X-41.6965 Y-61.6965
G01 X-41.6249 Y-61.7614
G01 X-41.5472 Y-61.8190
G01 X-41.4643 Y-61.8687
G01 X-41.3769 Y-61.9100
G01 X-41.2859 Y-61.9426
G01 X-41.1922 Y-61.9661
G01 X-41.0965 Y-61.9803
G01 X-41.0066 Y-61.9848
G00 Z1.4000
G00 X-41.0025 Y-61.8999
G01 F60.00
G01 Z0.0000
G01 F120.00
G01 X-40.9118 Y-61.8957
G01 X-40.8244 Y-61.8827
G01 X-40.7387 Y-61.8612
G01 X-40.6556 Y-61.8315
G01 X-40.5757 Y-61.7937
G01 X-40.5000 Y-61.7483
G01 X-40.4290 Y-61.6957
G01 X-40.3636 Y-61.6364
G01 X-40.3043 Y-61.5710
G01 X-40.2517 Y-61.5000
G01 X-40.2063 Y-61.4243
G01 X-40.1685 Y-61.3444
G01 X-40.1388 Y-61.2613
G01 X-40.1173 Y-61.1756
G01 X-40.1043 Y-61.0882
G01 X-40.1000 Y-61.0000
G01 X-40.1043 Y-60.9118
G01 X-40.1173 Y-60.8244
G01 X-40.1388 Y-60.7387
G01 X-40.1685 Y-60.6556
G01 X-40.2063 Y-60.5757
G01 X-40.2517 Y-60.5000
G01 X-40.3043 Y-60.4290
G01 X-40.3636 Y-60.3636
G01 X-40.4290 Y-60.3043
G01 X-40.5000 Y-60.2517
G01 X-40.5757 Y-60.2063
G01 X-40.6556 Y-60.1685
G01 X-40.7387 Y-60.1388
G01 X-40.8244 Y-60.1173
G01 X-40.9118 Y-60.1043
G01 X-41.0000 Y-60.1000
G01 X-41.0882 Y-60.1043
G01 X-41.1756 Y-60.1173
G01 X-41.2613 Y-60.1388
G01 X-41.3444 Y-60.1685
G01 X-41.4243 Y-60.2063
G01 X-41.5000 Y-60.2517
G01 X-41.5710 Y-60.3043
G01 X-41.6364 Y-60.3636
G01 X-41.6957 Y-60.4290
G01 X-41.7483 Y-60.5000
G01 X-41.7937 Y-60.5757
G01 X-41.8315 Y-60.6556
G01 X-41.8612 Y-60.7387
G01 X-41.8827 Y-60.8244
G01 X-41.8957 Y-60.9118
G01 X-41.9000 Y-61.0000
G01 X-41.8957 Y-61.0882
G01 X-41.8827 Y-61.1756
G01 X-41.8612 Y-61.2613
G01 X-41.8315 Y-61.3444
G01 X-41.7937 Y-61.4243
G01 X-41.7483 Y-61.5000
G01 X-41.6957 Y-61.5710
G01 X-41.6364 Y-61.6364
G01 X-41.5710 Y-61.6957
G01 X-41.5000 Y-61.7483
G01 X-41.4243 Y-61.7937
G01 X-41.3444 Y-61.8315
G01 X-41.2613 Y-61.8612
G01 X-41.1756 Y-61.8827
G01 X-41.0882 Y-61.8957
G01 X-41.0025 Y-61.8999
G00 Z1.4000
G00 X-38.4666 Y-61.9848
G01 F60.00
G01 Z0.0000
G01 F120.00
G01 X-38.4534 Y-61.9848
G01 X-38.3635 Y-61.9803
G01 X-38.2678 Y-61.9661
G01 X-38.1741 Y-61.9426
G01 X-38.0831 Y-61.9100
G01 X-37.9957 Y-61.8687
G01 X-37.9128 Y-61.8190
G01 X-37.8351 Y-61.7614
G01 X-37.7635 Y-61.6965
G01 X-37.6986 Y-61.6249
G01 X-37.6410 Y-61.5472
G01 X-37.5913 Y-61.4643
G01 X-37.5500 Y-61.3769
G01 X-37.5174 Y-61.2859
G01 X-37.4939 Y-61.1922
G01 X-37.4797 Y-61.0965
G01 X-37.4750 Y-61.0000
G01 X-37.4797 Y-60.9035
G01 X-37.4939 Y-60.8078
G01 X-37.5174 Y-60.7141
G01 X-37.5500 Y-60.6231
G01 X-37.5913 Y-60.5357
G01 X-37.6410 Y-60.4528
G01 X-37.6986 Y-60.3751
G01 X-37.7635 Y-60.3035
G01 X-37.8351 Y-60.2386
G01 X-37.9128 Y-60.1810
G01 X-37.9957 Y-60.1313
G01 X-38.0831 Y-60.0900
G01 X-38.1741 Y-60.0574
G01 X-38.2678 Y-60.0339
G01 X-38.3635 Y-60.0197
G01 X-38.4600 Y-60.0150
G01 X-38.5565 Y-60.0197
G01 X-38.6522 Y-60.0339
G01 X-38.7459 Y-60.0574
G01 X-38.8369 Y-60.0900
G01 X-38.9243 Y-60.1313
G01 X-39.0072 Y-60.1810
G01 X-39.0849 Y-60.2386
G01 X-39.1565 Y-60.3035
G01 X-39.2214 Y-60.3751
G01 X-39.2790 Y-60.4528
G01 X-39.3287 Y-60.5357
G01 X-39.3700 Y-60.6231
G01 X-39.4026 Y-60.7141
G01 X-39.4261 Y-60.8078
G01 X-39.4403 Y-60.9035
G01 X-39.4450 Y-61.0000
G01 X-39.4403 Y-61.0965
G01 X-39.4261 Y-61.1922
G01 X-39.4026 Y-61.2859
G01 X-39.3700 Y-61.3769
G01 X-39.3287 Y-61.4643
G01 X-39.2790 Y-61.5472
G01 X-39.2214 Y-61.6249
G01 X-39.1565 Y-61.6965
G01 X-39.0849 Y-61.7614
G01 X-39.0072 Y-61.8190
G01 X-38.9243 Y-61.8687
G01 X-38.8369 Y-61.9100
G01 X-38.7459 Y-61.9426
G01 X-38.6522 Y-61.9661
G01 X-38.5565 Y-61.9803
G01 X-38.4666 Y-61.9848
G00 Z1.4000
G00 X-38.4625 Y-61.8999
G01 F60.00
G01 Z0.0000
G01 F120.00
G01 X-38.3718 Y-61.8957
G01 X-38.2844 Y-61.8827
G01 X-38.1987 Y-61.8612
G01 X-38.1156 Y-61.8315
G01 X-38.0357 Y-61.7937
G01 X-37.9600 Y-61.7483
G01 X-37.8890 Y-61.6957
G01 X-37.8236 Y-61.6364
G01 X-37.7643 Y-61.5710
G01 X-37.7117 Y-61.5000
G01 X-37.6663 Y-61.4243
G01 X-37.6285 Y-61.3444
G01 X-37.5988 Y-61.2613
G01 X-37.5773 Y-61.1756
G01 X-37.5643 Y-61.0882
G01 X-37.5600 Y-61.0000
G01 X-37.5643 Y-60.9118
G01 X-37.5773 Y-60.8244
G01 X-37.5988 Y-60.7387
G01 X-37.6285 Y-60.6556
G01 X-37.6663 Y-60.5757
G01 X-37.7117 Y-60.5000
G01 X-37.7643 Y-60.4290
G01 X-37.8236 Y-60.3636
G01 X-37.8890 Y-60.3043
G01 X-37.9600 Y-60.2517
G01 X-38.0357 Y-60.2063
G01 X-38.1156 Y-60.1685
G01 X-38.1987 Y-60.1388
G01 X-38.2844 Y-60.1173
G01 X-38.3718 Y-60.1043
G01 X-38.4600 Y-60.1000
G01 X-38.5482 Y-60.1043
G01 X-38.6356 Y-60.1173
G01 X-38.7213 Y-60.1388
G01 X-38.8044 Y-60.1685
G01 X-38.8843 Y-60.2063
G01 X-38.9600 Y-60.2517
G01 X-39.0310 Y-60.3043
G01 X-39.0964 Y-60.3636
G01 X-39.1557 Y-60.4290
G01 X-39.2083 Y-60.5000
G01 X-39.2537 Y-60.5757
G01 X-39.2915 Y-60.6556
G01 X-39.3212 Y-60.7387
G01 X-39.3427 Y-60.8244
G01 X-39.3557 Y-60.9118
G01 X-39.3600 Y-61.0000
G01 X-39.3557 Y-61.0882
G01 X-39.3427 Y-61.1756
G01 X-39.3212 Y-61.2613
G01 X-39.2915 Y-61.3444
G01 X-39.2537 Y-61.4243
G01 X-39.2083 Y-61.5000
G01 X-39.1557 Y-61.5710
G01 X-39.0964 Y-61.6364
G01 X-39.0310 Y-61.6957
G01 X-38.9600 Y-61.7483
G01 X-38.8843 Y-61.7937
G01 X-38.8044 Y-61.8315
G01 X-38.7213 Y-61.8612
G01 X-38.6356 Y-61.8827
G01 X-38.5482 Y-61.8957
G01 X-38.4625 Y-61.8999
G00 Z1.4000
G00 X-34.9348 Y-59.9934
G01 F60.00
G01 Z0.0000
G01 F120.00
G01 X-34.9348 Y-60.0066
G01 X-34.9305 Y-60.0916
G01 X-34.9170 Y-60.1824
G01 X-34.8947 Y-60.2714
G01 X-34.8638 Y-60.3578
G01 X-34.8246 Y-60.4408
G01 X-34.7774 Y-60.5195
G01 X-34.7228 Y-60.5932
G01 X-34.6611 Y-60.6611
G01 X-34.5932 Y-60.7228
G01 X-34.5195 Y-60.7774
G01 X-34.4408 Y-60.8246
G01 X-34.3578 Y-60.8638
G01 X-34.2714 Y-60.8947
G01 X-34.1824 Y-60.9170
G01 X-34.0916 Y-60.9305
G01 X-34.0000 Y-60.9350
G01 X-33.9084 Y-60.9305
G01 X-33.8176 Y-60.9170
G01 X-33.7286 Y-60.8947
G01 X-33.6422 Y-60.8638
G01 X-33.5592 Y-60.8246
G01 X-33.4805 Y-60.7774
G01 X-33.4068 Y-60.7228
G01 X-33.3389 Y-60.6611
G01 X-33.2772 Y-60.5932
G01 X-33.2226 Y-60.5195
G01 X-33.1754 Y-60.4408
G01 X-33.1362 Y-60.3578
G01 X-33.1053 Y-60.2714
G01 X-33.0830 Y-60.1824
G01 X-33.0695 Y-60.0916
G01 X-33.0650 Y-60.0000
G01 X-33.0695 Y-59.9084
G01 X-33.0830 Y-59.8176
G01 X-33.1053 Y-59.7286
G01 X-33.1362 Y-59.6422
G01 X-33.1754 Y-59.5592
G01 X-33.2226 Y-59.4805
G01 X-33.2772 Y-59.4068
G01 X-33.3389 Y-59.3389
G01 X-33.4068 Y-59.2772
G01 X-33.4805 Y-59.2226
G01 X-33.5592 Y-59.1754
G01 X-33.6422 Y-59.1362
G01 X-33.7286 Y-59.1053
G01 X-33.8176 Y-59.0830
G01 X-33.9084 Y-59.0695
G01 X-34.0000 Y-59.0650
G01 X-34.0916 Y-59.0695
G01 X-34.1824 Y-59.0830
G01 X-34.2714 Y-59.1053
G01 X-34.3578 Y-59.1362
G01 X-34.4408 Y-59.1754
G01 X-34.5195 Y-59.2226
G01 X-34.5932 Y-59.2772
G01 X-34.6611 Y-59.3389
G01 X-34.7228 Y-59.4068
G01 X-34.7774 Y-59.4805
G01 X-34.8246 Y-59.5592
G01 X-34.8638 Y-59.6422
G01 X-34.8947 Y-59.7286
G01 X-34.9170 Y-59.8176
G01 X-34.9305 Y-59.9084
G01 X-34.9348 Y-59.9934
G00 Z1.4000
G00 X-34.8499 Y-59.9975
G01 F60.00
G01 Z0.0000
G01 F120.00
G01 X-34.8459 Y-60.0833
G01 X-34.8337 Y-60.1658
G01 X-34.8134 Y-60.2467
G01 X-34.7853 Y-60.3253
G01 X-34.7496 Y-60.4007
G01 X-34.7067 Y-60.4722
G01 X-34.6571 Y-60.5392
G01 X-34.6010 Y-60.6010
G01 X-34.5392 Y-60.6571
G01 X-34.4722 Y-60.7067
G01 X-34.4007 Y-60.7496
G01 X-34.3253 Y-60.7853
G01 X-34.2467 Y-60.8134
G01 X-34.1658 Y-60.8337
G01 X-34.0833 Y-60.8459
G01 X-34.0000 Y-60.8500
G01 X-33.9167 Y-60.8459
G01 X-33.8342 Y-60.8337
G01 X-33.7533 Y-60.8134
G01 X-33.6747 Y-60.7853
G01 X-33.5993 Y-60.7496
G01 X-33.5278 Y-60.7067
G01 X-33.4608 Y-60.6571
G01 X-33.3990 Y-60.6010
G01 X-33.3429 Y-60.5392
G01 X-33.2933 Y-60.4722
G01 X-33.2504 Y-60.4007
G01 X-33.2147 Y-60.3253
G01 X-33.1866 Y-60.2467
G01 X-33.1663 Y-60.1658
G01 X-33.1541 Y-60.0833
G01 X-33.1500 Y-60.0000
G01 X-33.1541 Y-59.9167
G01 X-33.1663 Y-59.8342
G01 X-33.1866 Y-59.7533
G01 X-33.2147 Y-59.6747
G01 X-33.2504 Y-59.5993
G01 X-33.2933 Y-59.5278
G01 X-33.3429 Y-59.4608
G01 X-33.3990 Y-59.3990
G01 X-33.4608 Y-59.3429
G01 X-33.5278 Y-59.2933
G01 X-33.5993 Y-59.2504
G01 X-33.6747 Y-59.2147
G01 X-33.7533 Y-59.1866
G01 X-33.8342 Y-59.1663
G01 X-33.9167 Y-59.1541
G01 X-34.0000 Y-59.1500
G01 X-34.0833 Y-59.1541
G01 X-34.1658 Y-59.1663
G01 X-34.2467 Y-59.1866
G01 X-34.3253 Y-59.2147
G01 X-34.4007 Y-59.2504
G01 X-34.4722 Y-59.2933
G01 X-34.5392 Y-59.3429
G01 X-34.6010 Y-59.3990
G01 X-34.6571 Y-59.4608
G01 X-34.7067 Y-59.5278
G01 X-34.7496 Y-59.5993
G01 X-34.7853 Y-59.6747
G01 X-34.8134 Y-59.7533
G01 X-34.8337 Y-59.8342
G01 X-34.8459 Y-59.9167
G01 X-34.8499 Y-59.9975
G00 Z1.4000
G00 X-34.1666 Y-55.9348
G01 F60.00
G01 Z0.0000
G01 F120.00
G01 X-34.1534 Y-55.9348
G01 X-34.0684 Y-55.9305
G01 X-33.9776 Y-55.9170
G01 X-33.8886 Y-55.8947
G01 X-33.8022 Y-55.8638
G01 X-33.7192 Y-55.8246
G01 X-33.6405 Y-55.7774
G01 X-33.5668 Y-55.7228
G01 X-33.4989 Y-55.6611
G01 X-33.4372 Y-55.5932
G01 X-33.3826 Y-55.5195
G01 X-33.3354 Y-55.4408
G01 X-33.2962 Y-55.3578
G01 X-33.2653 Y-55.2714
G01 X-33.2430 Y-55.1824
G01 X-33.2295 Y-55.0916
G01 X-33.2250 Y-55.0000
G01 X-33.2295 Y-54.9084
G01 X-33.2430 Y-54.8176
G01 X-33.2653 Y-54.7286
G01 X-33.2962 Y-54.6422
G01 X-33.3354 Y-54.5592
G01 X-33.3826 Y-54.4805
G01 X-33.4372 Y-54.4068
G01 X-33.4989 Y-54.3389
G01 X-33.5668 Y-54.2772
G01 X-33.6405 Y-54.2226
G01 X-33.7192 Y-54.1754
G01 X-33.8022 Y-54.1362
G01 X-33.8886 Y-54.1053
G01 X-33.9776 Y-54.0830
G01 X-34.0684 Y-54.0695
G01 X-34.1600 Y-54.0650
G01 X-34.2516 Y-54.0695
G01 X-34.3424 Y-54.0830
G01 X-34.4314 Y-54.1053
G01 X-34.5178 Y-54.1362
G01 X-34.6008 Y-54.1754
G01 X-34.6795 Y-54.2226
G01 X-34.7532 Y-54.2772
G01 X-34.8211 Y-54.3389
G01 X-34.8828 Y-54.4068
G01 X-34.9374 Y-54.4805
G01 X-34.9846 Y-54.5592
G01 X-35.0238 Y-54.6422
G01 X-35.0547 Y-54.7286
G01 X-35.0770 Y-54.8176
G01 X-35.0905 Y-54.9084
G01 X-35.0950 Y-55.0000
G01 X-35.0905 Y-55.0916
G01 X-35.0770 Y-55.1824
G01 X-35.0547 Y-55.2714
G01 X-35.0238 Y-55.3578
G01 X-34.9846 Y-55.4408
G01 X-34.9374 Y-55.5195
G01 X-34.8828 Y-55.5932
G01 X-34.8211 Y-55.6611
G01 X-34.7532 Y-55.7228
G01 X-34.6795 Y-55.7774
G01 X-34.6008 Y-55.8246
G01 X-34.5178 Y-55.8638
G01 X-34.4314 Y-55.8947
G01 X-34.3424 Y-55.9170
G01 X-34.2516 Y-55.9305
G01 X-34.1666 Y-55.9348
G00 Z1.4000
G00 X-34.1625 Y-55.8499
G01 F60.00
G01 Z0.0000
G01 F120.00
G01 X-34.0767 Y-55.8459
G01 X-33.9942 Y-55.8337
G01 X-33.9133 Y-55.8134
G01 X-33.8347 Y-55.7853
G01 X-33.7593 Y-55.7496
G01 X-33.6878 Y-55.7067
G01 X-33.6208 Y-55.6571
G01 X-33.5590 Y-55.6010
G01 X-33.5029 Y-55.5392
G01 X-33.4533 Y-55.4722
G01 X-33.4104 Y-55.4007
G01 X-33.3747 Y-55.3253
G01 X-33.3466 Y-55.2467
G01 X-33.3263 Y-55.1658
G01 X-33.3141 Y-55.0833
G01 X-33.3100 Y-55.0000
G01 X-33.3141 Y-54.9167
G01 X-33.3263 Y-54.8342
G01 X-33.3466 Y-54.7533
G01 X-33.3747 Y-54.6747
G01 X-33.4104 Y-54.5993
G01 X-33.4533 Y-54.5278
G01 X-33.5029 Y-54.4608
G01 X-33.5590 Y-54.3990
G01 X-33.6208 Y-54.3429
G01 X-33.6878 Y-54.2933
G01 X-33.7593 Y-54.2504
G01 X-33.8347 Y-54.2147
G01 X-33.9133 Y-54.1866
G01 X-33.9942 Y-54.1663
G01 X-34.0767 Y-54.1541
G01 X-34.1600 Y-54.1500
G01 X-34.2433 Y-54.1541
G01 X-34.3258 Y-54.1663
G01 X-34.4067 Y-54.1866
G01 X-34.4853 Y-54.2147
G01 X-34.5607 Y-54.2504
G01 X-34.6322 Y-54.2933
G01 X-34.6992 Y-54.3429
G01 X-34.7610 Y-54.3990
G01 X-34.8171 Y-54.4608
G01 X-34.8667 Y-54.5278
G01 X-34.9096 Y-54.5993
G01 X-34.9453 Y-54.6747
G01 X-34.9734 Y-54.7533
G01 X-34.9937 Y-54.8342
G01 X-35.0059 Y-54.9167
G01 X-35.0100 Y-55.0000
G01 X-35.0059 Y-55.0833
G01 X-34.9937 Y-55.1658
G01 X-34.9734 Y-55.2467
G01 X-34.9453 Y-55.3253
G01 X-34.9096 Y-55.4007
G01 X-34.8667 Y-55.4722
G01 X-34.8171 Y-55.5392
G01 X-34.7610 Y-55.6010
G01 X-34.6992 Y-55.6571
G01 X-34.6322 Y-55.7067
G01 X-34.5607 Y-55.7496
G01 X-34.4853 Y-55.7853
G01 X-34.4067 Y-55.8134
G01 X-34.3258 Y-55.8337
G01 X-34.2433 Y-55.8459
G01 X-34.1625 Y-55.8499
G00 Z1.4000
G00 X-39.8499 Y-56.0775
G01 F60.00
G01 Z0.0000
G01 F120.00
G01 X-39.8459 Y-56.1633
G01 X-39.8337 Y-56.2458
G01 X-39.8134 Y-56.3267
G01 X-39.7853 Y-56.4053
G01 X-39.7496 Y-56.4807
G01 X-39.7067 Y-56.5522
G01 X-39.6571 Y-56.6192
G01 X-39.6010 Y-56.6810
G01 X-39.5392 Y-56.7371
G01 X-39.4722 Y-56.7867
G01 X-39.4007 Y-56.8296
G01 X-39.3253 Y-56.8653
G01 X-39.2467 Y-56.8934
G01 X-39.1658 Y-56.9137
G01 X-39.0833 Y-56.9259
G01 X-39.0000 Y-56.9300
G01 X-38.9167 Y-56.9259
G01 X-38.8342 Y-56.9137
G01 X-38.7533 Y-56.8934
G01 X-38.6747 Y-56.8653
G01 X-38.5993 Y-56.8296
G01 X-38.5278 Y-56.7867
G01 X-38.4608 Y-56.7371
G01 X-38.3990 Y-56.6810
G01 X-38.3429 Y-56.6192
G01 X-38.2933 Y-56.5522
G01 X-38.2504 Y-56.4807
G01 X-38.2147 Y-56.4053
G01 X-38.1866 Y-56.3267
G01 X-38.1663 Y-56.2458
G01 X-38.1541 Y-56.1633
G01 X-38.1500 Y-56.0800
G01 X-38.1541 Y-55.9967
G01 X-38.1663 Y-55.9142
G01 X-38.1866 Y-55.8333
G01 X-38.2147 Y-55.7547
G01 X-38.2504 Y-55.6793
G01 X-38.2933 Y-55.6078
G01 X-38.3429 Y-55.5408
G01 X-38.3990 Y-55.4790
G01 X-38.4608 Y-55.4229
G01 X-38.5278 Y-55.3733
G01 X-38.5993 Y-55.3304
G01 X-38.6747 Y-55.2947
G01 X-38.7533 Y-55.2666
G01 X-38.8342 Y-55.2463
G01 X-38.9167 Y-55.2341
G01 X-39.0000 Y-55.2300
G01 X-39.0833 Y-55.2341
G01 X-39.1658 Y-55.2463
G01 X-39.2467 Y-55.2666
G01 X-39.3253 Y-55.2947
G01 X-39.4007 Y-55.3304
G01 X-39.4722 Y-55.3733
G01 X-39.5392 Y-55.4229
G01 X-39.6010 Y-55.4790
G01 X-39.6571 Y-55.5408
G01 X-39.7067 Y-55.6078
G01 X-39.7496 Y-55.6793
G01 X-39.7853 Y-55.7547
G01 X-39.8134 Y-55.8333
G01 X-39.8337 Y-55.9142
G01 X-39.8459 Y-55.9967
G01 X-39.8499 Y-56.0775
G00 Z1.4000
G00 X-39.9348 Y-56.0734
G01 F60.00
G01 Z0.0000
G01 F120.00
G01 X-39.9348 Y-56.0866
G01 X-39.9305 Y-56.1716
G01 X-39.9170 Y-56.2624
G01 X-39.8947 Y-56.3514
G01 X-39.8638 Y-56.4378
G01 X-39.8246 Y-56.5208
G01 X-39.7774 Y-56.5995
G01 X-39.7228 Y-56.6732
G01 X-39.6611 Y-56.7411
G01 X-39.5932 Y-56.8028
G01 X-39.5195 Y-56.8574
G01 X-39.4408 Y-56.9046
G01 X-39.3578 Y-56.9438
G01 X-39.2714 Y-56.9747
G01 X-39.1824 Y-56.9970
G01 X-39.0916 Y-57.0105
G01 X-39.0000 Y-57.0150
G01 X-38.9084 Y-57.0105
G01 X-38.8176 Y-56.9970
G01 X-38.7286 Y-56.9747
G01 X-38.6422 Y-56.9438
G01 X-38.5592 Y-56.9046
G01 X-38.4805 Y-56.8574
G01 X-38.4068 Y-56.8028
G01 X-38.3389 Y-56.7411
G01 X-38.2772 Y-56.6732
G01 X-38.2226 Y-56.5995
G01 X-38.1754 Y-56.5208
G01 X-38.1362 Y-56.4378
G01 X-38.1053 Y-56.3514
G01 X-38.0830 Y-56.2624
G01 X-38.0695 Y-56.1716
G01 X-38.0650 Y-56.0800
G01 X-38.0695 Y-55.9884
G01 X-38.0830 Y-55.8976
G01 X-38.1053 Y-55.8086
G01 X-38.1362 Y-55.7222
G01 X-38.1754 Y-55.6392
G01 X-38.2226 Y-55.5605
G01 X-38.2772 Y-55.4868
G01 X-38.3389 Y-55.4189
G01 X-38.4068 Y-55.3572
G01 X-38.4805 Y-55.3026
G01 X-38.5592 Y-55.2554
G01 X-38.6422 Y-55.2162
G01 X-38.7286 Y-55.1853
G01 X-38.8176 Y-55.1630
G01 X-38.9084 Y-55.1495
G01 X-39.0000 Y-55.1450
G01 X-39.0916 Y-55.1495
G01 X-39.1824 Y-55.1630
G01 X-39.2714 Y-55.1853
G01 X-39.3578 Y-55.2162
G01 X-39.4408 Y-55.2554
G01 X-39.5195 Y-55.3026
G01 X-39.5932 Y-55.3572
G01 X-39.6611 Y-55.4189
G01 X-39.7228 Y-55.4868
G01 X-39.7774 Y-55.5605
G01 X-39.8246 Y-55.6392
G01 X-39.8638 Y-55.7222
G01 X-39.8947 Y-55.8086
G01 X-39.9170 Y-55.8976
G01 X-39.9305 Y-55.9884
G01 X-39.9348 Y-56.0734
G00 Z1.4000
G00 X-34.6850 Y-49.7550
G01 F60.00
G01 Z0.0000
G01 F120.00
G01 X-34.6000 Y-49.7510
G01 X-34.5868 Y-49.7497
G01 X-34.5026 Y-49.7370
G01 X-34.4136 Y-49.7147
G01 X-34.3334 Y-49.6862
G01 X-34.3211 Y-49.6811
G01 X-34.2442 Y-49.6446
G01 X-34.1655 Y-49.5974
G01 X-34.0918 Y-49.5428
G01 X-34.0287 Y-49.4857
G01 X-34.0193 Y-49.4763
G01 X-33.9622 Y-49.4132
G01 X-33.9114 Y-49.3449
G01 X-33.9040 Y-49.3339
G01 X-33.8604 Y-49.2608
G01 X-33.8239 Y-49.1839
G01 X-33.8188 Y-49.1716
G01 X-33.7903 Y-49.0914
G01 X-33.7694 Y-49.0089
G01 X-33.7668 Y-48.9959
G01 X-33.7545 Y-48.9116
G01 X-33.7502 Y-48.8266
G01 X-33.7502 Y-48.8134
G01 X-33.7540 Y-48.7350
G01 X-33.7553 Y-48.7218
G01 X-33.7680 Y-48.6376
G01 X-33.7885 Y-48.5550
G01 X-33.7923 Y-48.5423
G01 X-33.8212 Y-48.4622
G01 X-33.8604 Y-48.3792
G01 X-33.9040 Y-48.3061
G01 X-33.9114 Y-48.2951
G01 X-33.9582 Y-48.2321
G01 X-33.9644 Y-48.2243
G01 X-34.0239 Y-48.1589
G01 X-34.0918 Y-48.0972
G01 X-34.1655 Y-48.0426
G01 X-34.2442 Y-47.9954
G01 X-34.3272 Y-47.9562
G01 X-34.4136 Y-47.9253
G01 X-34.5026 Y-47.9030
G01 X-34.5868 Y-47.8903
G01 X-34.6000 Y-47.8890
G01 X-34.6850 Y-47.8850
G01 X-35.4850 Y-47.8850
G01 X-35.5700 Y-47.8890
G01 X-35.5832 Y-47.8903
G01 X-35.6674 Y-47.9030
G01 X-35.7500 Y-47.9235
G01 X-35.7627 Y-47.9273
G01 X-35.8428 Y-47.9562
G01 X-35.9258 Y-47.9954
G01 X-35.9989 Y-48.0390
G01 X-36.0099 Y-48.0464
G01 X-36.0729 Y-48.0932
G01 X-36.0807 Y-48.0994
G01 X-36.1461 Y-48.1589
G01 X-36.2078 Y-48.2268
G01 X-36.2624 Y-48.3005
G01 X-36.3096 Y-48.3792
G01 X-36.3488 Y-48.4622
G01 X-36.3797 Y-48.5486
G01 X-36.4020 Y-48.6376
G01 X-36.4155 Y-48.7284
G01 X-36.4200 Y-48.8200
G01 X-36.4155 Y-48.9116
G01 X-36.4020 Y-49.0024
G01 X-36.3797 Y-49.0914
G01 X-36.3488 Y-49.1778
G01 X-36.3096 Y-49.2608
G01 X-36.2624 Y-49.3395
G01 X-36.2118 Y-49.4079
G01 X-36.2056 Y-49.4157
G01 X-36.1461 Y-49.4811
G01 X-36.0832 Y-49.5384
G01 X-36.0729 Y-49.5468
G01 X-36.0099 Y-49.5936
G01 X-35.9989 Y-49.6010
G01 X-35.9258 Y-49.6446
G01 X-35.8428 Y-49.6838
G01 X-35.7564 Y-49.7147
G01 X-35.6707 Y-49.7363
G01 X-35.6609 Y-49.7382
G01 X-35.5766 Y-49.7505
G01 X-35.4883 Y-49.7550
G01 X-34.6850 Y-49.7550
G00 Z1.4000
G00 X-34.6850 Y-49.6700
G01 F60.00
G01 Z0.0000
G01 F120.00
G01 X-34.5992 Y-49.6656
G01 X-34.5192 Y-49.6537
G01 X-34.4383 Y-49.6334
G01 X-34.3575 Y-49.6043
G01 X-34.2843 Y-49.5696
G01 X-34.2128 Y-49.5267
G01 X-34.1458 Y-49.4771
G01 X-34.0857 Y-49.4227
G01 X-34.0279 Y-49.3592
G01 X-33.9769 Y-49.2902
G01 X-33.9354 Y-49.2207
G01 X-33.8997 Y-49.1453
G01 X-33.8716 Y-49.0667
G01 X-33.8519 Y-48.9882
G01 X-33.8391 Y-48.9033
G01 X-33.8350 Y-48.8200
G01 X-33.8389 Y-48.7391
G01 X-33.8513 Y-48.6542
G01 X-33.8716 Y-48.5733
G01 X-33.8988 Y-48.4970
G01 X-33.9354 Y-48.4193
G01 X-33.9797 Y-48.3458
G01 X-34.0279 Y-48.2808
G01 X-34.0831 Y-48.2198
G01 X-34.1458 Y-48.1629
G01 X-34.2128 Y-48.1133
G01 X-34.2843 Y-48.0704
G01 X-34.3597 Y-48.0347
G01 X-34.4383 Y-48.0066
G01 X-34.5192 Y-47.9863
G01 X-34.6017 Y-47.9741
G01 X-34.6850 Y-47.9700
G01 X-35.4862 Y-47.9700
G01 X-35.5683 Y-47.9741
G01 X-35.6496 Y-47.9861
G01 X-35.7341 Y-48.0074
G01 X-35.8103 Y-48.0347
G01 X-35.8857 Y-48.0704
G01 X-35.9592 Y-48.1147
G01 X-36.0242 Y-48.1629
G01 X-36.0852 Y-48.2181
G01 X-36.1421 Y-48.2808
G01 X-36.1917 Y-48.3478
G01 X-36.2346 Y-48.4193
G01 X-36.2703 Y-48.4947
G01 X-36.2984 Y-48.5733
G01 X-36.3187 Y-48.6542
G01 X-36.3309 Y-48.7367
G01 X-36.3350 Y-48.8200
G01 X-36.3309 Y-48.9033
G01 X-36.3187 Y-48.9858
G01 X-36.2984 Y-49.0667
G01 X-36.2703 Y-49.1453
G01 X-36.2346 Y-49.2207
G01 X-36.1917 Y-49.2922
G01 X-36.1421 Y-49.3592
G01 X-36.0869 Y-49.4202
G01 X-36.0223 Y-49.4786
G01 X-35.9572 Y-49.5267
G01 X-35.8857 Y-49.5696
G01 X-35.8103 Y-49.6053
G01 X-35.7341 Y-49.6326
G01 X-35.6496 Y-49.6539
G01 X-35.5683 Y-49.6659
G01 X-35.4862 Y-49.6700
G01 X-34.6850 Y-49.6700
G00 Z1.4000
G00 X-34.6850 Y-47.2150
G01 F60.00
G01 Z0.0000
G01 F120.00
G01 X-34.6000 Y-47.2110
G01 X-34.5868 Y-47.2097
G01 X-34.5026 Y-47.1970
G01 X-34.4136 Y-47.1747
G01 X-34.3334 Y-47.1462
G01 X-34.3211 Y-47.1411
G01 X-34.2442 Y-47.1046
G01 X-34.1655 Y-47.0574
G01 X-34.0918 Y-47.0028
G01 X-34.0287 Y-46.9457
G01 X-34.0193 Y-46.9363
G01 X-33.9622 Y-46.8732
G01 X-33.9114 Y-46.8049
G01 X-33.9040 Y-46.7939
G01 X-33.8604 Y-46.7208
G01 X-33.8239 Y-46.6439
G01 X-33.8188 Y-46.6316
G01 X-33.7903 Y-46.5514
G01 X-33.7694 Y-46.4689
G01 X-33.7668 Y-46.4559
G01 X-33.7545 Y-46.3716
G01 X-33.7502 Y-46.2866
G01 X-33.7502 Y-46.2734
G01 X-33.7540 Y-46.1950
G01 X-33.7553 Y-46.1818
G01 X-33.7680 Y-46.0976
G01 X-33.7885 Y-46.0150
G01 X-33.7923 Y-46.0023
G01 X-33.8212 Y-45.9222
G01 X-33.8604 Y-45.8392
G01 X-33.9040 Y-45.7661
G01 X-33.9114 Y-45.7551
G01 X-33.9582 Y-45.6921
G01 X-33.9644 Y-45.6843
G01 X-34.0239 Y-45.6189
G01 X-34.0918 Y-45.5572
G01 X-34.1655 Y-45.5026
G01 X-34.2442 Y-45.4554
G01 X-34.3272 Y-45.4162
G01 X-34.4136 Y-45.3853
G01 X-34.5026 Y-45.3630
G01 X-34.5868 Y-45.3503
G01 X-34.6000 Y-45.3490
G01 X-34.6850 Y-45.3450
G01 X-35.4850 Y-45.3450
G01 X-35.5700 Y-45.3490
G01 X-35.5832 Y-45.3503
G01 X-35.6674 Y-45.3630
G01 X-35.7500 Y-45.3835
G01 X-35.7627 Y-45.3873
G01 X-35.8428 Y-45.4162
G01 X-35.9258 Y-45.4554
G01 X-35.9989 Y-45.4990
G01 X-36.0099 Y-45.5064
G01 X-36.0729 Y-45.5532
G01 X-36.0807 Y-45.5594
G01 X-36.1461 Y-45.6189
G01 X-36.2078 Y-45.6868
G01 X-36.2624 Y-45.7605
G01 X-36.3096 Y-45.8392
G01 X-36.3488 Y-45.9222
G01 X-36.3797 Y-46.0086
G01 X-36.4020 Y-46.0976
G01 X-36.4155 Y-46.1884
G01 X-36.4200 Y-46.2800
G01 X-36.4155 Y-46.3716
G01 X-36.4020 Y-46.4624
G01 X-36.3797 Y-46.5514
G01 X-36.3488 Y-46.6378
G01 X-36.3096 Y-46.7208
G01 X-36.2624 Y-46.7995
G01 X-36.2118 Y-46.8679
G01 X-36.2056 Y-46.8757
G01 X-36.1461 Y-46.9411
G01 X-36.0832 Y-46.9984
G01 X-36.0729 Y-47.0068
G01 X-36.0099 Y-47.0536
G01 X-35.9989 Y-47.0610
G01 X-35.9258 Y-47.1046
G01 X-35.8428 Y-47.1438
G01 X-35.7564 Y-47.1747
G01 X-35.6707 Y-47.1963
G01 X-35.6609 Y-47.1982
G01 X-35.5766 Y-47.2105
G01 X-35.4883 Y-47.2150
G01 X-34.6850 Y-47.2150
G00 Z1.4000
G00 X-34.6850 Y-47.1300
G01 F60.00
G01 Z0.0000
G01 F120.00
G01 X-34.5992 Y-47.1256
G01 X-34.5192 Y-47.1137
G01 X-34.4383 Y-47.0934
G01 X-34.3575 Y-47.0643
G01 X-34.2843 Y-47.0296
G01 X-34.2128 Y-46.9867
G01 X-34.1458 Y-46.9371
G01 X-34.0857 Y-46.8827
G01 X-34.0279 Y-46.8192
G01 X-33.9769 Y-46.7502
G01 X-33.9354 Y-46.6807
G01 X-33.8997 Y-46.6053
G01 X-33.8716 Y-46.5267
G01 X-33.8519 Y-46.4482
G01 X-33.8391 Y-46.3633
G01 X-33.8350 Y-46.2800
G01 X-33.8389 Y-46.1991
G01 X-33.8513 Y-46.1142
G01 X-33.8716 Y-46.0333
G01 X-33.8988 Y-45.9570
G01 X-33.9354 Y-45.8793
G01 X-33.9797 Y-45.8058
G01 X-34.0279 Y-45.7408
G01 X-34.0831 Y-45.6798
G01 X-34.1458 Y-45.6229
G01 X-34.2128 Y-45.5733
G01 X-34.2843 Y-45.5304
G01 X-34.3597 Y-45.4947
G01 X-34.4383 Y-45.4666
G01 X-34.5192 Y-45.4463
G01 X-34.6017 Y-45.4341
G01 X-34.6850 Y-45.4300
G01 X-35.4862 Y-45.4300
G01 X-35.5683 Y-45.4341
G01 X-35.6496 Y-45.4461
G01 X-35.7341 Y-45.4674
G01 X-35.8103 Y-45.4947
G01 X-35.8857 Y-45.5304
G01 X-35.9592 Y-45.5747
G01 X-36.0242 Y-45.6229
G01 X-36.0852 Y-45.6781
G01 X-36.1421 Y-45.7408
G01 X-36.1917 Y-45.8078
G01 X-36.2346 Y-45.8793
G01 X-36.2703 Y-45.9547
G01 X-36.2984 Y-46.0333
G01 X-36.3187 Y-46.1142
G01 X-36.3309 Y-46.1967
G01 X-36.3350 Y-46.2800
G01 X-36.3309 Y-46.3633
G01 X-36.3187 Y-46.4458
G01 X-36.2984 Y-46.5267
G01 X-36.2703 Y-46.6053
G01 X-36.2346 Y-46.6807
G01 X-36.1917 Y-46.7522
G01 X-36.1421 Y-46.8192
G01 X-36.0869 Y-46.8802
G01 X-36.0223 Y-46.9386
G01 X-35.9572 Y-46.9867
G01 X-35.8857 Y-47.0296
G01 X-35.8103 Y-47.0653
G01 X-35.7341 Y-47.0926
G01 X-35.6496 Y-47.1139
G01 X-35.5683 Y-47.1259
G01 X-35.4862 Y-47.1300
G01 X-34.6850 Y-47.1300
G00 Z1.4000
G00 X-34.6850 Y-44.6750
G01 F60.00
G01 Z0.0000
G01 F120.00
G01 X-34.6000 Y-44.6710
G01 X-34.5868 Y-44.6697
G01 X-34.5026 Y-44.6570
G01 X-34.4136 Y-44.6347
G01 X-34.3334 Y-44.6062
G01 X-34.3211 Y-44.6011
G01 X-34.2442 Y-44.5646
G01 X-34.1655 Y-44.5174
G01 X-34.0918 Y-44.4628
G01 X-34.0287 Y-44.4057
G01 X-34.0193 Y-44.3963
G01 X-33.9622 Y-44.3332
G01 X-33.9114 Y-44.2649
G01 X-33.9040 Y-44.2539
G01 X-33.8604 Y-44.1808
G01 X-33.8239 Y-44.1039
G01 X-33.8188 Y-44.0916
G01 X-33.7903 Y-44.0114
G01 X-33.7694 Y-43.9289
G01 X-33.7668 Y-43.9159
G01 X-33.7545 Y-43.8316
G01 X-33.7502 Y-43.7466
G01 X-33.7502 Y-43.7334
G01 X-33.7540 Y-43.6550
G01 X-33.7553 Y-43.6418
G01 X-33.7680 Y-43.5576
G01 X-33.7885 Y-43.4750
G01 X-33.7923 Y-43.4623
G01 X-33.8212 Y-43.3822
G01 X-33.8604 Y-43.2992
G01 X-33.9040 Y-43.2261
G01 X-33.9114 Y-43.2151
G01 X-33.9582 Y-43.1521
G01 X-33.9644 Y-43.1443
G01 X-34.0239 Y-43.0789
G01 X-34.0918 Y-43.0172
G01 X-34.1655 Y-42.9626
G01 X-34.2442 Y-42.9154
G01 X-34.3272 Y-42.8762
G01 X-34.4136 Y-42.8453
G01 X-34.5026 Y-42.8230
G01 X-34.5868 Y-42.8103
G01 X-34.6000 Y-42.8090
G01 X-34.6850 Y-42.8050
G01 X-35.4850 Y-42.8050
G01 X-35.5700 Y-42.8090
G01 X-35.5832 Y-42.8103
G01 X-35.6674 Y-42.8230
G01 X-35.7500 Y-42.8435
G01 X-35.7627 Y-42.8473
G01 X-35.8428 Y-42.8762
G01 X-35.9258 Y-42.9154
G01 X-35.9989 Y-42.9590
G01 X-36.0099 Y-42.9664
G01 X-36.0729 Y-43.0132
G01 X-36.0807 Y-43.0194
G01 X-36.1461 Y-43.0789
G01 X-36.2078 Y-43.1468
G01 X-36.2624 Y-43.2205
G01 X-36.3096 Y-43.2992
G01 X-36.3488 Y-43.3822
G01 X-36.3797 Y-43.4686
G01 X-36.4020 Y-43.5576
G01 X-36.4155 Y-43.6484
G01 X-36.4200 Y-43.7400
G01 X-36.4155 Y-43.8316
G01 X-36.4020 Y-43.9224
G01 X-36.3797 Y-44.0114
G01 X-36.3488 Y-44.0978
G01 X-36.3096 Y-44.1808
G01 X-36.2624 Y-44.2595
G01 X-36.2118 Y-44.3279
G01 X-36.2056 Y-44.3357
G01 X-36.1461 Y-44.4011
G01 X-36.0832 Y-44.4584
G01 X-36.0729 Y-44.4668
G01 X-36.0099 Y-44.5136
G01 X-35.9989 Y-44.5210
G01 X-35.9258 Y-44.5646
G01 X-35.8428 Y-44.6038
G01 X-35.7564 Y-44.6347
G01 X-35.6707 Y-44.6563
G01 X-35.6609 Y-44.6582
G01 X-35.5766 Y-44.6705
G01 X-35.4883 Y-44.6750
G01 X-34.6850 Y-44.6750
G00 Z1.4000
G00 X-34.6850 Y-44.5900
G01 F60.00
G01 Z0.0000
G01 F120.00
G01 X-34.5992 Y-44.5856
G01 X-34.5192 Y-44.5737
G01 X-34.4383 Y-44.5534
