(G-CODE GENERATED BY FLATCAM v8.994 - www.flatcam.org - Version Date: 2020/11/7)

(Name: monitor_solar_v2-Edge_Cuts.gbr_0.1000_iso_cnc)
(Type: G-code from Geometry)
(Units: MM)

(Created on Wednesday, 02 October 2024 at 01:18)

(This preprocessor is the default preprocessor used by FlatCAM.)
(It is made to work with MACH3 compatible motion controllers.)

(TOOL DIAMETER: 0.1 mm)
(Feedrate_XY: 120.0 mm/min)
(Feedrate_Z: 60.0 mm/min)
(Feedrate rapids 1500.0 mm/min)

(Z_Cut: 0.0 mm)
(Z_Move: 2.0 mm)
(Z Start: None mm)
(Z End: 15.0 mm)
(X,Y End: None mm)
(Steps per circle: 64)
(Preprocessor Geometry: default)

(X range:  -66.0750 ...    0.0750  mm)
(Y range:  -65.0750 ...  -19.9250  mm)

(Spindle Speed: 0.0 RPM)
G21
G90
G94

G01 F120.00

M5
G00 Z15.0000
G00 X0.0000 Y0.0000
T1
M6    
(MSG, Change to Tool Dia = 0.1000)
M0
G00 Z15.0000

M03
G01 F120.00
G00 X0.0750 Y-20.0000
G01 F60.00
G01 Z0.0000
G01 F120.00
G01 X0.0747 Y-19.9926
G01 X0.0736 Y-19.9854
G01 X0.0718 Y-19.9782
G01 X0.0693 Y-19.9713
G01 X0.0662 Y-19.9646
G01 X0.0624 Y-19.9583
G01 X0.0580 Y-19.9524
G01 X0.0530 Y-19.9470
G01 X0.0476 Y-19.9420
G01 X0.0417 Y-19.9376
G01 X0.0354 Y-19.9338
G01 X0.0287 Y-19.9307
G01 X0.0218 Y-19.9282
G01 X0.0146 Y-19.9264
G01 X0.0074 Y-19.9253
G01 X-0.0000 Y-19.9250
G01 X-66.0000 Y-19.9250
G01 X-66.0098 Y-19.9256
G01 X-66.0158 Y-19.9267
G01 X-66.0218 Y-19.9282
G01 X-66.0309 Y-19.9317
G01 X-66.0364 Y-19.9344
G01 X-66.0417 Y-19.9376
G01 X-66.0485 Y-19.9428
G01 X-66.0564 Y-19.9506
G01 X-66.0617 Y-19.9573
G01 X-66.0662 Y-19.9646
G01 X-66.0698 Y-19.9724
G01 X-66.0730 Y-19.9830
G01 X-66.0745 Y-19.9914
G01 X-66.0750 Y-20.0000
G01 X-66.0750 Y-65.0000
G01 X-66.0744 Y-65.0098
G01 X-66.0733 Y-65.0158
G01 X-66.0718 Y-65.0218
G01 X-66.0698 Y-65.0276
G01 X-66.0673 Y-65.0332
G01 X-66.0624 Y-65.0417
G01 X-66.0572 Y-65.0485
G01 X-66.0494 Y-65.0564
G01 X-66.0427 Y-65.0617
G01 X-66.0354 Y-65.0662
G01 X-66.0276 Y-65.0698
G01 X-66.0170 Y-65.0730
G01 X-66.0086 Y-65.0745
G01 X-66.0000 Y-65.0750
G01 X-0.0000 Y-65.0750
G01 X0.0098 Y-65.0744
G01 X0.0158 Y-65.0733
G01 X0.0218 Y-65.0718
G01 X0.0276 Y-65.0698
G01 X0.0332 Y-65.0673
G01 X0.0417 Y-65.0624
G01 X0.0485 Y-65.0572
G01 X0.0564 Y-65.0494
G01 X0.0617 Y-65.0427
G01 X0.0662 Y-65.0354
G01 X0.0698 Y-65.0276
G01 X0.0730 Y-65.0170
G01 X0.0745 Y-65.0086
G01 X0.0750 Y-65.0000
G01 X0.0750 Y-20.0000
G00 Z2.0000
G00 X-0.0750 Y-20.0750
G01 F60.00
G01 Z0.0000
G01 F120.00
G01 X-65.9250 Y-20.0750
G01 X-65.9250 Y-64.9250
G01 X-0.0750 Y-64.9250
G01 X-0.0750 Y-20.0750
G00 Z2.0000
M05
G00 Z2.0000
G00 Z15.00


