(G-CODE GENERATED BY FLATCAM v8.994 - www.flatcam.org - Version Date: 2020/11/7)

(Name: monitor_solar_v2.drl_cnc)
(Type: G-code from Geometry)
(Units: MM)

(Created on Wednesday, 02 October 2024 at 01:21)

(This preprocessor is the default preprocessor used by FlatCAM.)
(It is made to work with MACH3 compatible motion controllers.)


(TOOLS DIAMETER: )
(Tool: 1 -> Dia: 0.7619999999999999)
(Tool: 2 -> Dia: 0.8000999999999999)
(Tool: 3 -> Dia: 1.0007599999999999)
(Tool: 4 -> Dia: 1.30048)
(Tool: 5 -> Dia: 1.6001999999999998)
(Tool: 6 -> Dia: 3.2003999999999997)

(FEEDRATE Z: )
(Tool: 1 -> Feedrate: 100.0)
(Tool: 2 -> Feedrate: 100.0)
(Tool: 3 -> Feedrate: 100.0)
(Tool: 4 -> Feedrate: 100.0)
(Tool: 5 -> Feedrate: 100.0)
(Tool: 6 -> Feedrate: 100.0)

(FEEDRATE RAPIDS: )
(Tool: 1 -> Feedrate Rapids: 1500)
(Tool: 2 -> Feedrate Rapids: 1500)
(Tool: 3 -> Feedrate Rapids: 1500)
(Tool: 4 -> Feedrate Rapids: 1500)
(Tool: 5 -> Feedrate Rapids: 1500)
(Tool: 6 -> Feedrate Rapids: 1500)

(Z_CUT: )
(Tool: 1 -> Z_Cut: -1.5)
(Tool: 2 -> Z_Cut: -1.5)
(Tool: 3 -> Z_Cut: -1.5)
(Tool: 4 -> Z_Cut: -1.5)
(Tool: 5 -> Z_Cut: -1.5)
(Tool: 6 -> Z_Cut: -1.5)

(Tools Offset: )
(Tool: 1 -> Offset Z: 0.0)
(Tool: 2 -> Offset Z: 0.0)
(Tool: 3 -> Offset Z: 0.0)
(Tool: 4 -> Offset Z: 0.0)
(Tool: 5 -> Offset Z: 0.0)
(Tool: 6 -> Offset Z: 0.0)

(Z_MOVE: )
(Tool: 1 -> Z_Move: 14.0)
(Tool: 2 -> Z_Move: 14.0)
(Tool: 3 -> Z_Move: 14.0)
(Tool: 4 -> Z_Move: 14.0)
(Tool: 5 -> Z_Move: 14.0)
(Tool: 6 -> Z_Move: 14.0)

(Z Toolchange: 15 mm)
(X,Y Toolchange: 0.0000, 0.0000 mm)
(Z Start: None mm)
(Z End: 0.5 mm)
(X,Y End: None mm)
(Steps per circle: 64)
(Preprocessor Excellon: default)

(X range:  -63.5990 ...   -2.4003  mm)
(Y range:  -62.6008 ...  -22.4003  mm)

(Spindle Speed: 0 RPM)
G21
G90
G94

G01 F100.00

M5
G00 Z15.0000
T1
G00 X0.0000 Y0.0000                
M6
(MSG, Change to Tool Dia = 0.7620 ||| Total drills for tool T1 = 60)
M0
G00 Z15.0000

G01 F100.00
M03
G00 X-44.7598 Y-44.9199
G01 Z-1.5000
G01 Z0
G00 Z14.0000
G00 X-44.7598 Y-47.4599
G01 Z-1.5000
G01 Z0
G00 Z14.0000
G00 X-44.7598 Y-49.9999
G01 Z-1.5000
G01 Z0
G00 Z14.0000
G00 X-38.9991 Y-56.0807
G01 Z-1.5000
G01 Z0
G00 Z14.0000
G00 X-34.1604 Y-55.0012
G01 Z-1.5000
G01 Z0
G00 Z14.0000
G00 X-34.0004 Y-59.9999
G01 Z-1.5000
G01 Z0
G00 Z14.0000
G00 X-38.4606 Y-61.0006
G01 Z-1.5000
G01 Z0
G00 Z14.0000
G00 X-41.0006 Y-61.0006
G01 Z-1.5000
G01 Z0
G00 Z14.0000
G00 X-43.5406 Y-61.0006
G01 Z-1.5000
G01 Z0
G00 Z14.0000
G00 X-49.9999 Y-60.3047
G01 Z-1.5000
G01 Z0
G00 Z14.0000
G00 X-55.0011 Y-60.3047
G01 Z-1.5000
G01 Z0
G00 Z14.0000
G00 X-61.9988 Y-61.0006
G01 Z-1.5000
G01 Z0
G00 Z14.0000
G00 X-59.9998 Y-52.5399
G01 Z-1.5000
G01 Z0
G00 Z14.0000
G00 X-59.9998 Y-49.9999
G01 Z-1.5000
G01 Z0
G00 Z14.0000
G00 X-59.9998 Y-47.4599
G01 Z-1.5000
G01 Z0
G00 Z14.0000
G00 X-59.9998 Y-44.9199
G01 Z-1.5000
G01 Z0
G00 Z14.0000
G00 X-59.9998 Y-42.3799
G01 Z-1.5000
G01 Z0
G00 Z14.0000
G00 X-52.9996 Y-38.6207
G01 Z-1.5000
G01 Z0
G00 Z14.0000
G00 X-48.0796 Y-35.9994
G01 Z-1.5000
G01 Z0
G00 Z14.0000
G00 X-61.9988 Y-24.0005
G01 Z-1.5000
G01 Z0
G00 Z14.0000
G00 X-52.9996 Y-23.3807
G01 Z-1.5000
G01 Z0
G00 Z14.0000
G00 X-45.9994 Y-25.9994
G01 Z-1.5000
G01 Z0
G00 Z14.0000
G00 X-45.9994 Y-23.5001
G01 Z-1.5000
G01 Z0
G00 Z14.0000
G00 X-40.0812 Y-24.0005
G01 Z-1.5000
G01 Z0
G00 Z14.0000
G00 X-37.5412 Y-24.0005
G01 Z-1.5000
G01 Z0
G00 Z14.0000
G00 X-35.0012 Y-24.0005
G01 Z-1.5000
G01 Z0
G00 Z14.0000
G00 X-32.4612 Y-24.0005
G01 Z-1.5000
G01 Z0
G00 Z14.0000
G00 X-27.0002 Y-25.9994
G01 Z-1.5000
G01 Z0
G00 Z14.0000
G00 X-27.0002 Y-23.5001
G01 Z-1.5000
G01 Z0
G00 Z14.0000
G00 X-18.9992 Y-23.3807
G01 Z-1.5000
G01 Z0
G00 Z14.0000
G00 X-11.9989 Y-27.0002
G01 Z-1.5000
G01 Z0
G00 Z14.0000
G00 X-9.4996 Y-27.0002
G01 Z-1.5000
G01 Z0
G00 Z14.0000
G00 X-4.0005 Y-24.0005
G01 Z-1.5000
G01 Z0
G00 Z14.0000
G00 X-3.5001 Y-42.9997
G01 Z-1.5000
G01 Z0
G00 Z14.0000
G00 X-5.9994 Y-42.9997
G01 Z-1.5000
G01 Z0
G00 Z14.0000
G00 X-9.9212 Y-45.9511
G01 Z-1.5000
G01 Z0
G00 Z14.0000
G00 X-9.9999 Y-49.9999
G01 Z-1.5000
G01 Z0
G00 Z14.0000
G00 X-4.0005 Y-48.9204
G01 Z-1.5000
G01 Z0
G00 Z14.0000
G00 X-4.0005 Y-51.4604
G01 Z-1.5000
G01 Z0
G00 Z14.0000
G00 X-4.0005 Y-54.0004
G01 Z-1.5000
G01 Z0
G00 Z14.0000
G00 X-4.0005 Y-61.0006
G01 Z-1.5000
G01 Z0
G00 Z14.0000
G00 X-13.5001 Y-60.3047
G01 Z-1.5000
G01 Z0
G00 Z14.0000
G00 X-18.4988 Y-60.3047
G01 Z-1.5000
G01 Z0
G00 Z14.0000
G00 X-23.8404 Y-59.9999
G01 Z-1.5000
G01 Z0
G00 Z14.0000
G00 X-24.0004 Y-55.0012
G01 Z-1.5000
G01 Z0
G00 Z14.0000
G00 X-20.1599 Y-49.9999
G01 Z-1.5000
G01 Z0
G00 Z14.0000
G00 X-20.0812 Y-45.9511
G01 Z-1.5000
G01 Z0
G00 Z14.0000
G00 X-24.9250 Y-48.8188
G01 Z-1.5000
G01 Z0
G00 Z14.0000
G00 X-24.9250 Y-46.2788
G01 Z-1.5000
G01 Z0
G00 Z14.0000
G00 X-24.9250 Y-43.7388
G01 Z-1.5000
G01 Z0
G00 Z14.0000
G00 X-24.9250 Y-41.1988
G01 Z-1.5000
G01 Z0
G00 Z14.0000
G00 X-18.9992 Y-38.6207
G01 Z-1.5000
G01 Z0
G00 Z14.0000
G00 X-25.9207 Y-31.9989
G01 Z-1.5000
G01 Z0
G00 Z14.0000
G00 X-36.0807 Y-31.9989
G01 Z-1.5000
G01 Z0
G00 Z14.0000
G00 X-37.9196 Y-35.9994
G01 Z-1.5000
G01 Z0
G00 Z14.0000
G00 X-35.0850 Y-41.1988
G01 Z-1.5000
G01 Z0
G00 Z14.0000
G00 X-35.0850 Y-43.7388
G01 Z-1.5000
G01 Z0
G00 Z14.0000
G00 X-35.0850 Y-46.2788
G01 Z-1.5000
G01 Z0
G00 Z14.0000
G00 X-35.0850 Y-48.8188
G01 Z-1.5000
G01 Z0
G00 Z14.0000
G00 X-38.9991 Y-45.9207
G01 Z-1.5000
G01 Z0
G00 Z14.0000
M05
G00 Z0.50


